Color Lookup Presets Effects/z1 (63).CUBE
#Created by: Adobe Photoshop Export Color Lookup Plugin
#Copyright: (C) Copyright 2014 www.zafizack.com
TITLE "zafizack infrared Evo02"
#LUT size
LUT_3D_SIZE 16
#data domain
DOMAIN_MIN 0.0 0.0 0.0
DOMAIN_MAX 1.0 1.0 1.0
#LUT data points
0.000000 0.000000 0.000000
0.098114 0.000000 0.000000
0.187866 0.000000 0.000000
0.277466 0.000000 0.000000
0.368195 0.000000 0.000000
0.460754 0.000000 0.000000
0.555084 0.000000 0.000000
0.642303 0.000000 0.000000
0.718811 0.000000 0.000000
0.785278 0.000000 0.000000
0.842316 0.000000 0.000000
0.890472 0.000000 0.000000
0.930023 0.000000 0.000000
0.961395 0.000000 0.000000
0.984680 0.000000 0.000000
1.000000 0.000000 0.000000
0.000000 0.058929 0.004578
0.000000 0.058929 0.000000
0.020538 0.058929 0.000000
0.123444 0.058929 0.000000
0.220764 0.058929 0.000000
0.317841 0.058929 0.000000
0.415649 0.058929 0.000000
0.505432 0.058929 0.000000
0.583832 0.058929 0.000000
0.651733 0.058929 0.000000
0.709930 0.058929 0.000000
0.758942 0.058929 0.000000
0.799194 0.058929 0.000000
0.831085 0.058929 0.000000
0.854706 0.058929 0.000000
0.870270 0.058929 0.000000
0.000000 0.130096 0.009796
0.000000 0.130096 0.000702
0.000000 0.130096 0.000000
0.000000 0.130096 0.000000
0.050049 0.130096 0.000000
0.158295 0.130096 0.000000
0.262360 0.130096 0.000000
0.356171 0.130096 0.000000
0.437347 0.130096 0.000000
0.507324 0.130096 0.000000
0.567017 0.130096 0.000000
0.617249 0.130096 0.000000
0.658386 0.130096 0.000000
0.690918 0.130096 0.000000
0.715057 0.130096 0.000000
0.730927 0.130096 0.000000
0.000000 0.209320 0.015503
0.000000 0.209320 0.005951
0.000000 0.209320 0.000000
0.000000 0.209320 0.000000
0.000000 0.209320 0.000000
0.000000 0.209320 0.000000
0.087921 0.209320 0.000000
0.190552 0.209320 0.000000
0.276642 0.209320 0.000000
0.349854 0.209320 0.000000
0.411865 0.209320 0.000000
0.463776 0.209320 0.000000
0.506165 0.209320 0.000000
0.539642 0.209320 0.000000
0.564423 0.209320 0.000000
0.580688 0.209320 0.000000
0.000000 0.295593 0.021545
0.000000 0.295593 0.011810
0.000000 0.295593 0.002014
0.000000 0.295593 0.000000
0.000000 0.295593 0.000000
0.000000 0.295593 0.000000
0.000000 0.295593 0.000000
0.000000 0.295593 0.000000
0.094696 0.295593 0.000000
0.175110 0.295593 0.000000
0.241394 0.295593 0.000000
0.296173 0.295593 0.000000
0.340576 0.295593 0.000000
0.375488 0.295593 0.000000
0.401245 0.295593 0.000000
0.418121 0.295593 0.000000
0.000000 0.388580 0.028015
0.000000 0.388580 0.018097
0.000000 0.388580 0.007935
0.000000 0.388580 0.000000
0.000000 0.388580 0.000000
0.000000 0.388580 0.000000
0.000000 0.388580 0.000000
0.000000 0.388580 0.000000
0.000000 0.388580 0.000000
0.000000 0.388580 0.000000
0.043976 0.388580 0.000000
0.107147 0.388580 0.000000
0.156097 0.388580 0.000000
0.193878 0.388580 0.000000
0.221466 0.388580 0.000000
0.239471 0.388580 0.000000
0.000000 0.487732 0.034790
0.000000 0.487732 0.024750
0.000000 0.487732 0.014374
0.000000 0.487732 0.003906
0.000000 0.487732 0.000000
0.000000 0.487732 0.000000
0.000000 0.487732 0.000000
0.000000 0.487732 0.000000
0.000000 0.487732 0.000000
0.000000 0.487732 0.000000
0.000000 0.487732 0.000000
0.000000 0.487732 0.000000
0.000000 0.487732 0.000000
0.000000 0.487732 0.000000
0.008331 0.487732 0.000000
0.032013 0.487732 0.000000
0.000000 0.582764 0.041290
0.000000 0.582764 0.031128
0.000000 0.582764 0.020630
0.000000 0.582764 0.009827
0.000000 0.582764 0.000000
0.000000 0.582764 0.000000
0.000000 0.582764 0.000000
0.000000 0.582764 0.000000
0.000000 0.582764 0.000000
0.000000 0.582764 0.000000
0.000000 0.582764 0.000000
0.000000 0.582764 0.000000
0.000000 0.582764 0.000000
0.000000 0.582764 0.000000
0.000000 0.582764 0.000000
0.000000 0.582764 0.000000
0.000000 0.668488 0.047058
0.000000 0.668488 0.036865
0.000000 0.668488 0.026215
0.000000 0.668488 0.015289
0.000000 0.668488 0.004242
0.000000 0.668488 0.000000
0.000000 0.668488 0.000000
0.000000 0.668488 0.000000
0.000000 0.668488 0.000000
0.000000 0.668488 0.000000
0.000000 0.668488 0.000000
0.000000 0.668488 0.000000
0.000000 0.668488 0.000000
0.000000 0.668488 0.000000
0.000000 0.668488 0.000000
0.000000 0.668488 0.000000
0.000000 0.744659 0.052185
0.000000 0.744659 0.041931
0.000000 0.744659 0.031219
0.000000 0.744659 0.020142
0.000000 0.744659 0.008850
0.000000 0.744659 0.000000
0.000000 0.744659 0.000000
0.000000 0.744659 0.000000
0.000000 0.744659 0.000000
0.000000 0.744659 0.000000
0.000000 0.744659 0.000000
0.000000 0.744659 0.000000
0.000000 0.744659 0.000000
0.000000 0.744659 0.000000
0.000000 0.744659 0.000000
0.000000 0.744659 0.000000
0.000000 0.811157 0.056610
0.000000 0.811157 0.046326
0.000000 0.811157 0.035583
0.000000 0.811157 0.024414
0.000000 0.811157 0.012939
0.000000 0.811157 0.001556
0.000000 0.811157 0.000000
0.000000 0.811157 0.000000
0.000000 0.811157 0.000000
0.000000 0.811157 0.000000
0.000000 0.811157 0.000000
0.000000 0.811157 0.000000
0.000000 0.811157 0.000000
0.000000 0.811157 0.000000
0.000000 0.811157 0.000000
0.000000 0.811157 0.000000
0.000000 0.868042 0.060455
0.000000 0.868042 0.050110
0.000000 0.868042 0.039307
0.000000 0.868042 0.028076
0.000000 0.868042 0.016510
0.000000 0.868042 0.004822
0.000000 0.868042 0.000000
0.000000 0.868042 0.000000
0.000000 0.868042 0.000000
0.000000 0.868042 0.000000
0.000000 0.868042 0.000000
0.000000 0.868042 0.000000
0.000000 0.868042 0.000000
0.000000 0.868042 0.000000
0.000000 0.868042 0.000000
0.000000 0.868042 0.000000
0.000000 0.915314 0.063568
0.000000 0.915314 0.053223
0.000000 0.915314 0.042358
0.000000 0.915314 0.031097
0.000000 0.915314 0.019440
0.000000 0.915314 0.007660
0.000000 0.915314 0.000000
0.000000 0.915314 0.000000
0.000000 0.915314 0.000000
0.000000 0.915314 0.000000
0.000000 0.915314 0.000000
0.000000 0.915314 0.000000
0.000000 0.915314 0.000000
0.000000 0.915314 0.000000
0.000000 0.915314 0.000000
0.000000 0.915314 0.000000
0.000000 0.953125 0.066101
0.000000 0.953125 0.055695
0.000000 0.953125 0.044861
0.000000 0.953125 0.033478
0.000000 0.953125 0.021851
0.000000 0.953125 0.009949
0.000000 0.953125 0.000000
0.000000 0.953125 0.000000
0.000000 0.953125 0.000000
0.000000 0.953125 0.000000
0.000000 0.953125 0.000000
0.000000 0.953125 0.000000
0.000000 0.953125 0.000000
0.000000 0.953125 0.000000
0.000000 0.953125 0.000000
0.000000 0.953125 0.000000
0.000000 0.981323 0.067993
0.000000 0.981323 0.057587
0.000000 0.981323 0.046692
0.000000 0.981323 0.035309
0.000000 0.981323 0.023590
0.000000 0.981323 0.011627
0.000000 0.981323 0.000031
0.000000 0.981323 0.000000
0.000000 0.981323 0.000000
0.000000 0.981323 0.000000
0.000000 0.981323 0.000000
0.000000 0.981323 0.000000
0.000000 0.981323 0.000000
0.000000 0.981323 0.000000
0.000000 0.981323 0.000000
0.000000 0.981323 0.000000
0.000000 1.000000 0.069214
0.000000 1.000000 0.058807
0.000000 1.000000 0.047913
0.000000 1.000000 0.036530
0.000000 1.000000 0.024780
0.000000 1.000000 0.012787
0.000000 1.000000 0.000977
0.000000 1.000000 0.000000
0.000000 1.000000 0.000000
0.000000 1.000000 0.000000
0.000000 1.000000 0.000000
0.000000 1.000000 0.000000
0.000000 1.000000 0.000000
0.000000 1.000000 0.000000
0.000000 1.000000 0.000000
0.000000 1.000000 0.000000
0.183258 0.000000 0.066376
0.264038 0.000000 0.055969
0.346466 0.000000 0.045105
0.431122 0.000000 0.033783
0.518066 0.000000 0.022095
0.607544 0.000000 0.010193
0.699310 0.000000 0.000000
0.784485 0.000000 0.000000
0.859406 0.000000 0.000000
0.924652 0.000000 0.000000
0.980713 0.000000 0.000000
1.000000 0.000000 0.000000
1.000000 0.000000 0.000000
1.000000 0.000000 0.000000
1.000000 0.000000 0.000000
1.000000 0.000000 0.000000
0.014526 0.058929 0.071930
0.108704 0.058929 0.061493
0.197723 0.058929 0.050568
0.286896 0.058929 0.039154
0.377350 0.058929 0.027344
0.469696 0.058929 0.015289
0.563873 0.058929 0.003235
0.650940 0.058929 0.000000
0.727325 0.058929 0.000000
0.793732 0.058929 0.000000
0.850677 0.058929 0.000000
0.898804 0.058929 0.000000
0.938324 0.058929 0.000000
0.969666 0.058929 0.000000
0.992889 0.058929 0.000000
1.000000 0.058929 0.000000
0.000000 0.130096 0.077789
0.000000 0.130096 0.067322
0.022064 0.130096 0.056335
0.124664 0.130096 0.044861
0.221924 0.130096 0.032959
0.318939 0.130096 0.020752
0.416748 0.130096 0.008392
0.506500 0.130096 0.000000
0.584869 0.130096 0.000000
0.652771 0.130096 0.000000
0.710938 0.130096 0.000000
0.759979 0.130096 0.000000
0.800201 0.130096 0.000000
0.832092 0.130096 0.000000
0.855743 0.130096 0.000000
0.871307 0.130096 0.000000
0.000000 0.209320 0.084015
0.000000 0.209320 0.073456
0.000000 0.209320 0.062439
0.000000 0.209320 0.050903
0.041077 0.209320 0.038940
0.150421 0.209320 0.026581
0.254913 0.209320 0.014008
0.348969 0.209320 0.002716
0.430328 0.209320 0.000000
0.500397 0.209320 0.000000
0.560211 0.209320 0.000000
0.610474 0.209320 0.000000
0.651672 0.209320 0.000000
0.684265 0.209320 0.000000
0.708405 0.209320 0.000000
0.724274 0.209320 0.000000
0.000000 0.295593 0.090576
0.000000 0.295593 0.079987
0.000000 0.295593 0.068909
0.000000 0.295593 0.057281
0.000000 0.295593 0.045258
0.000000 0.295593 0.032806
0.069977 0.295593 0.020050
0.174164 0.295593 0.008423
0.260956 0.295593 0.000000
0.334564 0.295593 0.000000
0.396851 0.295593 0.000000
0.448944 0.295593 0.000000
0.491486 0.295593 0.000000
0.525085 0.295593 0.000000
0.549927 0.295593 0.000000
0.566254 0.295593 0.000000
0.000000 0.388580 0.097473
0.000000 0.388580 0.086823
0.000000 0.388580 0.075684
0.000000 0.388580 0.064056
0.000000 0.388580 0.051910
0.000000 0.388580 0.039368
0.000000 0.388580 0.026459
0.000000 0.388580 0.014618
0.067078 0.388580 0.004517
0.149536 0.388580 0.000000
0.216797 0.388580 0.000000
0.272125 0.388580 0.000000
0.316925 0.388580 0.000000
0.352112 0.388580 0.000000
0.378021 0.388580 0.000000
0.395020 0.388580 0.000000
0.000000 0.487732 0.104675
0.000000 0.487732 0.094025
0.000000 0.487732 0.082825
0.000000 0.487732 0.071136
0.000000 0.487732 0.058929
0.000000 0.487732 0.046265
0.000000 0.487732 0.033264
0.000000 0.487732 0.021271
0.000000 0.487732 0.010864
0.000000 0.487732 0.002167
0.001099 0.487732 0.000000
0.071075 0.487732 0.000000
0.121765 0.487732 0.000000
0.160431 0.487732 0.000000
0.188568 0.487732 0.000000
0.206879 0.487732 0.000000
0.000000 0.582764 0.111481
0.000000 0.582764 0.100800
0.000000 0.582764 0.089569
0.000000 0.582764 0.077820
0.000000 0.582764 0.065552
0.000000 0.582764 0.052826
0.000000 0.582764 0.039703
0.000000 0.582764 0.027557
0.000000 0.582764 0.016998
0.000000 0.582764 0.007965
0.000000 0.582764 0.000641
0.000000 0.582764 0.000000
0.000000 0.582764 0.000000
0.000000 0.582764 0.000000
0.000000 0.582764 0.000000
0.003632 0.582764 0.000000
0.000000 0.668488 0.117584
0.000000 0.668488 0.106873
0.000000 0.668488 0.095581
0.000000 0.668488 0.083801
0.000000 0.668488 0.071503
0.000000 0.668488 0.058685
0.000000 0.668488 0.045502
0.000000 0.668488 0.033264
0.000000 0.668488 0.022552
0.000000 0.668488 0.013367
0.000000 0.668488 0.005676
0.000000 0.668488 0.000000
0.000000 0.668488 0.000000
0.000000 0.668488 0.000000
0.000000 0.668488 0.000000
0.000000 0.668488 0.000000
0.000000 0.744659 0.122925
0.000000 0.744659 0.112183
0.000000 0.744659 0.100891
0.000000 0.744659 0.089050
0.000000 0.744659 0.076721
0.000000 0.744659 0.063904
0.000000 0.744659 0.050629
0.000000 0.744659 0.038300
0.000000 0.744659 0.027496
0.000000 0.744659 0.018219
0.000000 0.744659 0.010345
0.000000 0.744659 0.003906
0.000000 0.744659 0.000000
0.000000 0.744659 0.000000
0.000000 0.744659 0.000000
0.000000 0.744659 0.000000
0.000000 0.811157 0.127563
0.000000 0.811157 0.116791
0.000000 0.811157 0.105499
0.000000 0.811157 0.093628
0.000000 0.811157 0.081238
0.000000 0.811157 0.068390
0.000000 0.811157 0.055054
0.000000 0.811157 0.042694
0.000000 0.811157 0.031860
0.000000 0.811157 0.022461
0.000000 0.811157 0.014496
0.000000 0.811157 0.007874
0.000000 0.811157 0.002625
0.000000 0.811157 0.000000
0.000000 0.811157 0.000000
0.000000 0.811157 0.000000
0.000000 0.868042 0.131531
0.000000 0.868042 0.120758
0.000000 0.868042 0.109406
0.000000 0.868042 0.097504
0.000000 0.868042 0.085144
0.000000 0.868042 0.072205
0.000000 0.868042 0.058838
0.000000 0.868042 0.046448
0.000000 0.868042 0.035553
0.000000 0.868042 0.026093
0.000000 0.868042 0.018066
0.000000 0.868042 0.011353
0.000000 0.868042 0.005981
0.000000 0.868042 0.001831
0.000000 0.868042 0.000000
0.000000 0.868042 0.000000
0.000000 0.915314 0.134796
0.000000 0.915314 0.123993
0.000000 0.915314 0.112640
0.000000 0.915314 0.100739
0.000000 0.915314 0.088318
0.000000 0.915314 0.075378
0.000000 0.915314 0.062012
0.000000 0.915314 0.049561
0.000000 0.915314 0.038635
0.000000 0.915314 0.029144
0.000000 0.915314 0.021057
0.000000 0.915314 0.014282
0.000000 0.915314 0.008789
0.000000 0.915314 0.004578
0.000000 0.915314 0.001556
0.000000 0.915314 0.000000
0.000000 0.953125 0.137390
0.000000 0.953125 0.126587
0.000000 0.953125 0.115234
0.000000 0.953125 0.103302
0.000000 0.953125 0.090851
0.000000 0.953125 0.077911
0.000000 0.953125 0.064545
0.000000 0.953125 0.052032
0.000000 0.953125 0.041046
0.000000 0.953125 0.031555
0.000000 0.953125 0.023376
0.000000 0.953125 0.016632
0.000000 0.953125 0.011078
0.000000 0.953125 0.006805
0.000000 0.953125 0.003662
0.000000 0.953125 0.001678
0.000000 0.981323 0.139343
0.000000 0.981323 0.128540
0.000000 0.981323 0.117188
0.000000 0.981323 0.105225
0.000000 0.981323 0.092773
0.000000 0.981323 0.079803
0.000000 0.981323 0.066406
0.000000 0.981323 0.053925
0.000000 0.981323 0.042877
0.000000 0.981323 0.033325
0.000000 0.981323 0.025177
0.000000 0.981323 0.018341
0.000000 0.981323 0.012817
0.000000 0.981323 0.008453
0.000000 0.981323 0.005310
0.000000 0.981323 0.003265
0.000000 1.000000 0.140625
0.000000 1.000000 0.129822
0.000000 1.000000 0.118439
0.000000 1.000000 0.106476
0.000000 1.000000 0.094055
0.000000 1.000000 0.081085
0.000000 1.000000 0.067627
0.000000 1.000000 0.055115
0.000000 1.000000 0.044098
0.000000 1.000000 0.034546
0.000000 1.000000 0.026367
0.000000 1.000000 0.019531
0.000000 1.000000 0.013947
0.000000 1.000000 0.009583
0.000000 1.000000 0.006409
0.000000 1.000000 0.004333
0.350800 0.000000 0.141754
0.426788 0.000000 0.130951
0.505463 0.000000 0.119568
0.587006 0.000000 0.107605
0.671265 0.000000 0.095154
0.758453 0.000000 0.082184
0.848145 0.000000 0.068726
0.931641 0.000000 0.056213
1.000000 0.000000 0.045166
1.000000 0.000000 0.035614
1.000000 0.000000 0.027405
1.000000 0.000000 0.020569
1.000000 0.000000 0.014954
1.000000 0.000000 0.010590
1.000000 0.000000 0.007385
1.000000 0.000000 0.005310
0.202332 0.058929 0.147522
0.282410 0.058929 0.136688
0.364319 0.058929 0.125275
0.448547 0.058929 0.113281
0.535156 0.058929 0.100769
0.624329 0.058929 0.087769
0.715851 0.058929 0.074280
0.800812 0.058929 0.061707
0.875610 0.058929 0.050598
0.940704 0.058929 0.040955
0.996643 0.058929 0.032715
1.000000 0.058929 0.025787
1.000000 0.058929 0.020142
1.000000 0.058929 0.015656
1.000000 0.058929 0.012421
1.000000 0.058929 0.010254
0.027832 0.130096 0.153595
0.119720 0.130096 0.142731
0.208069 0.130096 0.131287
0.296875 0.130096 0.119293
0.386993 0.130096 0.106750
0.479126 0.130096 0.093689
0.573090 0.130096 0.080170
0.660034 0.130096 0.067535
0.736328 0.130096 0.056366
0.802612 0.130096 0.046692
0.859528 0.130096 0.038361
0.907593 0.130096 0.031403
0.947052 0.130096 0.025665
0.978363 0.130096 0.021149
1.000000 0.130096 0.017822
1.000000 0.130096 0.015625
0.000000 0.209320 0.160034
0.000000 0.209320 0.149109
0.024017 0.209320 0.137665
0.126282 0.209320 0.125641
0.223450 0.209320 0.113098
0.320435 0.209320 0.099945
0.418152 0.209320 0.086365
0.507874 0.209320 0.073700
0.586243 0.209320 0.062531
0.654144 0.209320 0.052765
0.712280 0.209320 0.044403
0.761292 0.209320 0.037354
0.801544 0.209320 0.031555
0.833405 0.209320 0.027008
0.857056 0.209320 0.023621
0.872589 0.209320 0.021454
0.000000 0.295593 0.166779
0.000000 0.295593 0.155853
0.000000 0.295593 0.144379
0.000000 0.295593 0.132294
0.032593 0.295593 0.119720
0.143188 0.295593 0.106567
0.248077 0.295593 0.092957
0.342377 0.295593 0.080200
0.423859 0.295593 0.068970
0.494049 0.295593 0.059174
0.553925 0.295593 0.050751
0.604248 0.295593 0.043671
0.645477 0.295593 0.037842
0.678131 0.295593 0.033203
0.702271 0.295593 0.029816
0.718201 0.295593 0.027557
0.000000 0.388580 0.173889
0.000000 0.388580 0.162933
0.000000 0.388580 0.151428
0.000000 0.388580 0.139343
0.000000 0.388580 0.126709
0.000000 0.388580 0.113525
0.051971 0.388580 0.099823
0.158081 0.388580 0.087067
0.245575 0.388580 0.075775
0.319611 0.388580 0.065948
0.382172 0.388580 0.057465
0.434479 0.388580 0.050293
0.477173 0.388580 0.044403
0.510864 0.388580 0.039795
0.535797 0.388580 0.036346
0.552155 0.388580 0.034119
0.000000 0.487732 0.181305
0.000000 0.487732 0.170349
0.000000 0.487732 0.158813
0.000000 0.487732 0.146698
0.000000 0.487732 0.134033
0.000000 0.487732 0.120789
0.000000 0.487732 0.107086
0.000000 0.487732 0.094238
0.039551 0.487732 0.082916
0.124725 0.487732 0.072998
0.193054 0.487732 0.064514
0.249023 0.487732 0.057281
0.294220 0.487732 0.051392
0.329651 0.487732 0.046722
0.355774 0.487732 0.043243
0.372864 0.487732 0.040955
0.000000 0.582764 0.188324
0.000000 0.582764 0.177338
0.000000 0.582764 0.165741
0.000000 0.582764 0.153625
0.000000 0.582764 0.140930
0.000000 0.582764 0.127655
0.000000 0.582764 0.113892
0.000000 0.582764 0.101013
0.000000 0.582764 0.089661
0.000000 0.582764 0.079712
0.000000 0.582764 0.071136
0.057159 0.582764 0.063934
0.108734 0.582764 0.057983
0.147827 0.582764 0.053253
0.176178 0.582764 0.049774
0.194611 0.582764 0.047485
0.000000 0.668488 0.194550
0.000000 0.668488 0.183563
0.000000 0.668488 0.171967
0.000000 0.668488 0.159790
0.000000 0.668488 0.147064
0.000000 0.668488 0.133759
0.000000 0.668488 0.119965
0.000000 0.668488 0.107086
0.000000 0.668488 0.095673
0.000000 0.668488 0.085693
0.000000 0.668488 0.077118
0.000000 0.668488 0.069824
0.000000 0.668488 0.063873
0.000000 0.668488 0.059143
0.000000 0.668488 0.055634
0.015106 0.668488 0.053314
0.000000 0.744659 0.200043
0.000000 0.744659 0.189026
0.000000 0.744659 0.177429
0.000000 0.744659 0.165222
0.000000 0.744659 0.152466
0.000000 0.744659 0.139160
0.000000 0.744659 0.125336
0.000000 0.744659 0.112396
0.000000 0.744659 0.100952
0.000000 0.744659 0.090942
0.000000 0.744659 0.082336
0.000000 0.744659 0.075073
0.000000 0.744659 0.069092
0.000000 0.744659 0.064301
0.000000 0.744659 0.060791
0.000000 0.744659 0.058472
0.000000 0.811157 0.204773
0.000000 0.811157 0.193756
0.000000 0.811157 0.182159
0.000000 0.811157 0.169952
0.000000 0.811157 0.157166
0.000000 0.811157 0.143829
0.000000 0.811157 0.129974
0.000000 0.811157 0.117035
0.000000 0.811157 0.105560
0.000000 0.811157 0.095551
0.000000 0.811157 0.086914
0.000000 0.811157 0.079590
0.000000 0.811157 0.073578
0.000000 0.811157 0.068817
0.000000 0.811157 0.065308
0.000000 0.811157 0.062927
0.000000 0.868042 0.208862
0.000000 0.868042 0.197815
0.000000 0.868042 0.186188
0.000000 0.868042 0.173950
0.000000 0.868042 0.161163
0.000000 0.868042 0.147797
0.000000 0.868042 0.133942
0.000000 0.868042 0.120972
0.000000 0.868042 0.109467
0.000000 0.868042 0.099426
0.000000 0.868042 0.090790
0.000000 0.868042 0.083435
0.000000 0.868042 0.077454
0.000000 0.868042 0.072662
0.000000 0.868042 0.069122
0.000000 0.868042 0.066772
0.000000 0.915314 0.212189
0.000000 0.915314 0.201141
0.000000 0.915314 0.189514
0.000000 0.915314 0.177277
0.000000 0.915314 0.164459
0.000000 0.915314 0.151093
0.000000 0.915314 0.137207
0.000000 0.915314 0.124207
0.000000 0.915314 0.112732
0.000000 0.915314 0.102692
0.000000 0.915314 0.094025
0.000000 0.915314 0.086670
0.000000 0.915314 0.080627
0.000000 0.915314 0.075836
0.000000 0.915314 0.072266
0.000000 0.915314 0.069916
0.000000 0.953125 0.214844
0.000000 0.953125 0.203796
0.000000 0.953125 0.192169
0.000000 0.953125 0.179901
0.000000 0.953125 0.167114
0.000000 0.953125 0.153748
0.000000 0.953125 0.139832
0.000000 0.953125 0.126831
0.000000 0.953125 0.115295
0.000000 0.953125 0.105225
0.000000 0.953125 0.096558
0.000000 0.953125 0.089233
0.000000 0.953125 0.083160
0.000000 0.953125 0.078369
0.000000 0.953125 0.074799
0.000000 0.953125 0.072449
0.000000 0.981323 0.216858
0.000000 0.981323 0.205780
0.000000 0.981323 0.194153
0.000000 0.981323 0.181885
0.000000 0.981323 0.169067
0.000000 0.981323 0.155670
0.000000 0.981323 0.141785
0.000000 0.981323 0.128784
0.000000 0.981323 0.117249
0.000000 0.981323 0.107147
0.000000 0.981323 0.098450
0.000000 0.981323 0.091095
0.000000 0.981323 0.085083
0.000000 0.981323 0.080231
0.000000 0.981323 0.076691
0.000000 0.981323 0.074341
0.000000 1.000000 0.218170
0.000000 1.000000 0.207092
0.000000 1.000000 0.195435
0.000000 1.000000 0.183167
0.000000 1.000000 0.170380
0.000000 1.000000 0.156982
0.000000 1.000000 0.143066
0.000000 1.000000 0.130035
0.000000 1.000000 0.118500
0.000000 1.000000 0.108429
0.000000 1.000000 0.099731
0.000000 1.000000 0.092377
0.000000 1.000000 0.086304
0.000000 1.000000 0.081512
0.000000 1.000000 0.077911
0.000000 1.000000 0.075592
0.518097 0.000000 0.223572
0.591156 0.000000 0.212494
0.667297 0.000000 0.200836
0.746521 0.000000 0.188568
0.828735 0.000000 0.175720
0.914032 0.000000 0.162323
1.000000 0.000000 0.148376
1.000000 0.000000 0.135315
1.000000 0.000000 0.123749
1.000000 0.000000 0.113647
1.000000 0.000000 0.104950
1.000000 0.000000 0.097565
1.000000 0.000000 0.091492
1.000000 0.000000 0.086670
1.000000 0.000000 0.083099
1.000000 0.000000 0.080719
0.377380 0.058929 0.229462
0.452820 0.058929 0.218353
0.531036 0.058929 0.206696
0.612152 0.058929 0.194366
0.696075 0.058929 0.181519
0.782898 0.058929 0.168091
0.872314 0.058929 0.154144
0.955597 0.058929 0.141083
1.000000 0.058929 0.129486
1.000000 0.058929 0.119324
1.000000 0.058929 0.110596
1.000000 0.058929 0.103210
1.000000 0.058929 0.097107
1.000000 0.058929 0.092255
1.000000 0.058929 0.088684
1.000000 0.058929 0.086304
0.221954 0.130096 0.235657
0.301361 0.130096 0.224548
0.382751 0.130096 0.212860
0.466583 0.130096 0.200531
0.552856 0.130096 0.187653
0.641754 0.130096 0.174225
0.733002 0.130096 0.160248
0.817780 0.130096 0.147125
0.892365 0.130096 0.135498
0.957336 0.130096 0.125336
1.000000 0.130096 0.116577
1.000000 0.130096 0.109192
1.000000 0.130096 0.103088
1.000000 0.130096 0.098206
1.000000 0.130096 0.094604
1.000000 0.130096 0.092224
0.041107 0.209320 0.242249
0.131226 0.209320 0.231110
0.218933 0.209320 0.219391
0.307312 0.209320 0.207062
0.397156 0.209320 0.194183
0.489044 0.209320 0.180664
0.582825 0.209320 0.166656
0.669617 0.209320 0.153534
0.745789 0.209320 0.141907
0.811981 0.209320 0.131744
0.868835 0.209320 0.122955
0.916809 0.209320 0.115509
0.956238 0.209320 0.109375
0.987549 0.209320 0.104523
1.000000 0.209320 0.100891
1.000000 0.209320 0.098511
0.000000 0.295593 0.249146
0.000000 0.295593 0.238007
0.026978 0.295593 0.226257
0.128784 0.295593 0.213898
0.225769 0.295593 0.200989
0.322662 0.295593 0.187500
0.420319 0.295593 0.173462
0.510010 0.295593 0.160309
0.588348 0.295593 0.148621
0.656219 0.295593 0.138428
0.714325 0.295593 0.129608
0.763336 0.295593 0.122162
0.803558 0.295593 0.116028
0.835419 0.295593 0.111115
0.859070 0.295593 0.107513
0.874603 0.295593 0.105103
0.000000 0.388580 0.256378
0.000000 0.388580 0.245209
0.000000 0.388580 0.233459
0.000000 0.388580 0.221100
0.024689 0.388580 0.208160
0.136505 0.388580 0.194611
0.241791 0.388580 0.180542
0.336334 0.388580 0.167358
0.417969 0.388580 0.155701
0.488251 0.388580 0.145477
0.548187 0.388580 0.136658
0.598602 0.388580 0.129150
0.639862 0.388580 0.122986
0.672516 0.388580 0.118103
0.696716 0.388580 0.114471
0.712616 0.388580 0.112061
0.000000 0.487732 0.263947
0.000000 0.487732 0.252747
0.000000 0.487732 0.240997
0.000000 0.487732 0.228607
0.000000 0.487732 0.215668
0.000000 0.487732 0.202087
0.034912 0.487732 0.187988
0.143219 0.487732 0.174774
0.231445 0.487732 0.163086
0.305908 0.487732 0.152832
0.368744 0.487732 0.143982
0.421234 0.487732 0.136475
0.464050 0.487732 0.130280
0.497864 0.487732 0.125366
0.522858 0.487732 0.121735
0.539246 0.487732 0.119324
