Color Lookup Presets Effects/z1 (83).CUBE
#Created by: Adobe Photoshop Export Color Lookup Plugin
#Copyright: (C) Copyright 2015 www.zafizack.com
TITLE "zafizack-VG-08"
#LUT size
LUT_3D_SIZE 16
#data domain
DOMAIN_MIN 0.0 0.0 0.0
DOMAIN_MAX 1.0 1.0 1.0
#LUT data points
0.087585 0.050232 0.068115
0.112274 0.048523 0.066711
0.200409 0.038239 0.058655
0.316376 0.021667 0.061127
0.432037 0.024231 0.087128
0.537628 0.022888 0.117676
0.630951 0.042999 0.148560
0.714142 0.077820 0.180847
0.778625 0.105377 0.216034
0.825409 0.125793 0.249390
0.865509 0.143280 0.282227
0.903809 0.160309 0.317291
0.940582 0.176331 0.352509
0.975616 0.191101 0.386993
1.000000 0.204590 0.420685
1.000000 0.217590 0.453461
0.086914 0.059631 0.067261
0.093079 0.073914 0.074066
0.182434 0.098877 0.099518
0.305237 0.109650 0.108612
0.424164 0.118073 0.126801
0.532074 0.123383 0.153198
0.627014 0.137939 0.184052
0.711365 0.161774 0.216187
0.775848 0.182587 0.249115
0.822479 0.199371 0.283630
0.862976 0.214691 0.317627
0.901459 0.230713 0.351349
0.938477 0.246704 0.385529
0.973846 0.261414 0.418945
1.000000 0.275482 0.451630
1.000000 0.288757 0.482880
0.076935 0.139374 0.113647
0.096375 0.153595 0.128204
0.140686 0.169525 0.141113
0.267731 0.198425 0.166931
0.399048 0.212158 0.182159
0.511841 0.218750 0.201843
0.609741 0.229858 0.227570
0.695282 0.250610 0.258270
0.766266 0.271454 0.291168
0.817535 0.288422 0.323364
0.858398 0.303497 0.356873
0.897583 0.317963 0.389801
0.935211 0.332092 0.422302
0.971008 0.345398 0.453857
1.000000 0.357971 0.484314
1.000000 0.370300 0.513824
0.054077 0.223877 0.164734
0.078705 0.237915 0.179077
0.109802 0.252563 0.193268
0.171539 0.273193 0.208252
0.339081 0.307190 0.240448
0.470154 0.326355 0.266235
0.575989 0.335419 0.288177
0.667999 0.348633 0.313538
0.747467 0.364410 0.343048
0.809143 0.380005 0.374420
0.852783 0.392822 0.404968
0.892853 0.405060 0.435486
0.931091 0.417419 0.465851
0.967529 0.428619 0.494934
1.000000 0.439545 0.522491
1.000000 0.450195 0.549011
0.023651 0.308960 0.211853
0.056763 0.321411 0.228638
0.098602 0.335938 0.245850
0.145721 0.352356 0.263794
0.219513 0.373657 0.286194
0.403656 0.412201 0.310669
0.532074 0.435944 0.355988
0.631897 0.447418 0.381744
0.717560 0.458252 0.407410
0.791962 0.468323 0.432434
0.846008 0.479492 0.460144
0.886841 0.489838 0.488190
0.926025 0.499725 0.514801
0.963287 0.509003 0.540588
0.998901 0.518188 0.565796
1.000000 0.526978 0.589111
0.000854 0.388489 0.266968
0.039520 0.399261 0.284088
0.081818 0.410675 0.303894
0.134979 0.425385 0.324768
0.199249 0.443634 0.348175
0.282623 0.466919 0.372589
0.460052 0.505341 0.397461
0.591827 0.532257 0.444702
0.683929 0.544464 0.473602
0.762817 0.554779 0.500031
0.833221 0.562561 0.522217
0.879883 0.568848 0.544128
0.920258 0.576935 0.568085
0.958282 0.584686 0.590302
0.994873 0.592133 0.612152
1.000000 0.599426 0.633545
0.000000 0.460236 0.328552
0.015808 0.469208 0.347534
0.072021 0.479736 0.367432
0.130798 0.492554 0.389587
0.188568 0.510254 0.411224
0.260803 0.531403 0.436432
0.348419 0.555908 0.461517
0.520630 0.587555 0.485443
0.649292 0.613159 0.529175
0.735443 0.626373 0.558777
0.808716 0.636383 0.584167
0.869476 0.642944 0.603943
0.913910 0.647583 0.622498
0.953094 0.653442 0.642029
0.990662 0.659027 0.660309
1.000000 0.665100 0.679077
0.000000 0.524384 0.392670
0.005859 0.534698 0.412170
0.075317 0.544983 0.433502
0.132202 0.558502 0.455475
0.191132 0.574829 0.477386
0.250488 0.592133 0.498688
0.327423 0.613098 0.524017
0.425720 0.635010 0.548279
0.585632 0.660126 0.570374
0.705444 0.681427 0.607178
0.787231 0.696136 0.635406
0.856384 0.705505 0.657959
0.906769 0.711609 0.676697
0.947540 0.716064 0.693848
0.986206 0.720245 0.709900
1.000000 0.724121 0.725220
0.000000 0.586273 0.458344
0.000000 0.594940 0.476929
0.066132 0.606171 0.496918
0.136749 0.619873 0.519653
0.198242 0.634827 0.542664
0.257324 0.650330 0.563812
0.319092 0.666626 0.583954
0.405334 0.685486 0.607758
0.509735 0.704742 0.629639
0.653503 0.725037 0.649109
0.760498 0.742218 0.679718
0.838684 0.756989 0.704590
0.898010 0.765381 0.724548
0.941803 0.771301 0.742340
0.981476 0.775818 0.758392
1.000000 0.779388 0.772888
0.000000 0.645538 0.524811
0.000000 0.654572 0.543945
0.081665 0.664673 0.562653
0.142609 0.675812 0.581573
0.204834 0.689392 0.604034
0.266510 0.704010 0.626282
0.329590 0.718658 0.645874
0.398102 0.733429 0.664154
0.490051 0.749817 0.684845
0.593353 0.766968 0.703522
0.720001 0.783661 0.720428
0.815369 0.798187 0.746674
0.886780 0.811584 0.768005
0.936005 0.818787 0.785950
0.976776 0.824371 0.802643
1.000000 0.828644 0.817719
0.000000 0.703827 0.591064
0.048615 0.711365 0.609558
0.114502 0.720245 0.627655
0.165955 0.729889 0.645050
0.215363 0.740326 0.662323
0.274384 0.753204 0.683319
0.339111 0.766998 0.703949
0.408844 0.779999 0.721313
0.484314 0.793213 0.737061
0.574615 0.807983 0.753937
0.673035 0.823120 0.769928
0.784760 0.837341 0.785645
0.869934 0.850037 0.808777
0.928925 0.860992 0.827240
0.972015 0.867554 0.843719
1.000000 0.872864 0.859619
0.010590 0.756348 0.651794
0.088379 0.763641 0.670074
0.144318 0.771942 0.688782
0.193146 0.780853 0.706024
0.237518 0.789825 0.721710
0.285156 0.799805 0.737091
0.345520 0.811554 0.755829
0.420166 0.823822 0.774384
0.491394 0.835541 0.789307
0.567841 0.847900 0.803009
0.653778 0.861145 0.816742
0.747314 0.874847 0.831055
0.846405 0.887268 0.846619
0.920013 0.898102 0.866760
0.967072 0.906219 0.883484
1.000000 0.911896 0.899231
0.072571 0.807587 0.710724
0.121979 0.813690 0.727112
0.167023 0.820648 0.743744
0.209595 0.828094 0.759888
0.255157 0.836578 0.775604
0.301636 0.845642 0.791199
0.356628 0.854523 0.805573
0.423676 0.864929 0.822266
0.495117 0.875793 0.837402
0.570282 0.887054 0.851318
0.647034 0.898529 0.863495
0.728088 0.910339 0.875153
0.817993 0.921387 0.885773
0.902802 0.929993 0.898529
0.963196 0.936371 0.913971
1.000000 0.940979 0.928772
0.135284 0.853668 0.765930
0.165710 0.857849 0.779938
0.202332 0.863129 0.794739
0.239471 0.869263 0.809174
0.276978 0.876007 0.823669
0.328400 0.883087 0.838043
0.383606 0.890625 0.852417
0.445953 0.899017 0.866730
0.510895 0.908112 0.880737
0.583313 0.917999 0.894043
0.663513 0.928864 0.907135
0.740875 0.939178 0.918030
0.821075 0.947296 0.924469
0.899017 0.954285 0.932190
0.959564 0.959015 0.942352
1.000000 0.962219 0.953613
0.197815 0.894348 0.815826
0.218811 0.897339 0.829071
0.243713 0.901031 0.841980
0.275635 0.905457 0.855072
0.315918 0.910370 0.868011
0.361481 0.916107 0.881622
0.412415 0.922089 0.894440
0.469391 0.929138 0.907562
0.533386 0.935547 0.917999
0.602509 0.943726 0.929962
0.678040 0.951263 0.938293
0.758240 0.960510 0.948364
0.837311 0.968201 0.954895
0.901703 0.974091 0.961517
0.956696 0.978577 0.969574
1.000000 0.981903 0.977600
0.257629 0.931488 0.862183
0.273590 0.933167 0.874146
0.295868 0.935547 0.886322
0.324005 0.938599 0.898346
0.356171 0.942322 0.910522
0.397217 0.946655 0.922455
0.443359 0.951538 0.934570
0.495453 0.956543 0.945435
0.555603 0.961395 0.954315
0.621643 0.966919 0.962677
0.693573 0.973145 0.970428
0.768890 0.980103 0.977081
0.845520 0.987061 0.982330
0.905060 0.992432 0.987885
0.955048 0.996490 0.993774
1.000000 1.000000 1.000000
0.087585 0.050232 0.068115
0.103333 0.049225 0.067261
0.189087 0.039948 0.083923
0.305695 0.017181 0.101349
0.421326 0.018890 0.128235
0.529083 0.016479 0.159546
0.624298 0.032623 0.192841
0.708923 0.070068 0.227081
0.775574 0.099152 0.260925
0.823059 0.120239 0.293793
0.863678 0.138214 0.326599
0.902313 0.155731 0.359833
0.939423 0.171936 0.392731
0.975006 0.186920 0.425079
1.000000 0.200684 0.456635
1.000000 0.213501 0.487061
0.087585 0.050232 0.068115
0.087585 0.050232 0.068329
0.170685 0.074646 0.094177
0.291290 0.083527 0.103333
0.411438 0.091949 0.122620
0.521515 0.096985 0.149109
0.618164 0.110901 0.179932
0.704132 0.135834 0.211304
0.771912 0.158386 0.243195
0.820038 0.176300 0.275604
0.861053 0.192322 0.308380
0.900238 0.207703 0.341217
0.937714 0.223022 0.374695
0.973572 0.237305 0.407410
1.000000 0.250916 0.439453
1.000000 0.263824 0.470703
0.080627 0.116943 0.115570
0.098053 0.128174 0.120361
0.140717 0.143677 0.132965
0.265198 0.171387 0.156677
0.393341 0.181793 0.170624
0.507080 0.188019 0.190704
0.605927 0.199310 0.216248
0.692596 0.221649 0.246674
0.765015 0.243469 0.279297
0.815674 0.260956 0.310638
0.857269 0.275970 0.342255
0.896790 0.291199 0.374817
0.934784 0.305786 0.406708
0.971008 0.319336 0.437531
1.000000 0.332611 0.467682
1.000000 0.345123 0.496521
0.061401 0.203217 0.165314
0.082703 0.213776 0.170898
0.116364 0.228912 0.185059
0.181244 0.249725 0.198029
0.341095 0.282684 0.229095
0.468933 0.296417 0.249390
0.575775 0.304291 0.270416
0.668213 0.318634 0.294098
0.747864 0.336456 0.323700
0.807465 0.352417 0.354553
0.851685 0.366333 0.384674
0.892090 0.379395 0.414520
0.930756 0.391937 0.444061
0.967529 0.404022 0.473022
1.000000 0.415466 0.500916
1.000000 0.426575 0.527802
0.019562 0.289520 0.212036
0.057739 0.298431 0.216858
0.095093 0.312714 0.233337
0.145050 0.329956 0.250427
0.226715 0.353058 0.269348
0.407654 0.388794 0.298523
0.531769 0.410400 0.335358
0.632446 0.420746 0.357849
0.718323 0.432556 0.382324
0.791351 0.443848 0.407227
0.844879 0.455719 0.434875
0.886505 0.466278 0.462097
0.925873 0.477051 0.489471
0.963470 0.486786 0.515015
0.999573 0.496277 0.540039
1.000000 0.505646 0.564148
0.000000 0.371124 0.263245
0.038574 0.379181 0.268372
0.079376 0.390930 0.285461
0.132141 0.406128 0.305420
0.199493 0.424927 0.328339
0.283203 0.447662 0.351379
0.468597 0.488403 0.373901
0.591431 0.511353 0.419861
0.684265 0.523132 0.446503
0.764191 0.533081 0.470917
0.832275 0.541656 0.493713
0.879517 0.548401 0.515320
0.920105 0.556763 0.538940
0.958740 0.564880 0.562225
0.995483 0.572815 0.584229
1.000000 0.580353 0.605286
0.000000 0.445282 0.321686
0.014252 0.452423 0.327301
0.067352 0.462860 0.345734
0.122467 0.475555 0.364410
0.182526 0.492432 0.386017
0.257263 0.513672 0.410980
0.347748 0.538971 0.434418
0.526672 0.573578 0.456787
0.648438 0.597107 0.501953
0.734802 0.609711 0.529694
0.808746 0.619385 0.554108
0.871399 0.626801 0.575531
0.913727 0.631073 0.592957
0.953308 0.635864 0.610779
0.991089 0.642609 0.630707
1.000000 0.648895 0.649506
0.000000 0.511108 0.384613
0.000000 0.519318 0.387360
0.067657 0.529755 0.407990
0.119507 0.541504 0.427856
0.178314 0.557831 0.446777
0.243073 0.576477 0.468567
0.322327 0.598175 0.493683
0.422150 0.620880 0.516174
0.589905 0.648224 0.537720
0.704407 0.668793 0.577484
0.786194 0.682983 0.605133
0.855927 0.692230 0.627808
0.906677 0.698334 0.647125
0.947571 0.702301 0.662933
0.986481 0.706207 0.678558
1.000000 0.710236 0.694031
0.000000 0.571991 0.447479
0.000000 0.580627 0.446838
0.042053 0.591370 0.465790
0.119720 0.604980 0.487366
0.181183 0.619598 0.509125
0.240295 0.635193 0.528351
0.309570 0.653168 0.550110
0.398438 0.673065 0.573883
0.505310 0.692719 0.594330
0.655334 0.714813 0.614410
0.759888 0.731873 0.648010
0.838074 0.746704 0.673645
0.898773 0.754578 0.693542
0.941742 0.760315 0.711456
0.981781 0.764069 0.726196
1.000000 0.767609 0.740479
0.000000 0.632538 0.509277
0.000000 0.641388 0.509949
0.043762 0.651001 0.527557
0.117310 0.662048 0.545441
0.183655 0.675659 0.566772
0.246704 0.690460 0.588104
0.308380 0.705353 0.606812
0.385284 0.721924 0.627808
0.482849 0.739471 0.649200
0.588623 0.756897 0.666901
0.720276 0.775085 0.684998
0.814819 0.789307 0.713501
0.887238 0.803497 0.736481
0.935791 0.809998 0.754028
0.976898 0.815460 0.770782
1.000000 0.819183 0.784851
0.000000 0.688507 0.568634
0.000000 0.698090 0.570465
0.068817 0.707031 0.588379
0.136719 0.717377 0.606537
0.191345 0.728119 0.623505
0.251587 0.741089 0.643158
0.316010 0.754944 0.663055
0.383453 0.768616 0.680542
0.469299 0.783356 0.699677
0.567352 0.799255 0.717804
0.668396 0.814789 0.733002
0.783539 0.830231 0.749939
0.868622 0.842407 0.774414
0.929657 0.854462 0.794678
0.972168 0.860382 0.810822
1.000000 0.865570 0.826172
0.000000 0.742004 0.627289
0.019592 0.752167 0.630951
0.099487 0.760101 0.647491
0.156555 0.768860 0.664215
0.210785 0.778961 0.681915
0.261292 0.789185 0.698029
0.320801 0.801208 0.715271
0.392700 0.813538 0.732727
0.466095 0.825653 0.748230
0.551819 0.839355 0.764435
0.647369 0.853851 0.780060
0.743073 0.867706 0.793823
0.844482 0.881317 0.810425
0.919037 0.891724 0.831635
0.967255 0.901031 0.849640
1.000000 0.906555 0.864746
0.000000 0.794312 0.685852
0.075867 0.804108 0.689392
0.135040 0.811310 0.705872
0.181671 0.818787 0.720795
0.227722 0.827057 0.735596
0.278107 0.836456 0.751617
0.328979 0.845642 0.765869
0.398010 0.856323 0.781677
0.471832 0.867493 0.796875
0.545258 0.878723 0.810181
0.628906 0.891205 0.823761
0.721222 0.904541 0.837830
0.812897 0.916107 0.848724
0.901093 0.926422 0.862762
0.963409 0.932861 0.878754
1.000000 0.937988 0.894012
0.000000 0.841827 0.740021
0.126373 0.850433 0.742126
0.167511 0.855927 0.756927
0.211975 0.862732 0.772247
0.256836 0.869843 0.786743
0.304932 0.877228 0.800568
0.359314 0.884796 0.813721
0.415741 0.892853 0.826752
0.486206 0.902496 0.840851
0.562836 0.912872 0.854401
0.637573 0.923004 0.865845
0.718781 0.934143 0.877533
0.809052 0.944153 0.886871
0.890778 0.951843 0.894989
0.959442 0.957489 0.905548
1.000000 0.960449 0.918823
0.103851 0.883911 0.789612
0.182800 0.891724 0.791412
0.212219 0.895660 0.804108
0.245728 0.900513 0.817261
0.289154 0.906250 0.831146
0.340576 0.912537 0.844757
0.394135 0.919067 0.857788
0.448975 0.925568 0.869110
0.507538 0.932404 0.879639
0.582001 0.940308 0.890106
0.661438 0.948486 0.898956
0.735931 0.957642 0.908295
0.816284 0.965485 0.914368
0.894287 0.972626 0.922394
0.955902 0.977875 0.931000
1.000000 0.980743 0.942902
0.179260 0.922241 0.835052
0.236328 0.929138 0.836548
0.261993 0.931915 0.848267
0.293976 0.935303 0.860199
0.330841 0.939362 0.872314
0.374725 0.944214 0.885010
0.424774 0.949524 0.896729
0.478027 0.955170 0.907898
0.540558 0.960175 0.915985
0.602509 0.965149 0.922791
0.679199 0.971924 0.930267
0.756317 0.978943 0.936646
0.832611 0.985931 0.942749
0.896454 0.991699 0.949921
0.954132 0.996429 0.958801
1.000000 1.000000 0.967529
0.087616 0.050201 0.086182
0.103088 0.049133 0.106689
0.181366 0.041016 0.118713
0.301422 0.017334 0.142670
0.418365 0.013367 0.174561
0.520874 0.010498 0.204651
0.617859 0.023132 0.237701
0.703949 0.061615 0.273499
0.772461 0.092560 0.308655
0.820740 0.114532 0.340851
0.861755 0.132965 0.371735
0.900879 0.150940 0.403381
0.938416 0.167450 0.434326
0.974335 0.182617 0.464478
1.000000 0.196594 0.493561
1.000000 0.209534 0.520782
0.087585 0.050171 0.105133
0.087585 0.050140 0.112427
0.158417 0.066925 0.125305
0.281677 0.078033 0.143066
0.402649 0.086700 0.167725
0.513062 0.091919 0.196075
0.611511 0.104309 0.226349
0.698822 0.130157 0.259033
0.768585 0.153412 0.292114
0.817627 0.171753 0.323517
0.859161 0.187714 0.354340
0.898773 0.203705 0.385559
0.936584 0.219788 0.417114
0.972870 0.234222 0.447540
1.000000 0.247589 0.477234
1.000000 0.260773 0.505402
0.083618 0.093414 0.120209
0.082214 0.104828 0.127075
0.135162 0.115967 0.130615
0.261200 0.142456 0.154083
0.387421 0.151337 0.168915
0.501801 0.158356 0.190704
0.601685 0.169403 0.216797
0.689789 0.192352 0.246277
0.763794 0.215179 0.278168
0.813690 0.233246 0.308929
0.855713 0.249359 0.339386
0.895905 0.265045 0.370544
0.934052 0.280548 0.401733
0.970825 0.294647 0.431793
1.000000 0.308075 0.461151
1.000000 0.320923 0.489380
0.067322 0.182922 0.170502
0.064606 0.192688 0.177673
0.124176 0.205261 0.183685
0.191254 0.225891 0.195740
0.342041 0.256287 0.223236
0.467773 0.265076 0.240997
0.574921 0.272736 0.261841
0.666870 0.290070 0.286743
0.747314 0.309601 0.316101
0.806793 0.326599 0.346344
0.850647 0.340576 0.375275
0.891388 0.354401 0.404663
0.930298 0.367493 0.433411
0.967590 0.379761 0.461334
1.000000 0.391754 0.488892
1.000000 0.403107 0.515289
0.030945 0.270630 0.216766
0.035034 0.279572 0.223358
0.092255 0.289520 0.228638
0.144989 0.307739 0.245636
0.235901 0.332367 0.261871
0.410095 0.367493 0.298248
0.532135 0.383209 0.322845
0.633301 0.393250 0.343842
0.719940 0.405640 0.367035
0.791931 0.419006 0.392517
0.843842 0.431854 0.419830
0.885712 0.443085 0.446472
0.925537 0.453949 0.472809
0.963501 0.464447 0.498810
1.000000 0.474518 0.523163
1.000000 0.484283 0.546936
0.000000 0.354218 0.264801
0.005371 0.362152 0.270844
0.076813 0.371216 0.276703
0.129425 0.386414 0.295685
0.198364 0.405853 0.317627
0.290741 0.429626 0.338074
0.474091 0.467865 0.358826
0.591370 0.489960 0.404358
0.684784 0.501343 0.429047
0.765564 0.511108 0.451263
0.830658 0.520111 0.473724
0.879150 0.527344 0.494812
0.919952 0.536621 0.518555
0.958740 0.545197 0.541504
0.996094 0.553375 0.563690
1.000000 0.561401 0.585083
0.000000 0.430328 0.320953
0.000000 0.437622 0.327576
0.059601 0.445465 0.333038
0.118286 0.458710 0.351074
0.179504 0.474854 0.371063
0.256378 0.496582 0.395294
0.348053 0.522461 0.417267
0.532440 0.559570 0.439209
0.647980 0.580780 0.483307
0.734467 0.592804 0.509430
0.809174 0.601929 0.531647
0.869843 0.609772 0.553040
0.913361 0.614777 0.571686
0.953613 0.619537 0.588531
0.991638 0.625946 0.607178
1.000000 0.632782 0.626404
0.000000 0.498138 0.380371
0.000000 0.504669 0.385101
0.055786 0.513702 0.391083
0.111023 0.524872 0.410370
0.171387 0.541779 0.428528
0.238129 0.561340 0.449310
0.318420 0.583618 0.472961
0.419952 0.607056 0.494019
0.592682 0.636230 0.515228
0.703369 0.656189 0.556915
0.785492 0.669464 0.582733
0.854218 0.678436 0.604462
0.906342 0.685333 0.623932
0.947632 0.689545 0.640381
0.986938 0.693054 0.654999
1.000000 0.696930 0.669678
0.000000 0.559174 0.439636
0.000000 0.566803 0.444214
0.020721 0.576721 0.444794
0.105530 0.590332 0.465332
0.168365 0.605133 0.485931
0.228790 0.621185 0.504089
0.303162 0.640381 0.526642
0.392700 0.660889 0.549133
0.502228 0.681091 0.568115
0.656158 0.704834 0.588257
0.758942 0.721680 0.623322
0.837219 0.735809 0.649506
0.898895 0.743774 0.668976
0.941681 0.749695 0.686829
0.981995 0.754120 0.702271
1.000000 0.756775 0.715118
0.000000 0.619629 0.498474
0.000000 0.628296 0.503876
0.017700 0.638519 0.503143
0.096863 0.649200 0.519836
0.166138 0.662750 0.539703
0.231171 0.677765 0.560120
0.294342 0.693207 0.578461
0.377686 0.711182 0.600555
0.476227 0.729279 0.621124
0.584961 0.747192 0.638428
0.719849 0.766754 0.657135
0.813873 0.780640 0.686066
0.885956 0.794678 0.710449
0.935852 0.801056 0.728058
0.977234 0.806549 0.744293
1.000000 0.810974 0.758850
0.000000 0.676392 0.555206
0.000000 0.685944 0.560760
0.013123 0.694824 0.558868
0.105316 0.705078 0.575806
0.170288 0.716644 0.593781
0.232513 0.729675 0.612457
0.297119 0.743805 0.631378
0.366974 0.758362 0.649506
0.460480 0.774475 0.669525
0.560547 0.790802 0.687378
0.664703 0.806610 0.702942
0.782227 0.823181 0.720764
0.866852 0.834747 0.744965
0.929840 0.847626 0.767242
0.972443 0.853149 0.783234
1.000000 0.858246 0.798187
0.000000 0.729797 0.611938
0.000000 0.739288 0.615479
0.040436 0.748779 0.615051
0.118439 0.757568 0.630371
0.179047 0.767548 0.646667
0.237946 0.778900 0.664246
0.300323 0.791260 0.682098
0.369171 0.804016 0.699585
0.449127 0.817169 0.715973
0.543518 0.832031 0.733124
0.641205 0.846771 0.748383
0.739502 0.860962 0.762482
0.843048 0.875305 0.779999
0.916687 0.885010 0.800385
0.967407 0.895935 0.820770
1.000000 0.901276 0.835449
0.000000 0.782562 0.667694
0.000000 0.791718 0.670349
0.079926 0.800873 0.670776
0.141815 0.808533 0.685425
0.193237 0.816772 0.699677
0.246582 0.826385 0.714447
0.302246 0.836823 0.730377
0.372833 0.847870 0.746613
0.447113 0.859283 0.761932
0.528351 0.871582 0.776733
0.621185 0.885254 0.791504
0.715576 0.898895 0.805359
0.808990 0.910980 0.817261
0.900360 0.922485 0.832001
0.963501 0.928619 0.847595
1.000000 0.934723 0.864685
0.000000 0.830597 0.720093
0.000000 0.839325 0.721741
0.125641 0.848236 0.723145
0.174255 0.854614 0.736938
0.220306 0.861664 0.750153
0.265411 0.869293 0.763519
0.322418 0.877686 0.777130
0.385895 0.886261 0.790863
0.458466 0.896027 0.804779
0.535187 0.906769 0.818329
0.616638 0.918030 0.831238
0.708069 0.930481 0.844513
0.801147 0.940918 0.854095
0.886566 0.949463 0.862457
0.959351 0.955475 0.872589
1.000000 0.958191 0.886353
0.000000 0.873627 0.768311
0.079712 0.881348 0.768829
0.173096 0.889771 0.770599
0.215668 0.895325 0.784424
0.255615 0.901093 0.796967
0.303040 0.906982 0.808563
0.355438 0.913544 0.820526
0.415131 0.920532 0.832855
0.477783 0.928345 0.844482
0.552734 0.935699 0.853210
0.633728 0.945160 0.864044
0.715668 0.954712 0.873291
0.805603 0.963623 0.881195
0.888062 0.971344 0.889099
0.955292 0.977173 0.896545
1.000000 0.979279 0.906616
0.059753 0.912628 0.811432
0.154877 0.919739 0.811676
0.219452 0.927063 0.812469
0.256775 0.931335 0.825928
0.301025 0.936096 0.838715
0.345886 0.941162 0.850555
0.395508 0.946442 0.861328
0.447754 0.952026 0.871338
0.508087 0.957581 0.880402
0.573761 0.962830 0.886932
0.651337 0.969543 0.893555
0.733429 0.976776 0.899963
0.814117 0.984253 0.905945
0.890289 0.991150 0.914093
0.952606 0.996460 0.922394
1.000000 1.000000 0.931061
0.087524 0.050079 0.136993
0.103333 0.048950 0.160797
0.189911 0.039703 0.176666
0.308014 0.015656 0.191833
0.428375 0.006744 0.228943
0.523010 0.003479 0.257538
0.615723 0.015015 0.289551
0.699341 0.052338 0.322632
0.770050 0.085754 0.357758
0.818359 0.108490 0.388763
0.859924 0.127594 0.418304
0.899445 0.146027 0.447754
0.937378 0.162872 0.476349
0.973633 0.178284 0.503479
1.000000 0.192505 0.529785
1.000000 0.205597 0.555115
0.087494 0.050018 0.150635
0.087463 0.049988 0.161285
0.161865 0.063354 0.180298
0.285065 0.072083 0.189728
0.400177 0.081329 0.216614
0.511139 0.086670 0.247375
0.605194 0.098022 0.276062
0.694000 0.123962 0.308960
0.765991 0.148499 0.342041
0.815186 0.167480 0.372437
0.857178 0.183716 0.401764
0.897339 0.199554 0.430908
0.935516 0.215759 0.460083
0.972107 0.230621 0.487854
1.000000 0.244629 0.514679
1.000000 0.257965 0.540710
0.083466 0.093048 0.162262
0.082245 0.102936 0.171844
0.132172 0.111511 0.180634
0.257294 0.134308 0.194458
0.380280 0.144989 0.214417
0.495392 0.152985 0.239532
0.595428 0.163757 0.267456
0.685120 0.186798 0.297150
0.760925 0.210236 0.329102
0.811279 0.228760 0.359192
0.853790 0.245331 0.388519
0.894440 0.261108 0.417419
0.933014 0.276733 0.446228
0.970093 0.291107 0.473694
1.000000 0.304749 0.500305
1.000000 0.317780 0.526245
0.072357 0.162018 0.177643
0.070221 0.171204 0.185944
0.097076 0.182861 0.195068
0.196075 0.199982 0.200714
0.341156 0.227844 0.225830
0.465607 0.234772 0.242493
0.572693 0.242584 0.264832
0.665192 0.261780 0.290588
0.746155 0.282562 0.319763
0.805969 0.300537 0.349335
0.849274 0.315247 0.377441
0.890564 0.329407 0.405518
0.929840 0.343353 0.433533
0.967529 0.356323 0.460632
1.000000 0.368744 0.487030
1.000000 0.380737 0.512817
0.040863 0.253052 0.227783
0.036804 0.260590 0.234619
0.074188 0.270935 0.242920
0.149200 0.286255 0.251312
0.247650 0.311737 0.265289
0.413330 0.343933 0.297882
0.532104 0.355072 0.320221
0.634552 0.364655 0.339600
0.721008 0.379150 0.363098
0.793488 0.394867 0.389343
0.843048 0.407684 0.415436
0.885132 0.419800 0.441559
0.925262 0.431427 0.467102
0.963623 0.442230 0.491974
1.000000 0.452881 0.516052
1.000000 0.462982 0.538940
0.000000 0.337646 0.272491
0.000000 0.345642 0.280548
0.049896 0.354523 0.288391
0.129730 0.367645 0.295929
0.198212 0.387115 0.316559
0.299866 0.412140 0.334839
0.476410 0.449127 0.369598
0.591980 0.467346 0.398499
0.686218 0.477814 0.420044
0.767761 0.487793 0.440826
0.831879 0.497192 0.461975
0.878418 0.506866 0.484894
0.919678 0.516296 0.507599
0.958862 0.525360 0.529816
0.996521 0.533905 0.551361
1.000000 0.542389 0.572571
0.000000 0.415771 0.324799
0.000000 0.422913 0.333008
0.022583 0.430939 0.340210
0.115997 0.442078 0.347595
0.177612 0.458344 0.366272
0.256775 0.479797 0.389557
0.356110 0.506653 0.408905
0.537476 0.543121 0.429962
0.648224 0.563446 0.473694
0.735138 0.574829 0.497711
0.810394 0.583862 0.518188
0.868927 0.591614 0.538086
0.913116 0.597534 0.556641
0.953644 0.602539 0.573517
0.992310 0.609406 0.591888
1.000000 0.616608 0.610626
