Color Lookup Presets Effects/z1 (84).CUBE
#Created by: Adobe Photoshop Export Color Lookup Plugin
#Copyright: (C) Copyright 2015 www.zafizack.com
TITLE "zafizack-VG-10"
#LUT size
LUT_3D_SIZE 6
#data domain
DOMAIN_MIN 0.0 0.0 0.0
DOMAIN_MAX 1.0 1.0 1.0
#LUT data points
0.081848 0.086914 0.104370
0.353729 0.088470 0.102936
0.662506 0.089813 0.101746
0.820129 0.091248 0.100586
0.933655 0.092743 0.099396
1.000000 0.093811 0.098602
0.094666 0.324829 0.108063
0.405762 0.335327 0.137848
0.676697 0.342163 0.135590
0.827057 0.348816 0.133392
0.936066 0.355286 0.131348
1.000000 0.359650 0.130005
0.112244 0.635803 0.112213
0.455292 0.641174 0.143524
0.700684 0.644806 0.169678
0.832428 0.647705 0.167053
0.937866 0.650574 0.164520
1.000000 0.652374 0.162842
0.126556 0.786530 0.112488
0.485870 0.789185 0.143188
0.721405 0.790985 0.179321
0.847656 0.795258 0.207092
0.939301 0.796387 0.204559
1.000000 0.797180 0.202789
0.141876 0.887543 0.112793
0.512390 0.888580 0.143463
0.731506 0.889282 0.179718
0.859741 0.889832 0.221222
0.951294 0.894562 0.252197
1.000000 0.894745 0.250763
0.158508 0.966888 0.113342
0.535858 0.966888 0.144226
0.740326 0.966888 0.180847
0.864563 0.966888 0.222961
0.953186 0.966888 0.253876
1.000000 0.966888 0.252960
0.105530 0.094513 0.340179
0.371948 0.107574 0.342346
0.667358 0.109741 0.338593
0.822510 0.111969 0.334930
0.934540 0.114288 0.331268
1.000000 0.115906 0.328766
0.118805 0.329956 0.330750
0.411377 0.338440 0.342834
0.678986 0.345459 0.338531
0.828125 0.352264 0.334381
0.936432 0.358795 0.330475
1.000000 0.363190 0.327942
0.135162 0.638153 0.322662
0.451050 0.642548 0.343384
0.697906 0.646088 0.381409
0.833344 0.649048 0.377502
0.938171 0.651855 0.373810
1.000000 0.653687 0.371399
0.153107 0.787720 0.321564
0.481720 0.789764 0.342224
0.718689 0.791565 0.393524
0.845062 0.792938 0.425903
0.939545 0.794128 0.422913
1.000000 0.794891 0.420868
0.171997 0.888000 0.321442
0.508362 0.888794 0.342316
0.728821 0.889465 0.393707
0.857178 0.890015 0.440125
0.948853 0.892212 0.468903
1.000000 0.892487 0.467590
0.191833 0.966888 0.321960
0.531525 0.966888 0.343140
0.737518 0.966888 0.394928
0.862000 0.966888 0.441711
0.953308 0.966888 0.475830
1.000000 0.966888 0.475708
0.128052 0.114105 0.600342
0.422516 0.131805 0.597748
0.672791 0.150787 0.595428
0.825104 0.156830 0.593353
0.935425 0.160614 0.591400
1.000000 0.163208 0.590118
0.144379 0.335815 0.596069
0.460114 0.375854 0.593048
0.689575 0.407745 0.591187
0.829987 0.417725 0.590332
0.937073 0.424194 0.588287
1.000000 0.428375 0.587006
0.165497 0.640198 0.591278
0.493103 0.644226 0.588501
0.704926 0.647827 0.592590
0.834167 0.652344 0.591858
0.938446 0.655090 0.589966
1.000000 0.656891 0.588715
0.187775 0.788666 0.587036
0.522156 0.790558 0.584351
0.717560 0.791992 0.592712
0.841919 0.793304 0.608643
0.939728 0.794525 0.607086
1.000000 0.795288 0.606079
0.210358 0.888397 0.583466
0.546814 0.889099 0.582825
0.727600 0.889648 0.593048
0.854126 0.890167 0.617249
0.945984 0.890564 0.634399
1.000000 0.890778 0.633698
0.233276 0.966888 0.580261
0.567993 0.966888 0.583466
0.736237 0.966888 0.594055
0.858917 0.966888 0.618561
0.953400 0.966888 0.642975
1.000000 0.966888 0.643463
0.158203 0.140442 0.762848
0.473785 0.162659 0.761871
0.698059 0.185638 0.760986
0.827332 0.209778 0.760162
0.936218 0.224274 0.759338
1.000000 0.227905 0.758881
0.179108 0.384155 0.761292
0.509277 0.424286 0.760193
0.713257 0.455719 0.759308
0.835114 0.484558 0.758484
0.937744 0.500214 0.757721
1.000000 0.503937 0.757263
0.203094 0.642120 0.759766
0.538361 0.654297 0.758698
0.727173 0.671478 0.757782
0.843658 0.685028 0.757019
0.939026 0.691895 0.756439
1.000000 0.693329 0.755981
0.229645 0.789581 0.758179
0.564209 0.791382 0.757263
0.737701 0.792755 0.756531
0.851013 0.798096 0.757294
0.940033 0.802399 0.760559
1.000000 0.803070 0.760193
0.255798 0.888733 0.756866
0.586456 0.889404 0.756012
0.746857 0.889893 0.755341
0.856720 0.890350 0.760101
0.942963 0.890686 0.770569
1.000000 0.890900 0.770325
0.281036 0.966888 0.755768
0.602448 0.966888 0.755005
0.754639 0.966888 0.754425
0.861359 0.966888 0.762604
0.951355 0.966888 0.781158
1.000000 0.966888 0.785156
0.191772 0.169800 0.884399
0.518982 0.195831 0.884399
0.719757 0.222137 0.884399
0.841370 0.249176 0.884399
0.936859 0.276917 0.884399
1.000000 0.296387 0.884399
0.216583 0.428680 0.884399
0.551941 0.467804 0.884399
0.733582 0.497894 0.884399
0.849762 0.525299 0.884399
0.939056 0.550354 0.884399
1.000000 0.566925 0.884399
0.243713 0.656158 0.884399
0.578491 0.675598 0.884399
0.746368 0.691559 0.884399
0.857574 0.704193 0.884399
0.944092 0.715729 0.884399
1.000000 0.723175 0.884399
0.272247 0.790466 0.884399
0.598541 0.792145 0.884399
0.755646 0.801666 0.884399
0.864288 0.811279 0.884399
0.948547 0.819092 0.884399
1.000000 0.824158 0.884399
0.300079 0.889069 0.884399
0.613342 0.889709 0.884399
0.763580 0.890167 0.884399
0.869263 0.890564 0.884399
0.952698 0.895844 0.884399
1.000000 0.901825 0.884399
0.325989 0.966888 0.884399
0.625824 0.966888 0.884399
0.770630 0.966888 0.884399
0.873535 0.966888 0.884399
0.953613 0.966888 0.884399
1.000000 0.966888 0.884399
0.191772 0.169800 0.884399
0.518982 0.195831 0.884399
0.719757 0.222137 0.884399
0.841370 0.249176 0.884399
0.936859 0.276917 0.884399
1.000000 0.296387 0.884399
0.216583 0.428680 0.884399
0.551941 0.467804 0.884399
0.733582 0.497894 0.884399
0.849762 0.525299 0.884399
0.939056 0.550354 0.884399
1.000000 0.566925 0.884399
0.243713 0.656158 0.884399
0.578491 0.675598 0.884399
0.746368 0.691559 0.884399
0.857574 0.704193 0.884399
0.944092 0.715729 0.884399
1.000000 0.723175 0.884399
0.272247 0.790466 0.884399
0.598541 0.792145 0.884399
0.755646 0.801666 0.884399
0.864288 0.811279 0.884399
0.948547 0.819092 0.884399
1.000000 0.824158 0.884399
0.300079 0.889069 0.884399
0.613342 0.889709 0.884399
0.763580 0.890167 0.884399
0.869263 0.890564 0.884399
0.952698 0.895844 0.884399
1.000000 0.901825 0.884399
0.325989 0.966888 0.884399
0.625824 0.966888 0.884399
0.770630 0.966888 0.884399
0.873535 0.966888 0.884399
0.953613 0.966888 0.884399
1.000000 0.966888 0.884399
