Color Lookup Presets Effects/z1 (73).CUBE
#Created by: Adobe Photoshop Export Color Lookup Plugin
#Copyright: (C) Copyright 2016 www.zafizack.com
TITLE "zafizack pastel color series"
#LUT size
LUT_3D_SIZE 6
#data domain
DOMAIN_MIN 0.0 0.0 0.0
DOMAIN_MAX 1.0 1.0 1.0
#LUT data points
0.084473 0.075928 0.073395
0.311127 0.132874 0.129883
0.576904 0.202850 0.200531
0.762634 0.260437 0.256531
0.888275 0.319214 0.314392
0.997925 0.371521 0.362823
0.219391 0.247528 0.182465
0.399017 0.292725 0.238403
0.605804 0.343140 0.286743
0.766937 0.392273 0.332397
0.898682 0.443848 0.379425
0.997925 0.483643 0.417603
0.341736 0.405182 0.235992
0.489044 0.443695 0.294586
0.629700 0.490631 0.361084
0.774109 0.524841 0.396667
0.904633 0.553223 0.432404
0.997925 0.633759 0.305756
0.431000 0.565887 0.323059
0.537476 0.602814 0.370453
0.655304 0.643677 0.415222
0.774750 0.692566 0.461273
0.903778 0.712067 0.485443
0.997925 0.727020 0.512085
0.486237 0.804535 0.470734
0.571686 0.825012 0.476868
0.670593 0.846771 0.498474
0.776642 0.868835 0.520386
0.900879 0.903625 0.538208
0.997925 0.913696 0.570496
0.518036 0.985168 0.566956
0.599670 0.988983 0.556396
0.685730 0.994049 0.548615
0.791016 0.997375 0.562134
0.895966 0.997406 0.592346
0.985504 0.997406 0.639954
0.087616 0.076263 0.199493
0.247894 0.082428 0.272064
0.515320 0.131561 0.313110
0.733276 0.185181 0.364471
0.880127 0.251312 0.415253
0.997925 0.308441 0.459167
0.086761 0.225220 0.259827
0.236603 0.242950 0.270905
0.505951 0.301056 0.323578
0.713745 0.355286 0.373718
0.883087 0.417450 0.428192
0.997925 0.471710 0.472382
0.212006 0.415009 0.330475
0.398987 0.418793 0.360260
0.552704 0.466705 0.420105
0.727997 0.511292 0.457642
0.878448 0.591980 0.401093
0.997925 0.613708 0.458191
0.364258 0.578278 0.451508
0.490967 0.585388 0.451508
0.614441 0.626556 0.486511
0.738007 0.675812 0.532440
0.886810 0.700623 0.553436
0.997925 0.720703 0.575775
0.469177 0.814392 0.589050
0.573212 0.818085 0.586853
0.654602 0.837341 0.585693
0.758698 0.860016 0.595184
0.883850 0.888611 0.617249
0.997925 0.904541 0.644043
0.512909 0.982422 0.663055
0.603943 0.986053 0.662231
0.688599 0.991028 0.648315
0.780273 0.996307 0.640808
0.889038 0.997406 0.664001
0.988770 0.997406 0.720490
0.092560 0.085693 0.373230
0.262146 0.102814 0.512939
0.500427 0.106018 0.527527
0.707031 0.149231 0.536774
0.873169 0.217682 0.560974
0.997925 0.281036 0.580414
0.090515 0.225403 0.491119
0.251587 0.244354 0.509521
0.474915 0.252930 0.511261
0.682617 0.296875 0.530884
0.875214 0.357269 0.562927
0.997925 0.423309 0.580719
0.090759 0.444061 0.502441
0.246826 0.455658 0.501831
0.453278 0.468231 0.499481
0.659851 0.504639 0.525940
0.857910 0.544983 0.556396
0.997925 0.576447 0.579895
0.240662 0.621521 0.495972
0.420288 0.618103 0.523651
0.568573 0.614838 0.553558
0.691406 0.659943 0.579742
0.863159 0.691528 0.603119
0.997925 0.737213 0.581787
0.422180 0.826019 0.625031
0.540680 0.825500 0.642303
0.647430 0.828064 0.662842
0.738983 0.847351 0.652710
0.867371 0.872772 0.665558
0.997925 0.892700 0.692627
0.499023 0.980377 0.732239
0.591522 0.983795 0.734467
0.689545 0.988525 0.738434
0.776093 0.993896 0.723663
0.880615 0.997375 0.731628
0.990997 0.997406 0.787445
0.104736 0.110596 0.550385
0.284912 0.133820 0.711060
0.515320 0.136810 0.734192
0.728882 0.137787 0.754395
0.867157 0.192322 0.708862
0.997925 0.258179 0.710785
0.116119 0.232422 0.657410
0.275024 0.258026 0.699707
0.494751 0.265991 0.710266
0.689575 0.268829 0.723175
0.868378 0.315369 0.712158
0.997925 0.392822 0.710693
0.120270 0.431610 0.678650
0.264404 0.449951 0.695038
0.472229 0.469116 0.692932
0.656647 0.482849 0.697754
0.842438 0.513947 0.700195
0.997925 0.552063 0.708954
0.121643 0.629364 0.685822
0.259552 0.638947 0.690948
0.466339 0.643066 0.685059
0.634125 0.652985 0.684326
0.822449 0.676178 0.695160
0.997925 0.705536 0.713379
0.252380 0.818542 0.661194
0.428467 0.817078 0.661713
0.573273 0.819183 0.674103
0.705597 0.830780 0.695038
0.837555 0.853485 0.722046
0.997925 0.881775 0.747559
0.435181 0.980438 0.716125
0.544525 0.982330 0.730530
0.650635 0.986267 0.747192
0.761627 0.992462 0.758362
0.865753 0.997406 0.749725
0.990143 0.997406 0.810211
0.124939 0.127838 0.654694
0.306213 0.158966 0.853699
0.528595 0.163391 0.879761
0.715393 0.166962 0.878235
0.878387 0.182709 0.853180
0.997925 0.244720 0.826416
0.138275 0.243408 0.769562
0.294922 0.272827 0.834656
0.510315 0.281830 0.854462
0.697388 0.285767 0.874817
0.880493 0.297241 0.867584
0.997925 0.372986 0.830536
0.144745 0.429993 0.801544
0.280457 0.449249 0.832916
0.494080 0.479767 0.836884
0.669861 0.497894 0.850586
0.858551 0.493622 0.861786
0.997925 0.534790 0.834015
0.147675 0.623016 0.815918
0.276123 0.634094 0.832123
0.484131 0.642975 0.832245
0.641510 0.652679 0.835602
0.826050 0.664246 0.844025
0.997925 0.689819 0.840942
0.149597 0.790100 0.825409
0.272461 0.803833 0.833038
0.478119 0.811554 0.830383
0.635040 0.822601 0.830383
0.808624 0.843842 0.839661
0.997925 0.872498 0.857666
0.262177 0.975555 0.853973
0.429016 0.976288 0.846710
0.565338 0.978851 0.838257
0.699615 0.985443 0.836426
0.845612 0.994843 0.839600
0.993286 0.997406 0.891357
0.146271 0.145874 0.754028
0.324860 0.179169 0.990082
0.531311 0.181580 0.990082
0.707336 0.188568 0.990082
0.889587 0.204865 0.990082
0.997925 0.232758 0.948730
0.161346 0.256714 0.882996
0.314819 0.287598 0.969513
0.523651 0.295563 0.990082
0.693726 0.306458 0.990082
0.874908 0.324738 0.990082
0.997925 0.355316 0.955017
0.169708 0.432465 0.923676
0.296173 0.449982 0.966583
0.509613 0.488708 0.973969
0.678619 0.505341 0.990082
0.856537 0.507416 0.990082
0.997925 0.519318 0.962708
0.173645 0.618774 0.942749
0.292053 0.629639 0.965790
0.495300 0.641296 0.969421
0.647919 0.652496 0.978607
0.839294 0.670319 0.990082
0.997925 0.675201 0.971924
0.174622 0.781738 0.951996
0.288391 0.796295 0.965454
0.490601 0.808624 0.967224
0.641815 0.822510 0.973236
0.815094 0.843414 0.984070
0.997925 0.857635 0.982513
0.175110 0.919647 0.956879
0.284515 0.933197 0.965607
0.486969 0.943512 0.966248
0.636902 0.956818 0.970123
0.808624 0.977234 0.980286
0.997925 0.997406 0.990082
