Color Lookup Presets Effects/z1 (56).CUBE
#Created by: Adobe Photoshop Export Color Lookup Plugin
#Copyright: (C) Copyright 2015 zafizack photography
TITLE "zafizack-IR-05"
#LUT size
LUT_3D_SIZE 16
#data domain
DOMAIN_MIN 0.0 0.0 0.0
DOMAIN_MAX 1.0 1.0 1.0
#LUT data points
0.000000 0.000000 0.000000
0.109650 0.027863 0.030182
0.213348 0.056946 0.063202
0.311523 0.086884 0.098663
0.403595 0.118195 0.137146
0.490417 0.150055 0.177887
0.571075 0.183319 0.221558
0.645416 0.218292 0.268341
0.714691 0.253510 0.316895
0.778473 0.289642 0.367798
0.835114 0.328094 0.421936
0.886993 0.366608 0.477905
0.932648 0.406677 0.535858
0.972992 0.447388 0.595612
1.000000 0.496643 0.659851
1.000000 0.568207 0.729401
0.103638 0.077667 0.124298
0.071442 0.067871 0.072052
0.170654 0.114960 0.052094
0.269775 0.158722 0.085632
0.359833 0.192780 0.134155
0.446106 0.217377 0.171539
0.532135 0.235626 0.200684
0.615387 0.253967 0.230377
0.692719 0.271759 0.261017
0.764221 0.292603 0.296051
0.827606 0.327362 0.350189
0.882629 0.365601 0.411285
0.933014 0.403534 0.473602
0.975891 0.444153 0.539063
1.000000 0.498505 0.613220
1.000000 0.572144 0.694153
0.196014 0.138153 0.229980
0.168610 0.136444 0.191223
0.142334 0.134949 0.143982
0.232819 0.176270 0.116150
0.315002 0.214539 0.104004
0.398804 0.256683 0.130310
0.484741 0.287994 0.179016
0.570862 0.318756 0.228119
0.652252 0.342499 0.269409
0.729919 0.355072 0.297302
0.801697 0.367340 0.326111
0.867584 0.379059 0.355835
0.927643 0.390533 0.386566
0.980194 0.419830 0.439392
1.000000 0.480988 0.526733
1.000000 0.557037 0.620514
0.278442 0.184265 0.317139
0.255249 0.188721 0.291901
0.233032 0.194427 0.258209
0.212677 0.201263 0.215973
0.295380 0.238251 0.181244
0.371521 0.270142 0.160645
0.445160 0.301544 0.153351
0.533661 0.339172 0.173340
0.619629 0.366669 0.222473
0.699768 0.393677 0.272461
0.774109 0.420044 0.322723
0.846161 0.426849 0.348755
0.912354 0.433411 0.375763
0.972687 0.439362 0.403656
1.000000 0.471161 0.459686
1.000000 0.538177 0.547424
0.382019 0.208038 0.425354
0.337372 0.225616 0.380463
0.313782 0.238403 0.353790
0.296753 0.251495 0.325104
0.282379 0.266724 0.287903
0.358795 0.300903 0.246948
0.436432 0.328003 0.216248
0.516327 0.355652 0.198090
0.596313 0.383148 0.193207
0.674072 0.403717 0.216125
0.754089 0.427612 0.266022
0.828247 0.450928 0.316833
0.897675 0.467987 0.360596
0.964142 0.469269 0.384827
1.000000 0.489929 0.434723
1.000000 0.541473 0.515564
0.490540 0.211487 0.570038
0.450745 0.233398 0.513794
0.409637 0.259003 0.464752
0.376556 0.284973 0.422729
0.359863 0.307739 0.392059
0.351563 0.331299 0.359894
0.425140 0.364197 0.313202
0.505890 0.387421 0.272034
0.586670 0.410065 0.244019
0.666840 0.431580 0.230042
0.741394 0.442841 0.234802
0.813995 0.450592 0.258789
0.888000 0.470703 0.309570
0.956238 0.490509 0.361237
1.000000 0.502258 0.405945
1.000000 0.547119 0.489258
0.597717 0.197113 0.730225
0.554474 0.225281 0.662659
0.515045 0.255371 0.602295
0.478119 0.288696 0.549042
0.445038 0.325531 0.502930
0.425262 0.361115 0.463837
0.419952 0.394958 0.431763
0.492004 0.428986 0.380920
0.573364 0.450684 0.330017
0.653931 0.470306 0.293365
0.734741 0.489441 0.269775
0.811584 0.499756 0.263428
0.884003 0.501709 0.274689
0.953583 0.497437 0.302368
1.000000 0.523010 0.374817
1.000000 0.565186 0.469940
0.701416 0.167297 0.906158
0.656616 0.199829 0.827271
0.614319 0.235352 0.755524
0.575623 0.273773 0.690918
0.542114 0.315155 0.633514
0.510498 0.363129 0.583191
0.491760 0.410980 0.539948
0.487701 0.457703 0.503754
0.557861 0.493835 0.452240
0.638855 0.516907 0.390717
0.718231 0.536163 0.346100
0.798279 0.555328 0.314270
0.878510 0.573792 0.295563
0.954437 0.583374 0.294495
1.000000 0.588348 0.336945
1.000000 0.610474 0.438416
0.750244 0.147491 1.000000
0.750427 0.162109 1.000000
0.710938 0.198883 0.924377
0.669769 0.241699 0.848389
0.632294 0.288666 0.779602
0.600342 0.339874 0.717926
0.573059 0.397644 0.663483
0.556335 0.458679 0.616058
0.554749 0.519318 0.575745
0.623352 0.558197 0.523529
0.704742 0.582642 0.459961
0.782532 0.601349 0.401764
0.860657 0.620026 0.360321
0.940918 0.638550 0.332611
1.000000 0.657288 0.339386
1.000000 0.676758 0.418518
0.750397 0.174866 1.000000
0.750092 0.187561 1.000000
0.750061 0.202087 1.000000
0.750061 0.219086 1.000000
0.720886 0.260101 0.941467
0.685150 0.313293 0.868378
0.653900 0.373138 0.802551
0.628662 0.440796 0.743866
0.617249 0.509918 0.692261
0.621002 0.580078 0.647766
0.688385 0.622192 0.594421
0.770294 0.648071 0.528778
0.847534 0.666351 0.469482
0.924347 0.684418 0.412231
1.000000 0.702301 0.373413
1.000000 0.719299 0.430267
0.752930 0.231598 1.000000
0.751495 0.239807 1.000000
0.750946 0.250488 1.000000
0.750732 0.263916 1.000000
0.751007 0.280792 1.000000
0.745850 0.308777 1.000000
0.722778 0.361511 0.957245
0.693604 0.431000 0.887146
0.676849 0.500732 0.824219
0.673950 0.570557 0.768433
0.686371 0.639923 0.719788
0.753113 0.685822 0.664795
0.835327 0.712982 0.597137
0.912140 0.730896 0.536652
0.988770 0.748474 0.478027
1.000000 0.761292 0.486481
0.757690 0.302490 1.000000
0.754944 0.305328 1.000000
0.753448 0.311127 1.000000
0.742889 0.333496 1.000000
0.734436 0.358612 1.000000
0.730042 0.385010 1.000000
0.730011 0.412720 1.000000
0.734711 0.441589 1.000000
0.733124 0.488251 0.971832
0.724609 0.560120 0.904724
0.730103 0.637848 0.844757
0.750916 0.705353 0.791870
0.817871 0.746735 0.731659
0.900421 0.777649 0.664764
0.976379 0.795197 0.603455
1.000000 0.809326 0.596161
0.762329 0.392731 1.000000
0.744415 0.410522 1.000000
0.730011 0.429352 1.000000
0.719513 0.448700 1.000000
0.713074 0.468933 1.000000
0.710999 0.489960 1.000000
0.713470 0.524872 1.000000
0.721008 0.561005 1.000000
0.733795 0.596436 1.000000
0.752197 0.631592 1.000000
0.771790 0.671570 0.985138
0.785492 0.727844 0.920929
0.814575 0.777039 0.863892
0.881653 0.806488 0.796753
0.964661 0.841675 0.732300
1.000000 0.858032 0.709961
0.739288 0.609985 1.000000
0.720062 0.626404 1.000000
0.705322 0.643127 1.000000
0.695313 0.659851 1.000000
0.690002 0.677155 1.000000
0.689575 0.694641 1.000000
0.694305 0.712219 1.000000
0.704346 0.729767 1.000000
0.719818 0.747589 1.000000
0.741028 0.765320 1.000000
0.768066 0.783173 1.000000
0.801300 0.800873 1.000000
0.840240 0.819214 0.997253
0.877350 0.850311 0.935974
0.945923 0.864899 0.860535
1.000000 0.907135 0.827942
0.720032 0.868500 1.000000
0.698212 0.870117 1.000000
0.681946 0.872498 1.000000
0.671295 0.875122 1.000000
0.666290 0.878113 1.000000
0.666931 0.881287 1.000000
0.673309 0.885071 1.000000
0.685425 0.889099 1.000000
0.703369 0.893402 1.000000
0.727264 0.898193 1.000000
0.757111 0.903229 1.000000
0.793060 0.908508 1.000000
0.835175 0.914032 1.000000
0.883636 0.919952 1.000000
0.938507 0.926086 1.000000
1.000000 0.935333 0.936249
0.694916 1.000000 0.961945
0.672028 1.000000 0.965485
0.655304 1.000000 0.968933
0.644775 1.000000 0.972260
0.640381 1.000000 0.975403
0.642181 1.000000 0.978424
0.650177 1.000000 0.981293
0.664337 1.000000 0.983948
0.684662 1.000000 0.986450
0.711182 1.000000 0.988861
0.743866 1.000000 0.991119
0.782745 1.000000 0.993225
0.827789 1.000000 0.995087
0.879028 1.000000 0.996887
0.936401 1.000000 0.998535
1.000000 1.000000 1.000000
0.000000 0.000000 0.000000
0.109650 0.027863 0.030182
0.213348 0.056946 0.063202
0.311523 0.086884 0.098663
0.403595 0.118195 0.137146
0.490417 0.150055 0.177887
0.571075 0.183319 0.221558
0.645416 0.218292 0.268341
0.714691 0.253510 0.316895
0.778473 0.289642 0.367798
0.835114 0.328094 0.421936
0.886993 0.366608 0.477905
0.932648 0.406677 0.535858
0.972992 0.447388 0.595612
1.000000 0.496643 0.659851
1.000000 0.568207 0.729401
0.103638 0.077667 0.124298
0.071442 0.067871 0.072052
0.170654 0.114960 0.052094
0.269775 0.158722 0.085632
0.359833 0.192780 0.134155
0.446106 0.217377 0.171539
0.532135 0.235626 0.200684
0.615387 0.253967 0.230377
0.692719 0.271759 0.261017
0.764221 0.292603 0.296051
0.827606 0.327362 0.350189
0.882629 0.365601 0.411285
0.933014 0.403534 0.473602
0.975891 0.444153 0.539063
1.000000 0.498505 0.613220
1.000000 0.572144 0.694153
0.196014 0.138153 0.229980
0.168610 0.136444 0.191223
0.142334 0.134949 0.143982
0.232819 0.176270 0.116150
0.315002 0.214539 0.104004
0.398804 0.256683 0.130310
0.484741 0.287994 0.179016
0.570862 0.318756 0.228119
0.652252 0.342499 0.269409
0.729919 0.355072 0.297302
0.801697 0.367340 0.326111
0.867584 0.379059 0.355835
0.927643 0.390533 0.386566
0.980194 0.419830 0.439392
1.000000 0.480988 0.526733
1.000000 0.557037 0.620514
0.278442 0.184265 0.317139
0.255249 0.188721 0.291901
0.233032 0.194427 0.258209
0.212677 0.201263 0.215973
0.295380 0.238251 0.181244
0.371521 0.270142 0.160645
0.445160 0.301544 0.153351
0.533661 0.339172 0.173340
0.619629 0.366669 0.222473
0.699768 0.393677 0.272461
0.774109 0.420044 0.322723
0.846161 0.426849 0.348755
0.912354 0.433411 0.375763
0.972687 0.439362 0.403656
1.000000 0.471161 0.459686
1.000000 0.538177 0.547424
0.382019 0.208038 0.425354
0.337372 0.225616 0.380463
0.313782 0.238403 0.353790
0.296753 0.251495 0.325104
0.282379 0.266724 0.287903
0.358795 0.300903 0.246948
0.436432 0.328003 0.216248
0.516327 0.355652 0.198090
0.596313 0.383148 0.193207
0.674072 0.403717 0.216125
0.754089 0.427612 0.266022
0.828247 0.450928 0.316833
0.897675 0.467987 0.360596
0.964142 0.469269 0.384827
1.000000 0.489929 0.434723
1.000000 0.541473 0.515564
0.490540 0.211487 0.570038
0.450745 0.233398 0.513794
0.409637 0.259003 0.464752
0.376556 0.284973 0.422729
0.359863 0.307739 0.392059
0.351563 0.331299 0.359894
0.425140 0.364197 0.313202
0.505890 0.387421 0.272034
0.586670 0.410065 0.244019
0.666840 0.431580 0.230042
0.741394 0.442841 0.234802
0.813995 0.450592 0.258789
0.888000 0.470703 0.309570
0.956238 0.490509 0.361237
1.000000 0.502258 0.405945
1.000000 0.547119 0.489258
0.597717 0.197113 0.730225
0.554474 0.225281 0.662659
0.515045 0.255371 0.602295
0.478119 0.288696 0.549042
0.445038 0.325531 0.502930
0.425262 0.361115 0.463837
0.419952 0.394958 0.431763
0.492004 0.428986 0.380920
0.573364 0.450684 0.330017
0.653931 0.470306 0.293365
0.734741 0.489441 0.269775
0.811584 0.499756 0.263428
0.884003 0.501709 0.274689
0.953583 0.497437 0.302368
1.000000 0.523010 0.374817
1.000000 0.565186 0.469940
0.701416 0.167297 0.906158
0.656616 0.199829 0.827271
0.614319 0.235352 0.755524
0.575623 0.273773 0.690918
0.542114 0.315155 0.633514
0.510498 0.363129 0.583191
0.491760 0.410980 0.539948
0.487701 0.457703 0.503754
0.557861 0.493835 0.452240
0.638855 0.516907 0.390717
0.718231 0.536163 0.346100
0.798279 0.555328 0.314270
0.878510 0.573792 0.295563
0.954437 0.583374 0.294495
1.000000 0.588348 0.336945
1.000000 0.610474 0.438416
0.750244 0.147491 1.000000
0.750427 0.162109 1.000000
0.710938 0.198883 0.924377
0.669769 0.241699 0.848389
0.632294 0.288666 0.779602
0.600342 0.339874 0.717926
0.573059 0.397644 0.663483
0.556335 0.458679 0.616058
0.554749 0.519318 0.575745
0.623352 0.558197 0.523529
0.704742 0.582642 0.459961
0.782532 0.601349 0.401764
0.860657 0.620026 0.360321
0.940918 0.638550 0.332611
1.000000 0.657288 0.339386
1.000000 0.676758 0.418518
0.750397 0.174866 1.000000
0.750092 0.187561 1.000000
0.750061 0.202087 1.000000
0.750061 0.219086 1.000000
0.720886 0.260101 0.941467
0.685150 0.313293 0.868378
0.653900 0.373138 0.802551
0.628662 0.440796 0.743866
0.617249 0.509918 0.692261
0.621002 0.580078 0.647766
0.688385 0.622192 0.594421
0.770294 0.648071 0.528778
0.847534 0.666351 0.469482
0.924347 0.684418 0.412231
1.000000 0.702301 0.373413
1.000000 0.719299 0.430267
0.752930 0.231598 1.000000
0.751495 0.239807 1.000000
0.750946 0.250488 1.000000
0.750732 0.263916 1.000000
0.751007 0.280792 1.000000
0.745850 0.308777 1.000000
0.722778 0.361511 0.957245
0.693604 0.431000 0.887146
0.676849 0.500732 0.824219
0.673950 0.570557 0.768433
0.686371 0.639923 0.719788
0.753113 0.685822 0.664795
0.835327 0.712982 0.597137
0.912140 0.730896 0.536652
0.988770 0.748474 0.478027
1.000000 0.761292 0.486481
0.757690 0.302490 1.000000
0.754944 0.305328 1.000000
0.753448 0.311127 1.000000
0.742889 0.333496 1.000000
0.734436 0.358612 1.000000
0.730042 0.385010 1.000000
0.730011 0.412720 1.000000
0.734711 0.441589 1.000000
0.733124 0.488251 0.971832
0.724609 0.560120 0.904724
0.730103 0.637848 0.844757
0.750916 0.705353 0.791870
0.817871 0.746735 0.731659
0.900421 0.777649 0.664764
0.976379 0.795197 0.603455
1.000000 0.809326 0.596161
0.762329 0.392731 1.000000
0.744415 0.410522 1.000000
0.730011 0.429352 1.000000
0.719513 0.448700 1.000000
0.713074 0.468933 1.000000
0.710999 0.489960 1.000000
0.713470 0.524872 1.000000
0.721008 0.561005 1.000000
0.733795 0.596436 1.000000
0.752197 0.631592 1.000000
0.771790 0.671570 0.985138
0.785492 0.727844 0.920929
0.814575 0.777039 0.863892
0.881653 0.806488 0.796753
0.964661 0.841675 0.732300
1.000000 0.858032 0.709961
0.739288 0.609985 1.000000
0.720062 0.626404 1.000000
0.705322 0.643127 1.000000
0.695313 0.659851 1.000000
0.690002 0.677155 1.000000
0.689575 0.694641 1.000000
0.694305 0.712219 1.000000
0.704346 0.729767 1.000000
0.719818 0.747589 1.000000
0.741028 0.765320 1.000000
0.768066 0.783173 1.000000
0.801300 0.800873 1.000000
0.840240 0.819214 0.997253
0.877350 0.850311 0.935974
0.945923 0.864899 0.860535
1.000000 0.907135 0.827942
0.720032 0.868500 1.000000
0.698212 0.870117 1.000000
0.681946 0.872498 1.000000
0.671295 0.875122 1.000000
0.666290 0.878113 1.000000
0.666931 0.881287 1.000000
0.673309 0.885071 1.000000
0.685425 0.889099 1.000000
0.703369 0.893402 1.000000
0.727264 0.898193 1.000000
0.757111 0.903229 1.000000
0.793060 0.908508 1.000000
0.835175 0.914032 1.000000
0.883636 0.919952 1.000000
0.938507 0.926086 1.000000
1.000000 0.935333 0.936249
0.694916 1.000000 0.961945
0.672028 1.000000 0.965485
0.655304 1.000000 0.968933
0.644775 1.000000 0.972260
0.640381 1.000000 0.975403
0.642181 1.000000 0.978424
0.650177 1.000000 0.981293
0.664337 1.000000 0.983948
0.684662 1.000000 0.986450
0.711182 1.000000 0.988861
0.743866 1.000000 0.991119
0.782745 1.000000 0.993225
0.827789 1.000000 0.995087
0.879028 1.000000 0.996887
0.936401 1.000000 0.998535
1.000000 1.000000 1.000000
0.000000 0.000000 0.000000
0.109650 0.027863 0.030182
0.213348 0.056946 0.063202
0.311523 0.086884 0.098663
0.403595 0.118195 0.137146
0.490417 0.150055 0.177887
0.571075 0.183319 0.221558
0.645416 0.218292 0.268341
0.714691 0.253510 0.316895
0.778473 0.289642 0.367798
0.835114 0.328094 0.421936
0.886993 0.366608 0.477905
0.932648 0.406677 0.535858
0.972992 0.447388 0.595612
1.000000 0.496643 0.659851
1.000000 0.568207 0.729401
0.103638 0.077667 0.124298
0.071442 0.067871 0.072052
0.170654 0.114960 0.052094
0.269775 0.158722 0.085632
0.359833 0.192780 0.134155
0.446106 0.217377 0.171539
0.532135 0.235626 0.200684
0.615387 0.253967 0.230377
0.692719 0.271759 0.261017
0.764221 0.292603 0.296051
0.827606 0.327362 0.350189
0.882629 0.365601 0.411285
0.933014 0.403534 0.473602
0.975891 0.444153 0.539063
1.000000 0.498505 0.613220
1.000000 0.572144 0.694153
0.196014 0.138153 0.229980
0.168610 0.136444 0.191223
0.142334 0.134949 0.143982
0.232819 0.176270 0.116150
0.315002 0.214539 0.104004
0.398804 0.256683 0.130310
0.484741 0.287994 0.179016
0.570862 0.318756 0.228119
0.652252 0.342499 0.269409
0.729919 0.355072 0.297302
0.801697 0.367340 0.326111
0.867584 0.379059 0.355835
0.927643 0.390533 0.386566
0.980194 0.419830 0.439392
1.000000 0.480988 0.526733
1.000000 0.557037 0.620514
0.278442 0.184265 0.317139
0.255249 0.188721 0.291901
0.233032 0.194427 0.258209
0.212677 0.201263 0.215973
0.295380 0.238251 0.181244
0.371521 0.270142 0.160645
0.445160 0.301544 0.153351
0.533661 0.339172 0.173340
0.619629 0.366669 0.222473
0.699768 0.393677 0.272461
0.774109 0.420044 0.322723
0.846161 0.426849 0.348755
0.912354 0.433411 0.375763
0.972687 0.439362 0.403656
1.000000 0.471161 0.459686
1.000000 0.538177 0.547424
0.382019 0.208038 0.425354
0.337372 0.225616 0.380463
0.313782 0.238403 0.353790
0.296753 0.251495 0.325104
0.282379 0.266724 0.287903
0.358795 0.300903 0.246948
0.436432 0.328003 0.216248
0.516327 0.355652 0.198090
0.596313 0.383148 0.193207
0.674072 0.403717 0.216125
0.754089 0.427612 0.266022
0.828247 0.450928 0.316833
0.897675 0.467987 0.360596
0.964142 0.469269 0.384827
1.000000 0.489929 0.434723
1.000000 0.541473 0.515564
0.490540 0.211487 0.570038
0.450745 0.233398 0.513794
0.409637 0.259003 0.464752
0.376556 0.284973 0.422729
0.359863 0.307739 0.392059
0.351563 0.331299 0.359894
0.425140 0.364197 0.313202
0.505890 0.387421 0.272034
0.586670 0.410065 0.244019
0.666840 0.431580 0.230042
0.741394 0.442841 0.234802
0.813995 0.450592 0.258789
0.888000 0.470703 0.309570
0.956238 0.490509 0.361237
1.000000 0.502258 0.405945
1.000000 0.547119 0.489258
0.597717 0.197113 0.730225
0.554474 0.225281 0.662659
0.515045 0.255371 0.602295
0.478119 0.288696 0.549042
0.445038 0.325531 0.502930
0.425262 0.361115 0.463837
0.419952 0.394958 0.431763
0.492004 0.428986 0.380920
0.573364 0.450684 0.330017
0.653931 0.470306 0.293365
0.734741 0.489441 0.269775
0.811584 0.499756 0.263428
0.884003 0.501709 0.274689
0.953583 0.497437 0.302368
1.000000 0.523010 0.374817
1.000000 0.565186 0.469940
0.701416 0.167297 0.906158
0.656616 0.199829 0.827271
0.614319 0.235352 0.755524
0.575623 0.273773 0.690918
0.542114 0.315155 0.633514
0.510498 0.363129 0.583191
0.491760 0.410980 0.539948
0.487701 0.457703 0.503754
0.557861 0.493835 0.452240
0.638855 0.516907 0.390717
0.718231 0.536163 0.346100
0.798279 0.555328 0.314270
0.878510 0.573792 0.295563
0.954437 0.583374 0.294495
1.000000 0.588348 0.336945
1.000000 0.610474 0.438416
0.750244 0.147491 1.000000
0.750427 0.162109 1.000000
0.710938 0.198883 0.924377
0.669769 0.241699 0.848389
0.632294 0.288666 0.779602
0.600342 0.339874 0.717926
0.573059 0.397644 0.663483
0.556335 0.458679 0.616058
0.554749 0.519318 0.575745
0.623352 0.558197 0.523529
0.704742 0.582642 0.459961
0.782532 0.601349 0.401764
0.860657 0.620026 0.360321
0.940918 0.638550 0.332611
1.000000 0.657288 0.339386
1.000000 0.676758 0.418518
0.750397 0.174866 1.000000
0.750092 0.187561 1.000000
0.750061 0.202087 1.000000
0.750061 0.219086 1.000000
0.720886 0.260101 0.941467
0.685150 0.313293 0.868378
0.653900 0.373138 0.802551
0.628662 0.440796 0.743866
0.617249 0.509918 0.692261
0.621002 0.580078 0.647766
0.688385 0.622192 0.594421
0.770294 0.648071 0.528778
0.847534 0.666351 0.469482
0.924347 0.684418 0.412231
1.000000 0.702301 0.373413
1.000000 0.719299 0.430267
0.752930 0.231598 1.000000
0.751495 0.239807 1.000000
0.750946 0.250488 1.000000
0.750732 0.263916 1.000000
0.751007 0.280792 1.000000
0.745850 0.308777 1.000000
0.722778 0.361511 0.957245
0.693604 0.431000 0.887146
0.676849 0.500732 0.824219
0.673950 0.570557 0.768433
0.686371 0.639923 0.719788
0.753113 0.685822 0.664795
0.835327 0.712982 0.597137
0.912140 0.730896 0.536652
0.988770 0.748474 0.478027
1.000000 0.761292 0.486481
0.757690 0.302490 1.000000
0.754944 0.305328 1.000000
0.753448 0.311127 1.000000
0.742889 0.333496 1.000000
0.734436 0.358612 1.000000
0.730042 0.385010 1.000000
0.730011 0.412720 1.000000
0.734711 0.441589 1.000000
0.733124 0.488251 0.971832
0.724609 0.560120 0.904724
0.730103 0.637848 0.844757
0.750916 0.705353 0.791870
0.817871 0.746735 0.731659
0.900421 0.777649 0.664764
0.976379 0.795197 0.603455
1.000000 0.809326 0.596161
0.762329 0.392731 1.000000
0.744415 0.410522 1.000000
0.730011 0.429352 1.000000
0.719513 0.448700 1.000000
0.713074 0.468933 1.000000
0.710999 0.489960 1.000000
0.713470 0.524872 1.000000
0.721008 0.561005 1.000000
0.733795 0.596436 1.000000
0.752197 0.631592 1.000000
0.771790 0.671570 0.985138
0.785492 0.727844 0.920929
0.814575 0.777039 0.863892
0.881653 0.806488 0.796753
0.964661 0.841675 0.732300
1.000000 0.858032 0.709961
0.739288 0.609985 1.000000
0.720062 0.626404 1.000000
0.705322 0.643127 1.000000
0.695313 0.659851 1.000000
0.690002 0.677155 1.000000
0.689575 0.694641 1.000000
0.694305 0.712219 1.000000
0.704346 0.729767 1.000000
0.719818 0.747589 1.000000
0.741028 0.765320 1.000000
0.768066 0.783173 1.000000
0.801300 0.800873 1.000000
0.840240 0.819214 0.997253
0.877350 0.850311 0.935974
0.945923 0.864899 0.860535
1.000000 0.907135 0.827942
0.720032 0.868500 1.000000
0.698212 0.870117 1.000000
0.681946 0.872498 1.000000
0.671295 0.875122 1.000000
0.666290 0.878113 1.000000
0.666931 0.881287 1.000000
0.673309 0.885071 1.000000
0.685425 0.889099 1.000000
0.703369 0.893402 1.000000
0.727264 0.898193 1.000000
0.757111 0.903229 1.000000
0.793060 0.908508 1.000000
0.835175 0.914032 1.000000
0.883636 0.919952 1.000000
0.938507 0.926086 1.000000
1.000000 0.935333 0.936249
0.694916 1.000000 0.961945
0.672028 1.000000 0.965485
0.655304 1.000000 0.968933
0.644775 1.000000 0.972260
0.640381 1.000000 0.975403
0.642181 1.000000 0.978424
0.650177 1.000000 0.981293
0.664337 1.000000 0.983948
0.684662 1.000000 0.986450
0.711182 1.000000 0.988861
0.743866 1.000000 0.991119
0.782745 1.000000 0.993225
0.827789 1.000000 0.995087
0.879028 1.000000 0.996887
0.936401 1.000000 0.998535
1.000000 1.000000 1.000000
0.000000 0.000000 0.000000
0.109650 0.027863 0.030182
0.213348 0.056946 0.063202
0.311523 0.086884 0.098663
0.403595 0.118195 0.137146
0.490417 0.150055 0.177887
0.571075 0.183319 0.221558
0.645416 0.218292 0.268341
0.714691 0.253510 0.316895
0.778473 0.289642 0.367798
0.835114 0.328094 0.421936
0.886993 0.366608 0.477905
0.932648 0.406677 0.535858
0.972992 0.447388 0.595612
1.000000 0.496643 0.659851
1.000000 0.568207 0.729401
0.103638 0.077667 0.124298
0.071442 0.067871 0.072052
0.170654 0.114960 0.052094
0.269775 0.158722 0.085632
0.359833 0.192780 0.134155
0.446106 0.217377 0.171539
0.532135 0.235626 0.200684
0.615387 0.253967 0.230377
0.692719 0.271759 0.261017
0.764221 0.292603 0.296051
0.827606 0.327362 0.350189
0.882629 0.365601 0.411285
0.933014 0.403534 0.473602
0.975891 0.444153 0.539063
1.000000 0.498505 0.613220
1.000000 0.572144 0.694153
0.196014 0.138153 0.229980
0.168610 0.136444 0.191223
0.142334 0.134949 0.143982
0.232819 0.176270 0.116150
0.315002 0.214539 0.104004
0.398804 0.256683 0.130310
0.484741 0.287994 0.179016
0.570862 0.318756 0.228119
0.652252 0.342499 0.269409
0.729919 0.355072 0.297302
0.801697 0.367340 0.326111
0.867584 0.379059 0.355835
0.927643 0.390533 0.386566
0.980194 0.419830 0.439392
1.000000 0.480988 0.526733
1.000000 0.557037 0.620514
0.278442 0.184265 0.317139
0.255249 0.188721 0.291901
0.233032 0.194427 0.258209
0.212677 0.201263 0.215973
0.295380 0.238251 0.181244
0.371521 0.270142 0.160645
0.445160 0.301544 0.153351
0.533661 0.339172 0.173340
0.619629 0.366669 0.222473
0.699768 0.393677 0.272461
0.774109 0.420044 0.322723
0.846161 0.426849 0.348755
0.912354 0.433411 0.375763
0.972687 0.439362 0.403656
1.000000 0.471161 0.459686
1.000000 0.538177 0.547424
0.382019 0.208038 0.425354
0.337372 0.225616 0.380463
0.313782 0.238403 0.353790
0.296753 0.251495 0.325104
0.282379 0.266724 0.287903
0.358795 0.300903 0.246948
0.436432 0.328003 0.216248
0.516327 0.355652 0.198090
0.596313 0.383148 0.193207
0.674072 0.403717 0.216125
0.754089 0.427612 0.266022
0.828247 0.450928 0.316833
0.897675 0.467987 0.360596
0.964142 0.469269 0.384827
1.000000 0.489929 0.434723
1.000000 0.541473 0.515564
0.490540 0.211487 0.570038
0.450745 0.233398 0.513794
0.409637 0.259003 0.464752
0.376556 0.284973 0.422729
0.359863 0.307739 0.392059
0.351563 0.331299 0.359894
0.425140 0.364197 0.313202
0.505890 0.387421 0.272034
0.586670 0.410065 0.244019
0.666840 0.431580 0.230042
0.741394 0.442841 0.234802
0.813995 0.450592 0.258789
0.888000 0.470703 0.309570
0.956238 0.490509 0.361237
1.000000 0.502258 0.405945
1.000000 0.547119 0.489258
0.597717 0.197113 0.730225
0.554474 0.225281 0.662659
0.515045 0.255371 0.602295
0.478119 0.288696 0.549042
0.445038 0.325531 0.502930
0.425262 0.361115 0.463837
0.419952 0.394958 0.431763
0.492004 0.428986 0.380920
0.573364 0.450684 0.330017
0.653931 0.470306 0.293365
0.734741 0.489441 0.269775
0.811584 0.499756 0.263428
0.884003 0.501709 0.274689
0.953583 0.497437 0.302368
1.000000 0.523010 0.374817
1.000000 0.565186 0.469940
