Color Lookup Presets Effects/z1 (64).CUBE
#Created by: Adobe Photoshop Export Color Lookup Plugin
#Copyright: (C) Copyright 2014 www.zafizack.com
TITLE "zafizack"
#LUT size
LUT_3D_SIZE 6
#data domain
DOMAIN_MIN 0.0 0.0 0.0
DOMAIN_MAX 1.0 1.0 1.0
#LUT data points
0.034760 0.032227 0.035126
0.180725 0.032227 0.077393
0.695831 0.032227 0.253235
1.000000 0.032227 0.366425
1.000000 0.032227 0.366425
1.000000 0.032227 0.366425
0.000092 0.085846 0.000000
0.063446 0.089264 0.000000
0.626221 0.175446 0.110504
0.995880 0.212219 0.226166
1.000000 0.249268 0.196136
1.000000 0.256226 0.233276
0.000000 0.422852 0.000000
0.000000 0.422852 0.000000
0.354980 0.429565 0.000000
0.843231 0.550079 0.000000
1.000000 0.580627 0.000000
1.000000 0.610931 0.000000
0.042786 0.712769 0.000000
0.043793 0.712982 0.000000
0.075653 0.713196 0.000000
0.587738 0.721252 0.000000
0.969482 0.839691 0.000000
1.000000 0.858765 0.000000
0.148193 0.910461 0.000000
0.149078 0.910553 0.000000
0.150024 0.910614 0.000000
0.457520 0.910706 0.000000
0.805664 0.916290 0.000000
1.000000 0.991974 0.000000
0.186401 1.000000 0.000000
0.186401 1.000000 0.000000
0.185486 1.000000 0.000000
0.331268 1.000000 0.000000
0.678314 1.000000 0.000000
0.948486 1.000000 0.000000
0.038818 0.032227 0.131622
0.300018 0.032227 0.335663
0.704071 0.032227 0.459930
1.000000 0.032227 0.622833
1.000000 0.032227 0.709106
1.000000 0.032227 0.802185
0.000000 0.127838 0.000000
0.125854 0.127838 0.035187
0.653809 0.127838 0.271973
1.000000 0.127838 0.449554
1.000000 0.127838 0.509521
1.000000 0.127838 0.581787
0.000000 0.462311 0.000000
0.000000 0.462311 0.000000
0.383057 0.462311 0.000000
0.853668 0.539490 0.000000
1.000000 0.570129 0.122711
1.000000 0.600403 0.292542
0.049103 0.744904 0.000000
0.050079 0.745117 0.000000
0.091187 0.745331 0.000000
0.604584 0.745544 0.000000
0.973511 0.834808 0.000000
1.000000 0.853333 0.000000
0.168793 0.928223 0.000000
0.154816 0.927246 0.000000
0.155609 0.927277 0.000000
0.462616 0.927338 0.000000
0.811615 0.927399 0.000000
1.000000 0.990509 0.000000
0.185486 1.000000 0.000000
0.185486 1.000000 0.000000
0.185486 1.000000 0.000000
0.328125 1.000000 0.000000
0.687622 1.000000 0.000000
0.954620 1.000000 0.000000
0.072235 0.032227 0.755737
0.408508 0.032227 0.983337
0.911011 0.032227 1.000000
1.000000 0.032227 1.000000
1.000000 0.032227 1.000000
1.000000 0.032227 1.000000
0.025818 0.082184 0.460205
0.162445 0.115784 0.647430
0.746521 0.171570 0.941986
1.000000 0.171570 1.000000
1.000000 0.171570 1.000000
1.000000 0.171570 1.000000
0.000000 0.499512 0.016571
0.000000 0.499512 0.140503
0.467499 0.499512 0.380798
0.890442 0.514160 0.608459
1.000000 0.499512 0.733337
1.000000 0.499512 0.828247
0.055542 0.774841 0.000000
0.056519 0.775024 0.000000
0.180023 0.775177 0.000000
0.666046 0.775391 0.107971
0.988922 0.829163 0.389404
1.000000 0.847900 0.553650
0.191925 0.944397 0.000000
0.170654 0.943207 0.000000
0.161011 0.942657 0.000000
0.512939 0.942688 0.000000
0.853851 0.942749 0.000000
1.000000 0.987122 0.210907
0.185486 1.000000 0.000000
0.185486 1.000000 0.000000
0.185486 1.000000 0.000000
0.397949 1.000000 0.000000
0.743286 1.000000 0.000000
0.991760 1.000000 0.000000
0.104492 0.032227 1.000000
0.498993 0.032227 1.000000
0.971039 0.032227 1.000000
1.000000 0.032227 1.000000
1.000000 0.032227 1.000000
1.000000 0.032227 1.000000
0.071106 0.070923 1.000000
0.201111 0.103943 1.000000
0.814697 0.216797 1.000000
1.000000 0.216797 1.000000
1.000000 0.216797 1.000000
1.000000 0.216797 1.000000
0.000000 0.427094 0.631042
0.000031 0.458984 0.772797
0.497192 0.489227 0.970245
0.943848 0.536133 1.000000
1.000000 0.536133 1.000000
1.000000 0.536133 1.000000
0.062073 0.802673 0.404572
0.062836 0.802795 0.481262
0.336761 0.803040 0.608643
0.755188 0.803223 0.795868
1.000000 0.823425 0.939850
1.000000 0.804382 0.965973
0.214325 0.958923 0.202393
0.187836 0.957825 0.272369
0.287048 0.956970 0.371368
0.577728 0.956940 0.427399
0.901276 0.956970 0.649902
1.000000 0.983795 0.772888
0.184662 1.000000 0.000000
0.184662 1.000000 0.000000
0.184662 1.000000 0.000000
0.479248 1.000000 0.064606
0.813660 1.000000 0.377869
1.000000 1.000000 0.584290
0.122589 0.032227 1.000000
0.580444 0.032227 1.000000
1.000000 0.032227 1.000000
1.000000 0.032227 1.000000
1.000000 0.032227 1.000000
1.000000 0.032227 1.000000
0.100098 0.059631 1.000000
0.225220 0.092407 1.000000
0.867950 0.263031 1.000000
1.000000 0.263031 1.000000
1.000000 0.263031 1.000000
1.000000 0.263031 1.000000
0.000000 0.415558 1.000000
0.000031 0.448029 1.000000
0.517120 0.478882 1.000000
0.970642 0.574005 1.000000
1.000000 0.574005 1.000000
1.000000 0.574005 1.000000
0.068451 0.780426 0.798126
0.069550 0.752411 0.829346
0.374329 0.775360 0.948730
0.775421 0.797241 1.000000
1.000000 0.829102 1.000000
1.000000 0.829193 1.000000
0.233307 0.972015 0.669830
0.202911 0.971130 0.698975
0.300537 0.970490 0.759338
0.678009 0.970276 0.895264
0.949646 0.970306 0.980286
1.000000 0.980408 1.000000
0.184662 1.000000 0.495575
0.184662 1.000000 0.542999
0.261566 1.000000 0.606354
0.644012 1.000000 0.759674
0.873047 1.000000 0.823517
1.000000 1.000000 0.936279
0.125488 0.032227 1.000000
0.589996 0.032227 1.000000
1.000000 0.032227 1.000000
1.000000 0.032227 1.000000
1.000000 0.032227 1.000000
1.000000 0.032227 1.000000
0.111786 0.055145 1.000000
0.224091 0.101746 1.000000
0.859436 0.309296 1.000000
1.000000 0.309296 1.000000
1.000000 0.309296 1.000000
1.000000 0.309296 1.000000
0.000000 0.403931 1.000000
0.000031 0.438324 1.000000
0.519104 0.482513 1.000000
0.967865 0.611359 1.000000
1.000000 0.611359 1.000000
1.000000 0.611359 1.000000
0.075592 0.720917 1.000000
0.076660 0.745636 1.000000
0.392517 0.769012 1.000000
0.783020 0.797699 1.000000
1.000000 0.852783 1.000000
1.000000 0.852936 1.000000
0.246979 0.983887 0.915192
0.214203 0.970062 0.926758
0.334137 0.954224 0.962616
0.700806 0.956116 1.000000
0.955017 0.968414 1.000000
1.000000 0.982819 1.000000
0.184662 1.000000 0.799438
0.184662 1.000000 0.833130
0.274994 1.000000 0.885620
0.654388 1.000000 0.977722
0.929260 1.000000 1.000000
1.000000 1.000000 1.000000
