Color Lookup Presets Effects/z1 (74).CUBE
#Created by: Adobe Photoshop Export Color Lookup Plugin
#Copyright: (C) Copyright 2016 www.zafizack.com
TITLE "zafizack pastel color preset"
#LUT size
LUT_3D_SIZE 6
#data domain
DOMAIN_MIN 0.0 0.0 0.0
DOMAIN_MAX 1.0 1.0 1.0
#LUT data points
0.031982 0.022614 0.021820
0.328430 0.119110 0.118042
0.609711 0.213165 0.211731
0.832520 0.286896 0.282593
0.929169 0.388092 0.382233
1.000000 0.464325 0.446106
0.077942 0.195374 0.056030
0.238800 0.240631 0.119659
0.552002 0.365173 0.224304
0.767120 0.446442 0.294464
0.928009 0.520966 0.369385
1.000000 0.563507 0.440216
0.143860 0.456329 0.115051
0.281036 0.477722 0.159027
0.494751 0.517853 0.243011
0.723022 0.601227 0.318329
0.924744 0.645264 0.368652
1.000000 0.675079 0.441528
0.184021 0.649994 0.158691
0.307831 0.657440 0.183685
0.494934 0.682831 0.265991
0.660248 0.711121 0.326660
0.895203 0.798889 0.401611
1.000000 0.810272 0.463104
0.223114 0.848236 0.199432
0.336792 0.848694 0.207764
0.503082 0.863159 0.290649
0.659424 0.884888 0.353912
0.824402 0.910980 0.410004
1.000000 0.961090 0.514709
0.252289 1.000000 0.229309
0.358490 0.997009 0.223846
0.512024 1.000000 0.309021
0.663605 1.000000 0.375885
0.820709 1.000000 0.462982
0.958191 1.000000 0.608398
0.030518 0.014648 0.121124
0.233368 0.017700 0.291290
0.523926 0.067841 0.345306
0.786011 0.129883 0.410736
0.918915 0.256348 0.487305
1.000000 0.365479 0.526733
0.024353 0.182098 0.249725
0.204376 0.209656 0.268768
0.509613 0.281372 0.327179
0.740326 0.343597 0.380096
0.922028 0.419952 0.437195
1.000000 0.501282 0.507813
0.058929 0.465942 0.322937
0.234406 0.468872 0.298798
0.471802 0.499634 0.333496
0.695679 0.564087 0.402924
0.906921 0.605286 0.442535
1.000000 0.634735 0.513641
0.092438 0.647552 0.362061
0.263184 0.649658 0.330963
0.465881 0.665649 0.336243
0.645630 0.695068 0.393738
0.878479 0.766571 0.453491
1.000000 0.780457 0.518646
0.127258 0.835144 0.395844
0.292847 0.839661 0.362976
0.470398 0.848694 0.346313
0.641144 0.871155 0.402496
0.818085 0.898651 0.454132
1.000000 0.944763 0.563110
0.155029 0.979706 0.415924
0.313934 0.984924 0.383545
0.477539 0.989166 0.353729
0.642242 1.000000 0.413452
0.806946 1.000000 0.503723
0.964935 1.000000 0.660004
0.034027 0.011810 0.247955
0.230469 0.009949 0.543640
0.507050 0.015198 0.578613
0.746765 0.061798 0.585388
0.912079 0.197266 0.607483
1.000000 0.323608 0.630219
0.023590 0.146179 0.496979
0.179810 0.160980 0.537476
0.462952 0.190369 0.547699
0.688965 0.247864 0.559235
0.913544 0.324524 0.584229
1.000000 0.442474 0.603821
0.023529 0.412140 0.518005
0.163605 0.441956 0.529602
0.418732 0.458801 0.520447
0.640991 0.488098 0.530487
0.880341 0.521118 0.550079
1.000000 0.569427 0.583710
0.035706 0.641998 0.570465
0.175079 0.650330 0.560822
0.415894 0.646667 0.531952
0.601074 0.659454 0.522888
0.844788 0.713135 0.562744
1.000000 0.744812 0.607269
0.063324 0.820953 0.597412
0.202911 0.832367 0.582367
0.429840 0.833832 0.551788
0.588989 0.848114 0.522034
0.795502 0.876740 0.558411
1.000000 0.922028 0.631989
0.085907 0.958405 0.613708
0.221893 0.970795 0.596771
0.442047 0.973969 0.565674
0.584991 0.987366 0.522736
0.784790 1.000000 0.580353
0.974762 1.000000 0.743805
0.038757 0.010742 0.386536
0.230438 0.004547 0.742645
0.506836 0.007538 0.795441
0.782471 0.019714 0.841583
0.905182 0.140381 0.759613
1.000000 0.282745 0.751770
0.023346 0.120209 0.627319
0.177704 0.138214 0.716400
0.458374 0.165009 0.743713
0.697205 0.186401 0.775909
0.906311 0.252502 0.753632
1.000000 0.394684 0.733643
0.023254 0.367859 0.671814
0.146423 0.387512 0.709595
0.394897 0.402008 0.713715
0.631744 0.444366 0.729431
0.855225 0.469269 0.718628
1.000000 0.528503 0.718262
0.023224 0.584045 0.687775
0.139252 0.603516 0.703033
0.378235 0.614807 0.701050
0.578033 0.628967 0.699097
0.816833 0.656067 0.701324
1.000000 0.687286 0.713409
0.031342 0.808258 0.752716
0.147614 0.823608 0.748047
0.380249 0.825653 0.727936
0.571381 0.833862 0.703705
0.782867 0.856506 0.697815
1.000000 0.896576 0.745056
0.049225 0.940613 0.768219
0.164764 0.957703 0.758423
0.391907 0.960754 0.736084
0.572845 0.972626 0.706665
0.760864 0.998627 0.688354
0.985016 1.000000 0.841522
0.041748 0.010193 0.477295
0.230042 0.001984 0.873016
0.504822 0.005798 0.927460
0.739716 0.039795 0.926575
0.919464 0.114502 0.891876
1.000000 0.256348 0.842010
0.023224 0.106628 0.703766
0.177124 0.125305 0.833282
0.457184 0.150482 0.874817
0.696381 0.170868 0.916992
0.921570 0.218018 0.910828
1.000000 0.360901 0.836426
0.023163 0.342926 0.766785
0.136475 0.356079 0.829926
0.393707 0.380890 0.842102
0.629486 0.431641 0.871063
0.878326 0.430817 0.895203
1.000000 0.497803 0.834290
0.023163 0.565399 0.795166
0.129181 0.581818 0.828369
0.363739 0.590546 0.833954
0.562683 0.599579 0.845215
0.817841 0.624878 0.863617
1.000000 0.657837 0.838318
0.023163 0.741425 0.812958
0.122620 0.765991 0.829498
0.353149 0.782104 0.830109
0.548401 0.804138 0.834595
0.775940 0.838623 0.848236
1.000000 0.868530 0.861938
0.028809 0.929688 0.886414
0.126495 0.948730 0.888824
0.356049 0.951569 0.873291
0.545410 0.962372 0.858368
0.764008 0.986786 0.855438
0.993225 1.000000 0.927185
0.044861 0.009674 0.528839
0.229095 0.000641 1.000000
0.488953 0.010498 1.000000
0.710327 0.057495 1.000000
0.917389 0.132751 1.000000
1.000000 0.230896 0.937103
0.023163 0.094269 0.779114
0.176849 0.113251 0.954132
0.455994 0.139679 1.000000
0.674927 0.186401 1.000000
0.889404 0.248169 1.000000
1.000000 0.328979 0.943054
0.023132 0.320740 0.857880
0.127411 0.327972 0.947815
0.395752 0.365112 0.964478
0.628479 0.422516 1.000000
0.852264 0.436859 1.000000
1.000000 0.468903 0.953735
0.023132 0.548828 0.894348
0.120209 0.563263 0.946167
0.352600 0.570618 0.954773
0.550812 0.575928 0.975098
0.813171 0.611633 1.000000
1.000000 0.628204 0.968170
0.023102 0.721161 0.914856
0.113770 0.744476 0.945160
0.342285 0.760315 0.950104
0.536774 0.778259 0.963501
0.760925 0.812073 0.986877
1.000000 0.838745 0.986359
0.023102 0.848663 0.926117
0.107361 0.875397 0.945526
0.334869 0.893738 0.947906
0.526794 0.918701 0.956848
0.747864 0.959625 0.978790
1.000000 1.000000 1.000000
