Color Lookup Presets Effects/z1 (92).CUBE
#Created by: Adobe Photoshop Export Color Lookup Plugin
#Copyright: (C) Copyright 2015 www.zafizack.com
TITLE "zafizack-VG-18"
#LUT size
LUT_3D_SIZE 16
#data domain
DOMAIN_MIN 0.0 0.0 0.0
DOMAIN_MAX 1.0 1.0 1.0
#LUT data points
0.000000 0.000000 0.000000
0.066711 0.000000 0.000000
0.133331 0.000000 0.000000
0.200043 0.000000 0.000000
0.266663 0.000000 0.000000
0.333374 0.000000 0.000000
0.399994 0.000000 0.000000
0.466675 0.000000 0.000000
0.533325 0.000000 0.000000
0.600006 0.000000 0.000000
0.666656 0.000000 0.000000
0.733337 0.000000 0.000000
0.799988 0.000000 0.000000
0.866669 0.000000 0.000000
0.933319 0.000000 0.000000
1.000000 0.000000 0.000000
0.120209 0.113281 0.000000
0.124084 0.120575 0.000000
0.186615 0.120575 0.000000
0.249237 0.120575 0.000000
0.311737 0.120575 0.000000
0.374359 0.120575 0.000000
0.436890 0.120575 0.000000
0.499481 0.120575 0.000000
0.562012 0.120575 0.000000
0.624603 0.120575 0.000000
0.687134 0.120575 0.000000
0.749756 0.120575 0.000000
0.812286 0.120575 0.000000
0.874847 0.120575 0.000000
0.937439 0.120575 0.000000
1.000000 0.120575 0.000000
0.226440 0.193970 0.000000
0.229828 0.206024 0.000000
0.241089 0.217743 0.000000
0.299500 0.217743 0.000000
0.357849 0.217743 0.000000
0.416260 0.217743 0.000000
0.474579 0.217743 0.000000
0.532990 0.217743 0.000000
0.591370 0.217743 0.000000
0.649750 0.217743 0.000000
0.708099 0.217743 0.000000
0.766510 0.217743 0.000000
0.824860 0.217743 0.000000
0.883270 0.217743 0.000000
0.941589 0.217743 0.000000
1.000000 0.217743 0.000000
0.319946 0.250732 0.000000
0.322784 0.266022 0.000000
0.333221 0.280609 0.000000
0.350861 0.294403 0.000000
0.404907 0.294403 0.000000
0.459045 0.294403 0.000000
0.513092 0.294403 0.000000
0.567200 0.294403 0.000000
0.621307 0.294403 0.000000
0.675446 0.294403 0.000000
0.729523 0.294403 0.000000
0.783630 0.294403 0.000000
0.837708 0.294403 0.000000
0.891815 0.294403 0.000000
0.945892 0.294403 0.000000
1.000000 0.294403 0.000000
0.401733 0.289886 0.000000
0.403778 0.307465 0.000000
0.413239 0.323822 0.000000
0.429779 0.338959 0.000000
0.452789 0.352875 0.000000
0.502533 0.352875 0.000000
0.552277 0.352875 0.000000
0.602020 0.352875 0.000000
0.651764 0.352875 0.000000
0.701538 0.352875 0.000000
0.751282 0.352875 0.000000
0.801025 0.352875 0.000000
0.850769 0.352875 0.000000
0.900513 0.352875 0.000000
0.950256 0.352875 0.000000
1.000000 0.352875 0.000000
0.473480 0.315826 0.000000
0.474304 0.335266 0.000000
0.482666 0.352875 0.000000
0.497955 0.368683 0.000000
0.519440 0.382721 0.000000
0.546722 0.395081 0.000000
0.592041 0.395081 0.000000
0.637390 0.395081 0.000000
0.682678 0.395081 0.000000
0.728027 0.395081 0.000000
0.773346 0.395081 0.000000
0.818695 0.395081 0.000000
0.864014 0.395081 0.000000
0.909332 0.395081 0.000000
0.954651 0.395081 0.000000
1.000000 0.395081 0.000000
0.536530 0.331543 0.000000
0.535706 0.352875 0.000000
0.542511 0.371582 0.000000
0.556305 0.387848 0.000000
0.576294 0.402832 0.000000
0.601349 0.437439 0.000000
0.631165 0.472137 0.000000
0.672150 0.472137 0.000000
0.713135 0.472137 0.000000
0.754120 0.472137 0.000000
0.795074 0.472137 0.000000
0.836060 0.472137 0.000000
0.877075 0.472137 0.000000
0.918060 0.472137 0.000000
0.959015 0.472137 0.000000
1.000000 0.472137 0.000000
0.604706 0.356659 0.000000
0.600372 0.375641 0.000000
0.603760 0.391937 0.000000
0.613800 0.414063 0.000000
0.629700 0.450195 0.000000
0.651062 0.486420 0.000000
0.677032 0.522491 0.000000
0.707031 0.558380 0.000000
0.743622 0.558380 0.000000
0.780273 0.558380 0.000000
0.816864 0.558380 0.000000
0.853516 0.558380 0.000000
0.890137 0.558380 0.000000
0.926758 0.558380 0.000000
0.963379 0.558380 0.000000
1.000000 0.558380 0.000000
0.685059 0.397644 0.000000
0.675934 0.423737 0.000000
0.673828 0.455444 0.000000
0.678131 0.487091 0.000000
0.688293 0.518646 0.000000
0.703613 0.550140 0.000000
0.723511 0.580475 0.000000
0.747345 0.611084 0.000000
0.774384 0.642517 0.000000
0.806580 0.642517 0.000000
0.838837 0.642517 0.000000
0.871063 0.642517 0.000000
0.903290 0.642517 0.000000
0.935516 0.642517 0.000000
0.967743 0.642517 0.000000
1.000000 0.642517 0.000000
0.758850 0.487823 0.000000
0.746307 0.514923 0.000000
0.740234 0.541870 0.000000
0.740112 0.568695 0.000000
0.745361 0.595245 0.000000
0.755463 0.620728 0.000000
0.769867 0.645050 0.000000
0.787994 0.670410 0.000000
0.809296 0.696472 0.000000
0.833191 0.722778 0.000000
0.860992 0.722778 0.000000
0.888824 0.722778 0.000000
0.916595 0.722778 0.000000
0.944397 0.722778 0.000000
0.972198 0.722778 0.000000
1.000000 0.722778 0.000000
0.825409 0.591461 0.000000
0.810852 0.613434 0.000000
0.802063 0.635193 0.000000
0.798584 0.656708 0.000000
0.799896 0.677612 0.000000
0.805664 0.695953 0.000000
0.815277 0.715271 0.000000
0.828339 0.735260 0.000000
0.844360 0.755737 0.000000
0.862885 0.776459 0.000000
0.883423 0.797028 0.000000
0.906738 0.797028 0.000000
0.930023 0.797028 0.000000
0.953369 0.797028 0.000000
0.976685 0.797028 0.000000
1.000000 0.797028 0.000000
0.883545 0.699463 0.000000
0.868439 0.715912 0.000000
0.858276 0.732086 0.000000
0.852539 0.748016 0.000000
0.851074 0.761200 0.000000
0.853333 0.774750 0.000000
0.858948 0.788940 0.000000
0.867645 0.803558 0.000000
0.878906 0.818512 0.000000
0.892487 0.833557 0.000000
0.907959 0.848541 0.000000
0.924866 0.863281 0.000000
0.943665 0.863281 0.000000
0.962433 0.863281 0.000000
0.981201 0.863281 0.000000
1.000000 0.863281 0.000000
0.931671 0.805450 0.000000
0.917633 0.816254 0.000000
0.907440 0.826843 0.000000
0.900909 0.835632 0.000000
0.897705 0.843994 0.000000
0.897522 0.852905 0.000000
0.900085 0.862122 0.000000
0.905151 0.871582 0.000000
0.912415 0.881195 0.000000
0.921539 0.890839 0.000000
0.932281 0.900452 0.000000
0.944366 0.909912 0.000000
0.957428 0.919128 0.000000
0.971619 0.919128 0.000000
0.985809 0.919128 0.000000
1.000000 0.919128 0.000000
0.968323 0.900513 0.000000
0.956970 0.906097 0.000000
0.948425 0.910919 0.000000
0.942444 0.915009 0.000000
0.938812 0.919373 0.000000
0.937378 0.923950 0.000000
0.937927 0.928711 0.000000
0.940247 0.933563 0.000000
0.944183 0.938477 0.000000
0.949493 0.943390 0.000000
0.956055 0.948273 0.000000
0.963593 0.953064 0.000000
0.971954 0.957764 0.000000
0.980927 0.962280 0.000000
0.990479 0.962280 0.000000
1.000000 0.962280 0.000000
0.991760 0.971344 0.000000
0.985016 0.972870 0.000000
0.979797 0.973999 0.000000
0.975891 0.975189 0.000000
0.973297 0.976501 0.000000
0.971832 0.977844 0.000000
0.971527 0.979218 0.000000
0.972107 0.980621 0.000000
0.973602 0.982056 0.000000
0.975800 0.983459 0.000000
0.978729 0.984863 0.000000
0.982269 0.986237 0.000000
0.986237 0.987579 0.000000
0.990570 0.988861 0.000000
0.995178 0.990082 0.000000
1.000000 0.990082 0.000000
1.000000 1.000000 0.000000
1.000000 1.000000 0.000000
1.000000 1.000000 0.000000
1.000000 1.000000 0.000000
1.000000 1.000000 0.000000
1.000000 1.000000 0.000000
1.000000 1.000000 0.000000
1.000000 1.000000 0.000000
1.000000 1.000000 0.000000
1.000000 1.000000 0.000000
1.000000 1.000000 0.000000
1.000000 1.000000 0.000000
1.000000 1.000000 0.000000
1.000000 1.000000 0.000000
1.000000 1.000000 0.000000
1.000000 1.000000 0.000000
0.000000 0.000000 0.066711
0.066711 0.000000 0.066711
0.133331 0.000000 0.066711
0.200043 0.000000 0.066711
0.266663 0.000000 0.066711
0.333374 0.000000 0.066711
0.399994 0.000000 0.066711
0.466705 0.000000 0.066711
0.533325 0.000000 0.066711
0.600006 0.000000 0.066711
0.666656 0.000000 0.066711
0.733337 0.000000 0.066711
0.799988 0.000000 0.066711
0.866669 0.000000 0.066711
0.933319 0.000000 0.066711
1.000000 0.000000 0.066711
0.000000 0.066711 0.066711
0.066711 0.066711 0.066711
0.133331 0.066711 0.066711
0.200043 0.066711 0.066711
0.266663 0.066711 0.066711
0.333374 0.066711 0.066711
0.399994 0.066711 0.066711
0.466705 0.066711 0.066711
0.533325 0.066711 0.066711
0.600006 0.066711 0.066711
0.666656 0.066711 0.066711
0.733337 0.066711 0.066711
0.799988 0.066711 0.066711
0.866669 0.066711 0.066711
0.933319 0.066711 0.066711
1.000000 0.066711 0.066711
0.120117 0.168213 0.054962
0.178802 0.168213 0.054962
0.186584 0.178894 0.058380
0.249176 0.178894 0.058380
0.311737 0.178894 0.058380
0.374298 0.178894 0.058380
0.436859 0.178894 0.058380
0.499451 0.178894 0.058380
0.561951 0.178894 0.058380
0.624603 0.178894 0.058380
0.687103 0.178894 0.058380
0.749725 0.178894 0.058380
0.812256 0.178894 0.058380
0.874847 0.178894 0.058380
0.937408 0.178894 0.058380
1.000000 0.178894 0.058380
0.226440 0.239868 0.045898
0.278015 0.239868 0.045898
0.284882 0.254608 0.048523
0.299500 0.268860 0.051117
0.357849 0.268860 0.051117
0.416260 0.268860 0.051117
0.474579 0.268860 0.051117
0.532990 0.268860 0.051117
0.591370 0.268860 0.051117
0.649750 0.268860 0.051117
0.708099 0.268860 0.051117
0.766510 0.268860 0.051117
0.824860 0.268860 0.051117
0.883270 0.268860 0.051117
0.941589 0.268860 0.051117
1.000000 0.268860 0.051117
0.319855 0.289520 0.038788
0.365234 0.289520 0.038788
0.371094 0.306976 0.040955
0.384430 0.323517 0.042908
0.404907 0.339203 0.044800
0.459015 0.339203 0.044800
0.513062 0.339203 0.044800
0.567200 0.339203 0.044800
0.621246 0.339203 0.044800
0.675415 0.339203 0.044800
0.729462 0.339203 0.044800
0.783600 0.339203 0.044800
0.837677 0.339203 0.044800
0.891815 0.339203 0.044800
0.945892 0.339203 0.044800
1.000000 0.339203 0.044800
0.401733 0.323029 0.033142
0.441650 0.323029 0.033142
0.446350 0.342377 0.034912
0.458435 0.360352 0.036530
0.477295 0.376953 0.037994
0.502533 0.392242 0.039337
0.552277 0.392242 0.039337
0.602020 0.392242 0.039337
0.651764 0.392242 0.039337
0.701538 0.392242 0.039337
0.751282 0.392242 0.039337
0.801025 0.392242 0.039337
0.850769 0.392242 0.039337
0.900513 0.392242 0.039337
0.950256 0.392242 0.039337
1.000000 0.392242 0.039337
0.473389 0.344391 0.028595
0.508514 0.344391 0.028595
0.511810 0.365387 0.030121
0.522369 0.384338 0.031464
0.539642 0.402283 0.032623
0.562561 0.436615 0.033112
0.590973 0.470978 0.033356
0.636475 0.470978 0.033356
0.681854 0.470978 0.033356
0.727356 0.470978 0.033356
0.772766 0.470978 0.033356
0.818207 0.470978 0.033356
0.863678 0.470978 0.033356
0.909119 0.470978 0.033356
0.954529 0.470978 0.033356
1.000000 0.470978 0.033356
0.548096 0.371399 0.023926
0.578217 0.371399 0.023926
0.578217 0.390076 0.025421
0.585144 0.413849 0.026550
0.598358 0.449738 0.027191
0.617432 0.485748 0.027527
0.641846 0.521515 0.027588
0.670990 0.557129 0.027435
0.712097 0.557129 0.027435
0.753235 0.557129 0.027435
0.794373 0.557129 0.027435
0.835480 0.557129 0.027435
0.876617 0.557129 0.027435
0.917755 0.557129 0.027435
0.958862 0.557129 0.027435
1.000000 0.557129 0.027435
0.633789 0.423859 0.018463
0.658173 0.423859 0.018463
0.652893 0.455414 0.019623
0.654236 0.486877 0.020569
0.661713 0.518280 0.021240
0.674774 0.549500 0.021759
0.692932 0.579651 0.022034
0.715759 0.609985 0.022095
0.742523 0.641205 0.021942
0.779327 0.641205 0.021942
0.816071 0.641205 0.021942
0.852905 0.641205 0.021942
0.889648 0.641205 0.021942
0.926453 0.641205 0.021942
0.963226 0.641205 0.021942
1.000000 0.641205 0.021942
0.713470 0.515015 0.013153
0.732574 0.515015 0.013153
0.723572 0.541870 0.014221
0.720581 0.568512 0.015106
0.723206 0.594879 0.015839
0.731049 0.620239 0.016388
0.743683 0.644348 0.016785
0.760590 0.669525 0.017029
0.781433 0.695343 0.017059
0.805664 0.721466 0.016907
0.838074 0.721466 0.016907
0.870453 0.721466 0.016907
0.902832 0.721466 0.016907
0.935211 0.721466 0.016907
0.967590 0.721466 0.016907
1.000000 0.721466 0.016907
0.786438 0.613495 0.008667
0.800629 0.613495 0.008667
0.789154 0.635132 0.009613
0.782990 0.656586 0.010376
0.781769 0.677338 0.011047
0.785278 0.695526 0.011627
0.793030 0.714691 0.012054
0.804810 0.734528 0.012329
0.820099 0.754791 0.012512
0.838745 0.775360 0.012512
0.860260 0.795746 0.012421
0.888245 0.795746 0.012421
0.916138 0.795746 0.012421
0.944122 0.795746 0.012421
0.972046 0.795746 0.012421
1.000000 0.795746 0.012421
0.851379 0.715942 0.005127
0.861298 0.715942 0.005127
0.848694 0.732056 0.005859
0.840515 0.747894 0.006470
0.836639 0.760956 0.007050
0.836700 0.774414 0.007538
0.840454 0.788452 0.007935
0.847656 0.802979 0.008240
0.858093 0.817780 0.008423
0.871521 0.832703 0.008545
0.887634 0.847504 0.008575
0.906189 0.862122 0.008514
0.929626 0.862122 0.008514
0.953094 0.862122 0.008514
0.976563 0.862122 0.008514
1.000000 0.862122 0.008514
0.906738 0.816254 0.002563
0.912994 0.816254 0.002563
0.900726 0.826782 0.003052
0.891937 0.835541 0.003510
0.886505 0.843842 0.003906
0.884247 0.852631 0.004272
0.884949 0.861786 0.004578
0.888489 0.871124 0.004822
0.894745 0.880615 0.005005
0.903503 0.890198 0.005157
0.914612 0.899689 0.005249
0.927948 0.909058 0.005249
0.943298 0.918121 0.005249
0.962189 0.918121 0.005249
0.981079 0.918121 0.005249
1.000000 0.918121 0.005249
0.951080 0.906097 0.000946
0.954376 0.906097 0.000946
0.944092 0.910889 0.001221
0.936188 0.914948 0.001465
0.930542 0.919250 0.001709
0.927094 0.923767 0.001923
0.925812 0.928497 0.002106
0.926605 0.933258 0.002258
0.929413 0.938110 0.002411
0.934204 0.942932 0.002502
0.940826 0.947754 0.002594
0.949310 0.952484 0.002655
0.959534 0.957092 0.002686
0.971436 0.961548 0.002716
0.985718 0.961548 0.002716
1.000000 0.961548 0.002716
0.982697 0.972778 0.000183
0.983826 0.972870 0.000183
0.977295 0.973969 0.000275
0.971832 0.975159 0.000336
0.967468 0.976440 0.000427
0.964203 0.977753 0.000488
0.962128 0.979095 0.000580
0.961243 0.980469 0.000641
0.961517 0.981842 0.000702
0.963074 0.983246 0.000763
0.965881 0.984589 0.000793
0.969971 0.985931 0.000854
0.975403 0.987244 0.000885
0.982208 0.988495 0.000916
0.990417 0.989685 0.000946
1.000000 0.989685 0.000946
0.999664 1.000000 0.000000
0.999695 1.000000 0.000000
0.998871 1.000000 0.000000
0.997681 1.000000 0.000000
0.996216 1.000000 0.000000
0.994629 1.000000 0.000000
0.993011 1.000000 0.000000
0.991547 1.000000 0.000000
0.990356 1.000000 0.000000
0.989532 1.000000 0.000031
0.989227 1.000000 0.000031
0.989594 1.000000 0.000031
0.990692 1.000000 0.000031
0.992737 1.000000 0.000031
0.995789 1.000000 0.000031
1.000000 1.000000 0.000031
0.000000 0.000000 0.133331
0.066711 0.000000 0.133331
0.133331 0.000000 0.133331
0.200043 0.000000 0.133331
0.266663 0.000000 0.133331
0.333374 0.000000 0.133331
0.399994 0.000000 0.133331
0.466705 0.000000 0.133331
0.533325 0.000000 0.133331
0.600006 0.000000 0.133331
0.666656 0.000000 0.133331
0.733337 0.000000 0.133331
0.799957 0.000000 0.133331
0.866669 0.000000 0.133331
0.933319 0.000000 0.133331
1.000000 0.000000 0.133331
0.000000 0.066711 0.133331
0.066711 0.066711 0.133331
0.133331 0.066711 0.133331
0.200043 0.066711 0.133331
0.266663 0.066711 0.133331
0.333374 0.066711 0.133331
0.399994 0.066711 0.133331
0.466705 0.066711 0.133331
0.533325 0.066711 0.133331
0.600006 0.066711 0.133331
0.666656 0.066681 0.133331
0.733337 0.066711 0.133331
0.799957 0.066711 0.133331
0.866669 0.066711 0.133331
0.933319 0.066711 0.133331
1.000000 0.066711 0.133331
0.000000 0.133331 0.133331
0.066711 0.133331 0.133331
0.133331 0.133331 0.133331
0.200043 0.133331 0.133331
0.266663 0.133331 0.133331
0.333374 0.133331 0.133331
0.399994 0.133331 0.133331
0.466705 0.133331 0.133331
0.533325 0.133331 0.133331
0.600006 0.133331 0.133331
0.666656 0.133331 0.133331
0.733337 0.133331 0.133331
0.799957 0.133331 0.133331
0.866669 0.133331 0.133331
0.933319 0.133331 0.133331
1.000000 0.133331 0.133331
0.124146 0.181732 0.115753
0.178864 0.223175 0.109894
0.237518 0.223175 0.109894
0.249237 0.237274 0.116699
0.311737 0.237274 0.116699
0.374359 0.237274 0.116699
0.436890 0.237274 0.116699
0.499481 0.237274 0.116699
0.562012 0.237274 0.116699
0.624603 0.237274 0.116699
0.687134 0.237274 0.116699
0.749756 0.237274 0.116699
0.812286 0.237274 0.116699
0.874847 0.237274 0.116699
0.937439 0.237274 0.116699
1.000000 0.237274 0.116699
0.226471 0.285736 0.091736
0.278046 0.285736 0.091736
0.329590 0.285736 0.091736
0.339874 0.303162 0.097076
0.357849 0.319977 0.102173
0.416260 0.319977 0.102173
0.474579 0.319977 0.102173
0.532990 0.319977 0.102173
0.591370 0.319977 0.102173
0.649750 0.319977 0.102173
0.708099 0.319977 0.102173
0.766510 0.319977 0.102173
0.824860 0.319977 0.102173
0.883270 0.319977 0.102173
0.941589 0.319977 0.102173
1.000000 0.319977 0.102173
0.319946 0.328308 0.077545
0.365295 0.328308 0.077545
0.410614 0.328308 0.077545
0.419556 0.347900 0.081818
0.435791 0.366455 0.085846
0.459045 0.384003 0.089600
0.513092 0.384003 0.089600
0.567200 0.384003 0.089600
0.621307 0.384003 0.089600
0.675446 0.384003 0.089600
0.729523 0.384003 0.089600
0.783630 0.384003 0.089600
0.837708 0.384003 0.089600
0.891815 0.384003 0.089600
0.945892 0.384003 0.089600
1.000000 0.384003 0.089600
0.401733 0.356171 0.066284
0.441650 0.356171 0.066284
0.481537 0.356171 0.066284
0.488953 0.377319 0.069824
0.503510 0.397644 0.072998
0.524353 0.431213 0.075012
0.551422 0.464752 0.076477
0.601257 0.464752 0.076477
0.651093 0.464752 0.076477
0.700928 0.464752 0.076477
0.750793 0.464752 0.076477
0.800629 0.464752 0.076477
0.850464 0.464752 0.076477
0.900299 0.464752 0.076477
0.950165 0.464752 0.076477
1.000000 0.464752 0.076477
0.484131 0.385681 0.055389
0.518524 0.385681 0.055389
0.552887 0.385681 0.055389
0.556763 0.410675 0.058441
0.567322 0.445892 0.060516
0.584259 0.481171 0.062042
0.607086 0.516205 0.063110
0.635406 0.551086 0.063660
0.680939 0.551086 0.063660
0.726563 0.551086 0.063660
0.772125 0.551086 0.063660
0.817719 0.551086 0.063660
0.863281 0.551086 0.063660
0.908844 0.551086 0.063660
0.954407 0.551086 0.063660
1.000000 0.551086 0.063660
0.575592 0.453461 0.042542
0.603912 0.453461 0.042542
0.632202 0.453461 0.042542
0.630554 0.484375 0.045074
0.635406 0.515137 0.047211
0.646271 0.545776 0.048889
0.662750 0.575226 0.050262
0.684509 0.604919 0.051178
0.711090 0.635468 0.051605
0.752380 0.635468 0.051605
0.793640 0.635468 0.051605
0.834900 0.635468 0.051605
0.876190 0.635468 0.051605
0.917480 0.635468 0.051605
0.958710 0.635468 0.051605
1.000000 0.635468 0.051605
0.661926 0.540375 0.030731
0.684509 0.540375 0.030731
0.707031 0.540375 0.030731
0.701202 0.566559 0.033051
0.701233 0.592438 0.035095
0.706848 0.617249 0.036804
0.717651 0.640778 0.038300
0.733429 0.665375 0.039368
0.753784 0.690613 0.040131
0.778442 0.716156 0.040497
0.815338 0.716156 0.040497
0.852295 0.716156 0.040497
0.889221 0.716156 0.040497
0.926147 0.716156 0.040497
0.963074 0.716156 0.040497
1.000000 0.716156 0.040497
0.741974 0.634094 0.020691
0.759155 0.634094 0.020691
0.776367 0.634094 0.020691
0.767517 0.655121 0.022675
0.763824 0.675507 0.024475
0.765076 0.693237 0.026123
0.770996 0.711884 0.027496
0.781403 0.731262 0.028625
0.796082 0.751007 0.029480
0.814789 0.771088 0.030090
0.837341 0.791016 0.030457
0.869843 0.791016 0.030457
0.902374 0.791016 0.030457
0.934937 0.791016 0.030457
0.967468 0.791016 0.030457
1.000000 0.791016 0.030457
0.814362 0.730499 0.012604
0.826752 0.731323 0.012604
0.839142 0.731323 0.012604
0.828522 0.746857 0.014160
0.822235 0.759644 0.015656
0.820129 0.772736 0.016998
0.822021 0.786377 0.018219
0.827850 0.800507 0.019196
0.837433 0.814911 0.020050
0.850677 0.829376 0.020721
0.867462 0.843811 0.021240
0.887665 0.858063 0.021576
0.915710 0.858063 0.021576
0.943817 0.858063 0.021576
0.971924 0.858063 0.021576
1.000000 0.858063 0.021576
0.877747 0.824493 0.006622
0.885864 0.825958 0.006592
0.894012 0.826385 0.006592
0.883057 0.834900 0.007690
0.875366 0.842987 0.008759
0.871033 0.851501 0.009735
0.869873 0.860352 0.010620
0.871948 0.869415 0.011444
0.877197 0.878601 0.012146
0.885559 0.887848 0.012726
0.897064 0.897034 0.013245
0.911621 0.906067 0.013672
0.929230 0.914917 0.013977
0.952820 0.914917 0.013977
0.976410 0.914917 0.013977
1.000000 0.914917 0.013977
0.930481 0.909546 0.002655
0.935089 0.910095 0.002655
0.939728 0.910675 0.002655
0.929871 0.914612 0.003265
0.922211 0.918762 0.003876
0.916809 0.923126 0.004456
0.913727 0.927643 0.005005
0.913025 0.932220 0.005524
0.914734 0.936829 0.006012
0.918976 0.941467 0.006470
0.925751 0.946075 0.006866
0.935120 0.950592 0.007233
0.947174 0.954987 0.007568
0.961945 0.959259 0.007843
0.980957 0.959259 0.007843
1.000000 0.959259 0.007843
0.970917 0.973663 0.000580
0.972870 0.973785 0.000580
0.974792 0.973907 0.000580
0.967773 0.975037 0.000793
0.961639 0.976227 0.001007
0.956573 0.977478 0.001251
0.952759 0.978729 0.001465
0.950348 0.980011 0.001709
0.949493 0.981262 0.001923
0.950317 0.982544 0.002167
0.953003 0.983795 0.002380
0.957733 0.985016 0.002594
0.964630 0.986206 0.002808
0.973877 0.987366 0.003021
0.985626 0.988464 0.003235
1.000000 0.988464 0.003235
0.997406 1.000000 0.000000
0.997589 1.000000 0.000000
0.997772 1.000000 0.000000
0.995361 1.000000 0.000000
0.992432 1.000000 0.000000
0.989227 1.000000 0.000031
0.986084 1.000000 0.000031
0.983154 1.000000 0.000061
0.980743 1.000000 0.000122
0.979095 1.000000 0.000153
0.978546 1.000000 0.000214
0.979218 1.000000 0.000275
0.981445 1.000000 0.000336
0.985504 1.000000 0.000366
0.991577 1.000000 0.000366
1.000000 1.000000 0.000305
0.000000 0.000000 0.200043
0.066711 0.000000 0.200043
0.133331 0.000000 0.200043
0.200043 0.000000 0.200043
0.266663 0.000000 0.200043
0.333374 0.000000 0.200043
0.399994 0.000000 0.200043
0.466705 0.000000 0.200043
0.533325 0.000000 0.200043
0.600006 0.000000 0.200043
0.666656 0.000000 0.200043
0.733337 0.000000 0.200043
0.799988 0.000000 0.200043
0.866669 0.000000 0.200043
0.933319 0.000000 0.200043
1.000000 0.000000 0.200043
0.000000 0.066711 0.200043
0.066711 0.066711 0.200043
0.133331 0.066711 0.200043
0.200043 0.066711 0.200043
0.266663 0.066711 0.200043
0.333374 0.066711 0.200043
0.399994 0.066711 0.200043
0.466705 0.066711 0.200043
0.533325 0.066711 0.200043
0.600006 0.066711 0.200043
0.666656 0.066711 0.200043
0.733337 0.066711 0.200043
0.799988 0.066711 0.200043
0.866669 0.066711 0.200043
0.933319 0.066711 0.200043
1.000000 0.066711 0.200043
0.000000 0.133331 0.200043
0.066711 0.133331 0.200043
0.133331 0.133331 0.200043
0.200043 0.133331 0.200043
0.266663 0.133331 0.200043
0.333374 0.133331 0.200043
0.399994 0.133331 0.200043
0.466705 0.133331 0.200043
0.533325 0.133331 0.200043
0.600006 0.133331 0.200043
0.666656 0.133331 0.200043
0.733337 0.133331 0.200043
0.799988 0.133331 0.200043
0.866669 0.133331 0.200043
0.933319 0.133331 0.200043
1.000000 0.133331 0.200043
0.000000 0.200043 0.200043
0.066711 0.200043 0.200043
0.133331 0.200043 0.200043
0.200043 0.200043 0.200043
0.266663 0.200043 0.200043
0.333374 0.200043 0.200043
0.399994 0.200043 0.200043
0.466705 0.200043 0.200043
0.533325 0.200043 0.200043
0.600006 0.200043 0.200043
0.666656 0.200043 0.200043
0.733337 0.200043 0.200043
0.799988 0.200043 0.200043
0.866669 0.200043 0.200043
0.933319 0.200043 0.200043
1.000000 0.200043 0.200043
0.124695 0.233398 0.175079
0.182495 0.239532 0.173676
0.237427 0.278107 0.164856
0.296112 0.278107 0.164856
0.311737 0.295624 0.175079
0.374298 0.295624 0.175079
0.436859 0.295624 0.175079
0.499451 0.295624 0.175079
0.561951 0.295624 0.175079
0.624603 0.295624 0.175079
0.687103 0.295624 0.175079
0.749725 0.295624 0.175079
0.812256 0.295624 0.175079
0.874847 0.295624 0.175079
0.937408 0.295624 0.175079
1.000000 0.295624 0.175079
0.227966 0.315216 0.141022
0.278046 0.331604 0.137665
0.329590 0.331604 0.137665
0.381195 0.331604 0.137665
0.394867 0.351685 0.145630
0.416260 0.371124 0.153290
0.474579 0.371124 0.153290
0.532990 0.371124 0.153290
0.591370 0.371124 0.153290
0.649750 0.371124 0.153290
0.708099 0.371124 0.153290
0.766510 0.371124 0.153290
0.824860 0.371124 0.153290
0.883270 0.371124 0.153290
0.941589 0.371124 0.153290
1.000000 0.371124 0.153290
0.319855 0.367035 0.116364
0.365234 0.367035 0.116364
0.410522 0.367035 0.116364
0.455933 0.367035 0.116364
0.467804 0.389374 0.122711
0.486664 0.421631 0.127594
0.512360 0.453918 0.131744
0.566559 0.453918 0.131744
0.620697 0.453918 0.131744
0.674927 0.453918 0.131744
0.729065 0.453918 0.131744
0.783264 0.453918 0.131744
0.837433 0.453918 0.131744
0.891663 0.453918 0.131744
0.945801 0.453918 0.131744
1.000000 0.453918 0.131744
