Color Lookup Presets Effects/z1 (81).CUBE
#Created by: Adobe Photoshop Export Color Lookup Plugin
#Copyright: (C) Copyright 2015 www.zafizack.com
TITLE "zafizack-wd-01.JPG"
#LUT size
LUT_3D_SIZE 6
#data domain
DOMAIN_MIN 0.0 0.0 0.0
DOMAIN_MAX 1.0 1.0 1.0
#LUT data points
0.125153 0.081940 0.114899
0.390747 0.124542 0.129913
0.678467 0.221436 0.207428
0.851807 0.287811 0.249542
0.949829 0.317871 0.276672
1.000000 0.341766 0.304596
0.046356 0.235687 0.159088
0.261749 0.287506 0.159637
0.620270 0.362335 0.218048
0.837250 0.410828 0.250732
0.941437 0.434204 0.272400
1.000000 0.452820 0.291321
0.000000 0.426239 0.235443
0.069733 0.443634 0.252533
0.417603 0.514191 0.258484
0.756653 0.594635 0.283966
0.924408 0.622162 0.282043
1.000000 0.643585 0.285248
0.000000 0.546326 0.313904
0.000000 0.567596 0.327057
0.212860 0.618530 0.319611
0.574463 0.707916 0.308380
0.890656 0.782776 0.299591
1.000000 0.800201 0.300629
0.000000 0.666534 0.365784
0.000000 0.691376 0.374847
0.113495 0.729462 0.376312
0.379425 0.805176 0.339020
0.758789 0.873657 0.331146
1.000000 0.930603 0.314728
0.000000 0.781281 0.407837
0.000000 0.806580 0.415375
0.000000 0.842560 0.423035
0.265350 0.901886 0.394531
0.626587 0.955261 0.348206
0.954681 0.995361 0.301788
0.117615 0.065369 0.230011
0.417023 0.128052 0.287842
0.681793 0.218384 0.340393
0.852173 0.279968 0.375366
0.949982 0.309784 0.403687
1.000000 0.334656 0.436218
0.039886 0.242798 0.272308
0.273773 0.294678 0.304047
0.634186 0.346191 0.328430
0.840607 0.384064 0.352417
0.943268 0.404449 0.372467
1.000000 0.425415 0.397095
0.000000 0.431885 0.324280
0.066437 0.448914 0.339233
0.419495 0.524658 0.349274
0.761932 0.591827 0.384918
0.925201 0.615112 0.394348
1.000000 0.634644 0.413757
0.000000 0.550568 0.384216
0.000000 0.572083 0.395630
0.219391 0.625580 0.397583
0.583618 0.717194 0.385376
0.892822 0.779816 0.394531
1.000000 0.796082 0.416656
0.000000 0.670593 0.430786
0.000000 0.695465 0.439789
0.110596 0.733429 0.445099
0.376160 0.811554 0.419830
0.765198 0.880310 0.411926
1.000000 0.928467 0.407776
0.000000 0.781281 0.472473
0.000000 0.806580 0.481079
0.000000 0.842560 0.490723
0.271973 0.903473 0.475281
0.633789 0.957520 0.423920
0.968414 0.996918 0.384949
0.126007 0.061554 0.410004
0.445709 0.131256 0.464294
0.730072 0.234863 0.526215
0.852142 0.277985 0.550537
0.949951 0.307983 0.579407
1.000000 0.332764 0.614136
0.044281 0.227692 0.421844
0.264526 0.257080 0.464874
0.659851 0.349396 0.510498
0.840118 0.384674 0.532745
0.942841 0.405334 0.557465
1.000000 0.426575 0.585388
0.000000 0.439117 0.465424
0.061737 0.454712 0.488373
0.446381 0.539246 0.545685
0.774628 0.588013 0.566040
0.927246 0.596649 0.567841
1.000000 0.610962 0.582367
0.000000 0.556122 0.505981
0.000000 0.578064 0.525269
0.238892 0.638641 0.546997
0.603790 0.729462 0.568512
0.898254 0.779816 0.610291
1.000000 0.794006 0.627625
0.000000 0.676178 0.543884
0.000000 0.701172 0.558350
0.118225 0.741425 0.565338
0.399017 0.822906 0.590759
0.784332 0.890991 0.599091
1.000000 0.924622 0.611969
0.000000 0.781281 0.577118
0.000000 0.806580 0.581055
0.000000 0.842560 0.594543
0.300873 0.910370 0.608582
0.664612 0.963074 0.580780
0.999359 0.999939 0.567932
0.135590 0.062988 0.520966
0.463104 0.138641 0.576385
0.734863 0.233948 0.646881
0.852081 0.275482 0.684113
0.949921 0.305878 0.716248
1.000000 0.330750 0.739471
0.046906 0.223450 0.540070
0.273926 0.247223 0.580200
0.675201 0.346283 0.647369
0.839417 0.384552 0.676758
0.942322 0.407043 0.698120
1.000000 0.428894 0.718597
0.000000 0.427490 0.574249
0.077179 0.445618 0.605377
0.438690 0.509430 0.677063
0.794586 0.580353 0.708405
0.926788 0.598724 0.713928
1.000000 0.614166 0.726685
0.000000 0.560883 0.649292
0.000000 0.582947 0.668640
0.269836 0.648712 0.717102
0.638977 0.737000 0.754242
0.901001 0.780304 0.767609
1.000000 0.790588 0.772308
0.000000 0.681488 0.695374
0.000000 0.706512 0.714478
0.185089 0.764984 0.750336
0.424805 0.834198 0.772430
0.806427 0.898621 0.788147
1.000000 0.928162 0.804871
0.000000 0.781281 0.726654
0.000000 0.806580 0.746033
0.102936 0.857666 0.773315
0.332031 0.917755 0.782227
0.708344 0.968567 0.772217
1.000000 1.000000 0.764282
0.140869 0.063904 0.608337
0.475555 0.146881 0.667877
0.735901 0.233276 0.736450
0.851898 0.275238 0.765717
0.949829 0.305939 0.795105
1.000000 0.330841 0.819214
0.050995 0.220734 0.632965
0.281342 0.242096 0.672638
0.675934 0.346405 0.747223
0.838776 0.383698 0.773224
0.941833 0.408569 0.791412
1.000000 0.430939 0.809784
0.000000 0.424835 0.676849
0.082550 0.442566 0.706696
0.436432 0.493622 0.777161
0.800690 0.570587 0.823242
0.926422 0.595947 0.825958
1.000000 0.613983 0.833313
0.000000 0.558807 0.751556
0.000000 0.577606 0.765808
0.275055 0.637115 0.814392
0.630859 0.716095 0.857910
0.905304 0.772583 0.877441
1.000000 0.787231 0.878448
0.000000 0.685303 0.813568
0.000000 0.710297 0.830322
0.182861 0.764709 0.863220
0.459930 0.837433 0.902649
0.837341 0.904694 0.918518
1.000000 0.930756 0.925995
0.000000 0.781250 0.851349
0.000000 0.806519 0.867981
0.116333 0.859589 0.896027
0.395050 0.929810 0.927094
0.745483 0.972778 0.908020
1.000000 1.000000 0.902710
0.141205 0.063904 0.673706
0.468567 0.152710 0.732849
0.729523 0.236420 0.802429
0.851532 0.276093 0.837891
0.949585 0.307159 0.867065
1.000000 0.331909 0.891876
0.052094 0.220276 0.706879
0.273193 0.240906 0.741089
0.659790 0.348175 0.814178
0.836639 0.382721 0.848755
0.941376 0.409607 0.866486
1.000000 0.432556 0.884766
0.000000 0.423157 0.765289
0.085632 0.440186 0.788788
0.428711 0.486450 0.850403
0.783295 0.567719 0.894562
0.926147 0.592590 0.905914
1.000000 0.613525 0.910706
0.000000 0.546509 0.829285
0.000000 0.571320 0.853058
0.276764 0.630737 0.899445
0.622009 0.703552 0.935638
0.896271 0.766266 0.956818
1.000000 0.784821 0.958557
0.000000 0.687073 0.910461
0.000000 0.709534 0.922882
0.189362 0.758911 0.949554
0.460815 0.825134 0.984406
0.829834 0.893494 0.999481
1.000000 0.928070 1.000000
0.000000 0.781219 0.950592
0.000000 0.806458 0.966339
0.120087 0.858704 0.994232
0.395264 0.922546 1.000000
0.781555 0.973206 1.000000
1.000000 1.000000 1.000000
