Color Lookup Presets Effects/z1 (62).CUBE
#Created by: Adobe Photoshop Export Color Lookup Plugin
#Copyright: (C) Copyright 2014 www.zafizack.com
TITLE "GBP_1135.psd"
#LUT size
LUT_3D_SIZE 6
#data domain
DOMAIN_MIN 0.0 0.0 0.0
DOMAIN_MAX 1.0 1.0 1.0
#LUT data points
0.024902 0.023071 0.023071
0.135986 0.023071 0.023071
0.636169 0.023071 0.023071
1.000000 0.023071 0.023071
1.000000 0.023071 0.023071
1.000000 0.023071 0.023071
0.000061 0.062500 0.023071
0.045837 0.065063 0.023071
0.567719 0.131744 0.023071
0.990936 0.161530 0.023071
1.000000 0.192474 0.023071
1.000000 0.198395 0.044525
0.000000 0.352875 0.023071
0.000000 0.352875 0.023071
0.286713 0.359711 0.023071
0.784119 0.489868 0.023071
1.000000 0.521698 0.023071
1.000000 0.552429 0.023071
0.000000 0.642975 0.023071
0.000000 0.642975 0.023071
0.023468 0.642975 0.023071
0.512909 0.650818 0.023071
0.940643 0.773621 0.023071
1.000000 0.794678 0.023071
0.000000 0.845551 0.023071
0.000000 0.845551 0.023071
0.000000 0.845551 0.023071
0.311432 0.845551 0.023071
0.712433 0.853180 0.023071
1.000000 0.980988 0.023071
0.000000 1.000000 0.023071
0.000000 1.000000 0.023071
0.000000 1.000000 0.023071
0.144470 1.000000 0.023071
0.556732 1.000000 0.023071
0.896088 1.000000 0.023071
0.027863 0.023071 0.065765
0.236511 0.023071 0.133514
0.644196 0.023071 0.138763
1.000000 0.023071 0.182800
1.000000 0.023071 0.233582
1.000000 0.023071 0.288849
0.000000 0.094391 0.025818
0.092865 0.094391 0.049316
0.595001 0.094391 0.077179
1.000000 0.094391 0.110291
1.000000 0.094391 0.149506
1.000000 0.094391 0.195557
0.000000 0.393921 0.023071
0.000000 0.393921 0.023071
0.313477 0.393921 0.029114
0.795319 0.478577 0.081848
1.000000 0.510834 0.156067
1.000000 0.541840 0.255890
0.000000 0.674011 0.023071
0.000000 0.674011 0.023071
0.030884 0.674011 0.023071
0.528320 0.674011 0.023071
0.947174 0.767365 0.060486
1.000000 0.787659 0.126038
0.000000 0.868347 0.023071
0.000000 0.868347 0.023071
0.000000 0.868347 0.023071
0.314148 0.868347 0.023071
0.717896 0.868347 0.023071
1.000000 0.977631 0.041626
0.000000 1.000000 0.023071
0.000000 1.000000 0.023071
0.000000 1.000000 0.023071
0.141113 1.000000 0.023071
0.567688 1.000000 0.023071
0.906525 1.000000 0.023071
0.052368 0.023071 0.419495
0.338440 0.023071 0.534241
0.861298 0.023071 0.634583
1.000000 0.023071 0.631317
1.000000 0.023071 0.646454
1.000000 0.023071 0.688995
0.018433 0.059753 0.263000
0.121429 0.085144 0.377106
0.685791 0.128662 0.493011
1.000000 0.128662 0.507385
1.000000 0.128662 0.561981
1.000000 0.128662 0.612122
0.000000 0.434692 0.236115
0.000000 0.434692 0.291473
0.399475 0.434692 0.348633
0.836578 0.451080 0.427063
1.000000 0.434692 0.464691
1.000000 0.434692 0.521851
0.000000 0.703339 0.151672
0.000000 0.703339 0.197937
0.098145 0.703339 0.186798
0.589722 0.703339 0.293274
0.975861 0.760132 0.408508
1.000000 0.780609 0.523773
0.000000 0.890900 0.086792
0.000000 0.890900 0.097748
0.000000 0.890900 0.080017
0.373993 0.890900 0.153503
0.767242 0.890900 0.252563
1.000000 0.970184 0.366119
0.000000 1.000000 0.033966
0.000000 1.000000 0.023071
0.000000 1.000000 0.023071
0.218750 1.000000 0.058868
0.631317 1.000000 0.123779
0.979645 1.000000 0.213837
0.076569 0.023071 0.768372
0.434113 0.023071 0.830719
0.945129 0.023071 0.884705
1.000000 0.023071 0.933746
1.000000 0.023071 0.967194
1.000000 0.023071 0.918945
0.051544 0.051361 0.664368
0.152466 0.076141 0.743011
0.754242 0.165314 0.809082
1.000000 0.165314 0.865784
1.000000 0.165314 0.867096
1.000000 0.165314 0.875732
0.000000 0.357208 0.531036
0.000000 0.390381 0.631927
0.432129 0.423248 0.715912
0.904144 0.475006 0.786224
1.000000 0.475006 0.797943
1.000000 0.475006 0.828033
0.000000 0.731232 0.564697
0.000000 0.731232 0.614441
0.234253 0.731232 0.659973
0.679138 0.731232 0.701416
1.000000 0.752808 0.761963
1.000000 0.732086 0.774902
0.000000 0.913513 0.467651
0.000000 0.913513 0.524750
0.113770 0.913513 0.578033
0.449921 0.913513 0.560089
0.827820 0.913513 0.656189
1.000000 0.963043 0.736176
0.000000 1.000000 0.346954
0.000000 1.000000 0.405151
0.000000 1.000000 0.424377
0.317200 1.000000 0.405151
0.713257 1.000000 0.520569
1.000000 1.000000 0.623138
0.090393 0.023071 0.967682
0.521423 0.023071 1.000000
1.000000 0.023071 1.000000
1.000000 0.023071 1.000000
1.000000 0.023071 1.000000
1.000000 0.023071 0.949921
0.073242 0.043030 0.901459
0.172302 0.067413 0.949860
0.811066 0.204224 1.000000
1.000000 0.204224 1.000000
1.000000 0.204224 1.000000
1.000000 0.204224 0.974182
0.000000 0.345520 0.829010
0.000000 0.378845 0.883209
0.454346 0.411835 0.932343
0.944427 0.514832 0.981293
1.000000 0.514832 1.000000
1.000000 0.514832 1.000000
0.000000 0.706573 0.802704
0.000000 0.677185 0.807281
0.267578 0.700836 0.864166
0.698700 0.723633 0.914764
1.000000 0.757843 0.963043
1.000000 0.757843 0.975128
0.000000 0.936646 0.799530
0.000000 0.936646 0.829498
0.118561 0.936646 0.857391
0.562378 0.936646 0.883606
0.899353 0.936646 0.908569
1.000000 0.956024 0.945313
0.000000 1.000000 0.723877
0.000000 1.000000 0.759918
0.074188 1.000000 0.792908
0.518311 1.000000 0.823517
0.787109 1.000000 0.823486
1.000000 1.000000 0.878357
0.092621 0.023071 1.000000
0.531219 0.023071 1.000000
1.000000 0.023071 1.000000
1.000000 0.023071 1.000000
1.000000 0.023071 1.000000
1.000000 0.023071 0.953033
0.082123 0.039734 1.000000
0.171356 0.074463 1.000000
0.801666 0.244812 1.000000
1.000000 0.244812 1.000000
1.000000 0.244812 1.000000
1.000000 0.244812 0.977478
0.000000 0.333923 1.000000
0.000000 0.368713 1.000000
0.456512 0.415802 1.000000
0.939941 0.552856 1.000000
1.000000 0.552856 1.000000
1.000000 0.552856 1.000000
0.000000 0.643372 0.948456
0.000000 0.668610 0.999390
0.282104 0.692688 1.000000
0.705139 0.722809 1.000000
1.000000 0.783295 1.000000
1.000000 0.783295 1.000000
0.000000 0.960754 0.995911
0.000000 0.933960 0.997040
0.146606 0.907501 0.997040
0.586304 0.911469 1.000000
0.907990 0.932983 1.000000
1.000000 0.960754 1.000000
0.000000 1.000000 0.937408
0.000000 1.000000 0.961548
0.087646 1.000000 0.986877
0.530548 1.000000 1.000000
0.865784 1.000000 1.000000
1.000000 1.000000 1.000000
