Color Lookup Presets Effects/z1 (83).CUBE
#Created by: Adobe Photoshop Export Color Lookup Plugin
#Copyright: (C) Copyright 2015 www.zafizack.com
TITLE "zafizack-VG-08"
#LUT size
LUT_3D_SIZE 6
#data domain
DOMAIN_MIN 0.0 0.0 0.0
DOMAIN_MAX 1.0 1.0 1.0
#LUT data points
0.087585 0.050232 0.068115
0.316376 0.021667 0.061127
0.630951 0.042999 0.148560
0.825409 0.125793 0.249390
0.940582 0.176331 0.352509
1.000000 0.217590 0.453461
0.054077 0.223877 0.164734
0.171539 0.273193 0.208252
0.575989 0.335419 0.288177
0.809143 0.380005 0.374420
0.931091 0.417419 0.465851
1.000000 0.450195 0.549011
0.000000 0.460236 0.328552
0.130798 0.492554 0.389587
0.348419 0.555908 0.461517
0.735443 0.626373 0.558777
0.913910 0.647583 0.622498
1.000000 0.665100 0.679077
0.000000 0.645538 0.524811
0.142609 0.675812 0.581573
0.329590 0.718658 0.645874
0.593353 0.766968 0.703522
0.886780 0.811584 0.768005
1.000000 0.828644 0.817719
0.072571 0.807587 0.710724
0.209595 0.828094 0.759888
0.356628 0.854523 0.805573
0.570282 0.887054 0.851318
0.817993 0.921387 0.885773
1.000000 0.940979 0.928772
0.257629 0.931488 0.862183
0.324005 0.938599 0.898346
0.443359 0.951538 0.934570
0.621643 0.966919 0.962677
0.845520 0.987061 0.982330
1.000000 1.000000 1.000000
0.087524 0.050079 0.136993
0.308014 0.015656 0.191833
0.615723 0.015015 0.289551
0.818359 0.108490 0.388763
0.937378 0.162872 0.476349
1.000000 0.205597 0.555115
0.072357 0.162018 0.177643
0.196075 0.199982 0.200714
0.572693 0.242584 0.264832
0.805969 0.300537 0.349335
0.929840 0.343353 0.433533
1.000000 0.380737 0.512817
0.000000 0.415771 0.324799
0.115997 0.442078 0.347595
0.356110 0.506653 0.408905
0.735138 0.574829 0.497711
0.913116 0.597534 0.556641
1.000000 0.616608 0.610626
0.000000 0.607422 0.494904
0.082214 0.637299 0.505066
0.286896 0.682220 0.561066
0.582428 0.737671 0.617645
0.884338 0.785583 0.690765
1.000000 0.802704 0.738953
0.000000 0.771851 0.654999
0.101349 0.799377 0.658997
0.284851 0.829010 0.704224
0.519043 0.865570 0.750977
0.805756 0.906311 0.791656
1.000000 0.931549 0.840973
0.000000 0.903229 0.792969
0.213959 0.926331 0.794281
0.356262 0.942322 0.829651
0.550049 0.960907 0.856750
0.803406 0.983276 0.876251
1.000000 1.000000 0.898956
0.087158 0.049591 0.318787
0.335480 0.007996 0.390686
0.637543 0.000000 0.466919
0.811401 0.088593 0.540314
0.934174 0.148224 0.597504
1.000000 0.193237 0.656219
0.073486 0.153809 0.337036
0.187134 0.173584 0.386536
0.574310 0.228455 0.439117
0.798737 0.288422 0.506439
0.926575 0.333038 0.567719
1.000000 0.372162 0.623474
0.000000 0.376099 0.375763
0.015533 0.397705 0.408691
0.393616 0.462372 0.455627
0.740295 0.515808 0.515472
0.912445 0.542480 0.564728
1.000000 0.566589 0.612213
0.000000 0.575104 0.521423
0.000000 0.601532 0.546143
0.279388 0.652924 0.570709
0.584747 0.710663 0.614258
0.884918 0.758087 0.676666
1.000000 0.774323 0.715118
0.000000 0.746338 0.654938
0.000000 0.772766 0.672729
0.247955 0.809509 0.678619
0.495880 0.849426 0.720123
0.800385 0.893250 0.756042
1.000000 0.921906 0.804626
0.000000 0.878754 0.769104
0.000000 0.907471 0.782288
0.275513 0.933350 0.777496
0.499451 0.956848 0.807220
0.777618 0.980865 0.822021
1.000000 1.000000 0.838074
0.087097 0.049561 0.492157
0.360321 0.001709 0.556030
0.656342 0.000000 0.626221
0.804352 0.065063 0.670105
0.930939 0.132080 0.721893
1.000000 0.179901 0.756592
0.073730 0.151978 0.517700
0.195038 0.166412 0.558685
0.589355 0.227783 0.617950
0.791565 0.275330 0.652802
0.923340 0.322632 0.693970
1.000000 0.363556 0.731110
0.000000 0.360657 0.538116
0.025818 0.384064 0.576569
0.387604 0.435120 0.635803
0.746094 0.500122 0.664551
0.909332 0.533600 0.693512
1.000000 0.559937 0.724762
0.000000 0.551025 0.602356
0.000000 0.570740 0.627380
0.197998 0.615936 0.663147
0.605652 0.685333 0.693573
0.886963 0.729218 0.726166
1.000000 0.742126 0.747467
0.000000 0.723267 0.706940
0.000000 0.748566 0.725708
0.171387 0.790527 0.750427
0.487305 0.836731 0.764801
0.801666 0.881256 0.788513
1.000000 0.911163 0.825043
0.000000 0.862518 0.795624
0.000000 0.886047 0.809570
0.187836 0.923218 0.823456
0.466125 0.953949 0.823700
0.762329 0.979492 0.829651
1.000000 1.000000 0.838074
0.087097 0.049530 0.631195
0.383881 0.000092 0.690582
0.666809 0.000000 0.749817
0.804413 0.060394 0.784698
0.927765 0.114960 0.817535
1.000000 0.166840 0.845306
0.074066 0.150116 0.660309
0.202148 0.163513 0.694031
0.593719 0.235107 0.752319
0.791290 0.276306 0.783813
0.920044 0.312439 0.804840
1.000000 0.355621 0.829712
0.000000 0.358215 0.689697
0.028625 0.379791 0.718597
0.387787 0.421356 0.771210
0.750153 0.493134 0.810364
0.906494 0.522491 0.819824
1.000000 0.552795 0.835724
0.000000 0.546204 0.741699
0.000000 0.558990 0.757843
0.208527 0.604675 0.795898
0.597992 0.666748 0.832886
0.885559 0.715942 0.849792
1.000000 0.735443 0.859161
0.000000 0.704193 0.796509
0.000000 0.728607 0.814606
0.000000 0.763458 0.836700
0.430359 0.818329 0.867767
0.814453 0.870941 0.879913
1.000000 0.899170 0.897034
0.000000 0.847412 0.863373
0.000000 0.870850 0.878052
0.000000 0.907654 0.896606
0.427338 0.949829 0.912720
0.759521 0.979187 0.898163
1.000000 1.000000 0.898956
0.087097 0.049530 0.737091
0.386017 0.000000 0.790131
0.665314 0.000000 0.847687
0.802704 0.058350 0.882874
0.927795 0.111389 0.917725
1.000000 0.150726 0.941833
0.074188 0.149445 0.774689
0.199280 0.163605 0.799896
0.585266 0.242126 0.850677
0.785614 0.281738 0.882935
0.919891 0.315308 0.908539
1.000000 0.347992 0.927246
0.000000 0.355804 0.813721
0.030640 0.376923 0.833618
0.382507 0.416107 0.877472
0.736450 0.494019 0.911652
0.905121 0.519653 0.927490
1.000000 0.545349 0.935089
0.000000 0.536438 0.859680
0.000000 0.556366 0.883606
0.211914 0.599518 0.912781
0.590027 0.655579 0.942749
0.877197 0.709137 0.960358
1.000000 0.727722 0.961639
0.000000 0.707886 0.925171
0.000000 0.726807 0.937042
0.000000 0.756042 0.953857
0.435730 0.805420 0.981354
0.807281 0.860474 0.994324
1.000000 0.893646 1.000000
0.000000 0.834747 0.963257
0.000000 0.857971 0.978790
0.000000 0.888794 0.996033
0.340210 0.935242 1.000000
0.739288 0.973755 1.000000
1.000000 1.000000 1.000000
