Color Lookup Presets Effects/z1 (93).CUBE
#Created by: Adobe Photoshop Export Color Lookup Plugin
#Copyright: (C) Copyright 2015 www.zafizack.com
TITLE "zafizack-VG-19"
#LUT size
LUT_3D_SIZE 16
#data domain
DOMAIN_MIN 0.0 0.0 0.0
DOMAIN_MAX 1.0 1.0 1.0
#LUT data points
0.000000 0.000000 0.000000
0.066711 0.000000 0.000000
0.133331 0.000000 0.000000
0.200043 0.000000 0.000000
0.266663 0.000000 0.000000
0.333374 0.000000 0.000000
0.399994 0.000000 0.000000
0.466675 0.000000 0.000000
0.533325 0.000000 0.000000
0.600006 0.000000 0.000000
0.666656 0.000000 0.000000
0.733337 0.000000 0.000000
0.799988 0.000000 0.000000
0.866669 0.000000 0.000000
0.933319 0.000000 0.000000
1.000000 0.000000 0.000000
0.163208 0.100464 0.113281
0.169647 0.106049 0.120575
0.228912 0.106049 0.120575
0.288300 0.106049 0.120575
0.347534 0.106049 0.120575
0.406891 0.106049 0.120575
0.466187 0.106049 0.120575
0.525513 0.106049 0.120575
0.584778 0.106049 0.120575
0.644135 0.106049 0.120575
0.703400 0.106049 0.120575
0.762756 0.106049 0.120575
0.822052 0.106049 0.120575
0.881348 0.106049 0.120575
0.940704 0.106049 0.120575
1.000000 0.106049 0.120575
0.291168 0.156342 0.193970
0.298279 0.163574 0.206024
0.312378 0.170319 0.217743
0.365295 0.170319 0.217743
0.418152 0.170319 0.217743
0.471100 0.170319 0.217743
0.523926 0.170319 0.217743
0.576874 0.170319 0.217743
0.629761 0.170319 0.217743
0.682648 0.170319 0.217743
0.735504 0.170319 0.217743
0.788452 0.170319 0.217743
0.841309 0.170319 0.217743
0.894226 0.170319 0.217743
0.947083 0.170319 0.217743
1.000000 0.170319 0.217743
0.393494 0.187866 0.250732
0.400513 0.195251 0.266022
0.413940 0.201874 0.280609
0.433289 0.207733 0.294403
0.480499 0.207733 0.294403
0.527740 0.207733 0.294403
0.574921 0.207733 0.294403
0.622162 0.207733 0.294403
0.669403 0.207733 0.294403
0.716675 0.207733 0.294403
0.763885 0.207733 0.294403
0.811127 0.207733 0.294403
0.858307 0.207733 0.294403
0.905548 0.207733 0.294403
0.952759 0.207733 0.294403
1.000000 0.207733 0.294403
0.476563 0.205841 0.289886
0.482849 0.212921 0.307465
0.495209 0.218964 0.323822
0.513153 0.224060 0.338959
0.536072 0.228363 0.352875
0.578247 0.228363 0.352875
0.620422 0.228363 0.352875
0.662598 0.228363 0.352875
0.704773 0.228363 0.352875
0.746979 0.228363 0.352875
0.789124 0.228363 0.352875
0.831329 0.228363 0.352875
0.873505 0.228363 0.352875
0.915649 0.228363 0.352875
0.957825 0.228363 0.352875
1.000000 0.228363 0.352875
0.545227 0.216095 0.315826
0.550323 0.222870 0.335266
0.561432 0.228363 0.352875
0.577820 0.232758 0.368683
0.598785 0.236237 0.382721
0.623962 0.238983 0.395081
0.661560 0.238983 0.395081
0.699188 0.238983 0.395081
0.736755 0.238983 0.395081
0.774384 0.238983 0.395081
0.811981 0.238983 0.395081
0.849609 0.238983 0.395081
0.887177 0.238983 0.395081
0.924774 0.238983 0.395081
0.962372 0.238983 0.395081
1.000000 0.238983 0.395081
0.602814 0.221619 0.331543
0.606384 0.228363 0.352875
0.615845 0.233521 0.371582
0.630554 0.237427 0.387848
0.649933 0.240570 0.402832
0.676575 0.259491 0.437439
0.706268 0.291901 0.472137
0.738922 0.291901 0.472137
0.771576 0.291901 0.472137
0.804199 0.291901 0.472137
0.836823 0.291901 0.472137
0.869446 0.291901 0.472137
0.902130 0.291901 0.472137
0.934753 0.291901 0.472137
0.967377 0.291901 0.472137
1.000000 0.291901 0.472137
0.665527 0.229462 0.356659
0.665131 0.234528 0.375641
0.670746 0.238312 0.391937
0.682770 0.242615 0.414063
0.701599 0.271179 0.450195
0.724274 0.305756 0.486420
0.749847 0.342072 0.522491
0.777588 0.380066 0.558380
0.805389 0.380066 0.558380
0.833191 0.380066 0.558380
0.860992 0.380066 0.558380
0.888794 0.380066 0.558380
0.916595 0.380066 0.558380
0.944397 0.380066 0.558380
0.972198 0.380066 0.558380
1.000000 0.380066 0.558380
0.739075 0.239532 0.397644
0.735168 0.247131 0.423737
0.737915 0.276093 0.455444
0.745758 0.306427 0.487091
0.758026 0.338104 0.518646
0.773956 0.371155 0.550140
0.792725 0.404358 0.580475
0.813965 0.439209 0.611084
0.836914 0.476410 0.642517
0.860199 0.476410 0.642517
0.883514 0.476410 0.642517
0.906799 0.476410 0.642517
0.930084 0.476410 0.642517
0.953369 0.476410 0.642517
0.976685 0.476410 0.642517
1.000000 0.476410 0.642517
0.809601 0.307129 0.487823
0.802673 0.334290 0.514923
0.800964 0.362335 0.541870
0.803864 0.391296 0.568695
0.810730 0.421021 0.595245
0.820953 0.450470 0.620728
0.833893 0.479462 0.645050
0.849304 0.510620 0.670410
0.866608 0.543610 0.696472
0.885193 0.577881 0.722778
0.904327 0.577881 0.722778
0.923492 0.577881 0.722778
0.942596 0.577881 0.722778
0.961731 0.577881 0.722778
0.980865 0.577881 0.722778
1.000000 0.577881 0.722778
0.869965 0.416718 0.591461
0.860901 0.441956 0.613434
0.856293 0.467621 0.635193
0.855652 0.493683 0.656708
0.858398 0.519623 0.677612
0.864014 0.542938 0.695953
0.872284 0.567993 0.715271
0.882782 0.594513 0.735260
0.895111 0.622253 0.755737
0.908813 0.650940 0.776459
0.923523 0.680023 0.797028
0.938782 0.680023 0.797028
0.954071 0.680023 0.797028
0.969391 0.680023 0.797028
0.984711 0.680023 0.797028
1.000000 0.680023 0.797028
0.918671 0.547424 0.699463
0.909088 0.568817 0.715912
0.903046 0.590240 0.732086
0.900116 0.611694 0.748016
0.899963 0.629730 0.761200
0.902344 0.648529 0.774750
0.906952 0.668549 0.788940
0.913513 0.689392 0.803558
0.921661 0.711090 0.818512
0.931152 0.733215 0.833557
0.941650 0.755615 0.848541
0.952850 0.777924 0.863281
0.964630 0.777924 0.863281
0.976410 0.777924 0.863281
0.988220 0.777924 0.863281
1.000000 0.777924 0.863281
0.955414 0.692139 0.805450
0.946625 0.707794 0.816254
0.940460 0.723297 0.826843
0.936646 0.736298 0.835632
0.934937 0.748779 0.843994
0.935211 0.762177 0.852905
0.937225 0.776154 0.862122
0.940826 0.790649 0.871582
0.945709 0.805481 0.881195
0.951691 0.820496 0.890839
0.958588 0.835632 0.900452
0.966217 0.850616 0.909912
0.974304 0.865387 0.919128
0.982880 0.865387 0.919128
0.991455 0.865387 0.919128
1.000000 0.865387 0.919128
0.980621 0.835724 0.900513
0.973785 0.844574 0.906097
0.968689 0.852234 0.910919
0.965149 0.858765 0.915009
0.963074 0.865784 0.919373
0.962341 0.873138 0.923950
0.962799 0.880829 0.928711
0.964294 0.888702 0.933563
0.966766 0.896729 0.938477
0.970062 0.904785 0.943390
0.974030 0.912781 0.948273
0.978577 0.920715 0.953064
0.983551 0.928497 0.957764
0.988861 0.936035 0.962280
0.994446 0.936035 0.962280
1.000000 0.936035 0.962280
0.995209 0.951202 0.971344
0.991302 0.953766 0.972870
0.988281 0.955688 0.973999
0.986053 0.957703 0.975189
0.984528 0.959991 0.973297
0.983643 0.962280 0.971832
0.983490 0.964600 0.971527
0.983795 0.967010 0.972107
0.984680 0.969421 0.973602
0.985992 0.971771 0.975800
0.987732 0.974152 0.978729
0.989807 0.976471 0.982269
0.992096 0.978729 0.986237
0.994629 0.980896 0.988861
0.997223 0.982971 0.990082
1.000000 0.982971 0.990082
1.000000 1.000000 1.000000
1.000000 1.000000 1.000000
1.000000 1.000000 1.000000
1.000000 1.000000 1.000000
1.000000 1.000000 1.000000
1.000000 1.000000 1.000000
1.000000 1.000000 1.000000
1.000000 1.000000 1.000000
1.000000 1.000000 1.000000
1.000000 1.000000 1.000000
1.000000 1.000000 1.000000
1.000000 1.000000 1.000000
1.000000 1.000000 1.000000
1.000000 1.000000 1.000000
1.000000 1.000000 1.000000
1.000000 1.000000 1.000000
0.000000 0.000000 0.066711
0.066711 0.000000 0.066711
0.133331 0.000000 0.066711
0.200043 0.000000 0.066711
0.266663 0.000000 0.066711
0.333374 0.000000 0.066711
0.399994 0.000000 0.066711
0.466705 0.000000 0.066711
0.533325 0.000000 0.066711
0.600006 0.000000 0.066711
0.666656 0.000000 0.066711
0.733337 0.000000 0.066711
0.799988 0.000000 0.066711
0.866669 0.000000 0.066711
0.933319 0.000000 0.066711
1.000000 0.000000 0.066711
0.000000 0.066711 0.066711
0.066711 0.066711 0.066711
0.133331 0.066711 0.066711
0.200043 0.066711 0.066711
0.266663 0.066711 0.066711
0.333374 0.066711 0.066711
0.399994 0.066711 0.066711
0.466705 0.066711 0.066711
0.533325 0.066711 0.066711
0.600006 0.066711 0.066711
0.666656 0.066711 0.066711
0.733337 0.066711 0.066711
0.799988 0.066711 0.066711
0.866669 0.066711 0.066711
0.933319 0.066711 0.066711
1.000000 0.066711 0.066711
0.144836 0.157257 0.116547
0.218933 0.149170 0.161987
0.228882 0.157349 0.171844
0.288208 0.157349 0.171844
0.347504 0.157349 0.171844
0.406830 0.157349 0.171844
0.466125 0.157349 0.171844
0.525482 0.157349 0.171844
0.584717 0.157349 0.171844
0.644135 0.157349 0.171844
0.703369 0.157349 0.171844
0.762726 0.157349 0.171844
0.822021 0.157349 0.171844
0.881348 0.157349 0.171844
0.940674 0.157349 0.171844
1.000000 0.157349 0.171844
0.286682 0.196564 0.218140
0.338409 0.193329 0.230957
0.348450 0.202148 0.244598
0.365295 0.210327 0.257721
0.418152 0.210327 0.257721
0.471100 0.210327 0.257721
0.523926 0.210327 0.257721
0.576874 0.210327 0.257721
0.629761 0.210327 0.257721
0.682648 0.210327 0.257721
0.735504 0.210327 0.257721
0.788452 0.210327 0.257721
0.841309 0.210327 0.257721
0.894226 0.210327 0.257721
0.947083 0.210327 0.257721
1.000000 0.210327 0.257721
0.393433 0.216919 0.279785
0.433899 0.216919 0.279785
0.443268 0.225311 0.296082
0.458954 0.232727 0.311462
0.480499 0.239349 0.326019
0.527710 0.239349 0.326019
0.574890 0.239349 0.326019
0.622162 0.239349 0.326019
0.669342 0.239349 0.326019
0.716644 0.239349 0.326019
0.763824 0.239349 0.326019
0.811096 0.239349 0.326019
0.858307 0.239349 0.326019
0.905548 0.239349 0.326019
0.952759 0.239349 0.326019
1.000000 0.239349 0.326019
0.476563 0.229401 0.313416
0.511475 0.229401 0.313416
0.519775 0.237122 0.331635
0.534088 0.243652 0.348511
0.553711 0.249176 0.364075
0.578278 0.253815 0.378357
0.620453 0.253815 0.378357
0.662598 0.253815 0.378357
0.704773 0.253815 0.378357
0.746979 0.253815 0.378357
0.789124 0.253815 0.378357
0.831329 0.253815 0.378357
0.873505 0.253815 0.378357
0.915680 0.253815 0.378357
0.957825 0.253815 0.378357
1.000000 0.253815 0.378357
0.545135 0.235626 0.335358
0.575470 0.235626 0.335358
0.582428 0.242889 0.355286
0.595062 0.248718 0.373230
0.613037 0.253571 0.390228
0.638702 0.272217 0.423248
0.668182 0.303558 0.456390
0.705109 0.303558 0.456390
0.741913 0.303558 0.456390
0.778839 0.303558 0.456390
0.815674 0.303558 0.456390
0.852539 0.303558 0.456390
0.889404 0.303558 0.456390
0.926270 0.303558 0.456390
0.963104 0.303558 0.456390
1.000000 0.303558 0.456390
0.615845 0.242340 0.363098
0.641449 0.242340 0.363098
0.644562 0.247833 0.380798
0.654449 0.253571 0.403564
0.671570 0.281586 0.438263
0.693054 0.315338 0.473145
0.718170 0.350616 0.507874
0.746185 0.387482 0.542603
0.777893 0.387482 0.542603
0.809631 0.387482 0.542603
0.841370 0.387482 0.542603
0.873077 0.387482 0.542603
0.904816 0.387482 0.542603
0.936554 0.387482 0.542603
0.968262 0.387482 0.542603
1.000000 0.387482 0.542603
0.697815 0.254944 0.416382
0.717957 0.254944 0.416382
0.718140 0.283783 0.446869
0.723785 0.313843 0.477295
0.734253 0.345123 0.507721
0.748810 0.377563 0.538025
0.766785 0.410156 0.567352
0.787842 0.444183 0.596985
0.811310 0.480499 0.627625
0.838287 0.480499 0.627625
0.865204 0.480499 0.627625
0.892181 0.480499 0.627625
0.919128 0.480499 0.627625
0.946106 0.480499 0.627625
0.973053 0.480499 0.627625
1.000000 0.480499 0.627625
0.775513 0.338989 0.508423
0.790466 0.338989 0.508423
0.786499 0.367065 0.534363
0.787292 0.395813 0.560150
0.792328 0.425232 0.585693
0.801117 0.454407 0.610352
0.813080 0.482941 0.633820
0.827972 0.513580 0.658417
0.845398 0.545898 0.683777
0.864716 0.579559 0.709564
0.887299 0.579559 0.709564
0.909821 0.579559 0.709564
0.932343 0.579559 0.709564
0.954895 0.579559 0.709564
0.977448 0.579559 0.709564
1.000000 0.579559 0.709564
0.842163 0.444427 0.608246
0.852631 0.444427 0.608246
0.846069 0.470093 0.629120
0.843506 0.496094 0.649872
0.844513 0.521881 0.669983
0.848633 0.544952 0.687561
0.855743 0.569702 0.706207
0.865631 0.595886 0.725616
0.877716 0.623169 0.745514
0.891815 0.651428 0.765808
0.907471 0.680054 0.786011
0.926025 0.680054 0.786011
0.944489 0.680054 0.786011
0.963013 0.680054 0.786011
0.981476 0.680054 0.786011
1.000000 0.680054 0.786011
0.896942 0.569946 0.712311
0.903839 0.569946 0.712311
0.896088 0.591339 0.727814
0.891510 0.612732 0.743103
0.889771 0.630615 0.755646
0.890747 0.649292 0.768646
0.894165 0.669037 0.782257
0.899872 0.689728 0.796417
0.907654 0.711121 0.810974
0.917206 0.733002 0.825653
0.928284 0.754974 0.840302
0.940735 0.777008 0.854858
0.955536 0.777008 0.854858
0.970367 0.777008 0.854858
0.985199 0.777008 0.854858
1.000000 0.777008 0.854858
0.939453 0.708130 0.814178
0.943542 0.708130 0.814178
0.936035 0.723602 0.824280
0.930725 0.736603 0.832611
0.927643 0.748962 0.840546
0.926605 0.762238 0.848999
0.927490 0.776093 0.857849
0.930145 0.790375 0.866943
0.934509 0.805023 0.876221
0.940338 0.819916 0.885620
0.947571 0.834808 0.894989
0.956024 0.849609 0.904327
0.965637 0.864075 0.913330
0.977081 0.864075 0.913330
0.988556 0.864075 0.913330
1.000000 0.864075 0.913330
0.970184 0.844635 0.905243
0.972198 0.844635 0.905243
0.966034 0.852264 0.909790
0.961334 0.858765 0.913605
0.958038 0.865692 0.917694
0.956085 0.872955 0.921997
0.955383 0.880737 0.923859
0.955872 0.888672 0.924530
0.957642 0.896606 0.927185
0.960632 0.904480 0.931885
0.964783 0.912292 0.938385
0.970032 0.919952 0.946808
0.976196 0.927490 0.954529
0.983246 0.934906 0.958954
0.991638 0.934906 0.958954
1.000000 0.934906 0.958954
0.989960 0.953644 0.972595
0.990631 0.953796 0.972687
0.986847 0.955627 0.973694
0.983643 0.957733 0.971497
0.981049 0.959961 0.967041
0.979095 0.962250 0.963745
0.977814 0.964539 0.961578
0.977295 0.966888 0.960632
0.977478 0.969238 0.960846
0.978394 0.971588 0.962341
0.980072 0.973846 0.965118
0.982513 0.976044 0.969147
0.985748 0.978271 0.974548
0.989746 0.980316 0.981323
0.994507 0.982330 0.988739
1.000000 0.982330 0.988739
0.999817 1.000000 0.999664
0.999817 1.000000 0.999695
0.999359 1.000000 0.998871
0.998688 1.000000 0.997681
0.997864 1.000000 0.996216
0.996948 1.000000 0.994629
0.996002 1.000000 0.993011
0.995178 1.000000 0.991547
0.994507 1.000000 0.990356
0.993988 1.000000 0.989502
0.993805 1.000000 0.989197
0.994019 1.000000 0.989563
0.994690 1.000000 0.990662
0.995850 1.000000 0.992706
0.997620 1.000000 0.995758
1.000000 1.000000 0.999969
0.000000 0.000000 0.133331
0.066711 0.000000 0.133331
0.133331 0.000000 0.133331
0.200043 0.000000 0.133331
0.266663 0.000000 0.133331
0.333374 0.000000 0.133331
0.399994 0.000000 0.133331
0.466705 0.000000 0.133331
0.533325 0.000000 0.133331
0.600006 0.000000 0.133331
0.666656 0.000000 0.133331
0.733337 0.000000 0.133331
0.799957 0.000000 0.133331
0.866669 0.000000 0.133331
0.933319 0.000000 0.133331
1.000000 0.000000 0.133331
0.000000 0.066711 0.133331
0.066711 0.066711 0.133331
0.133331 0.066711 0.133331
0.200043 0.066711 0.133331
0.266663 0.066711 0.133331
0.333374 0.066711 0.133331
0.399994 0.066711 0.133331
0.466705 0.066711 0.133331
0.533325 0.066711 0.133331
0.600006 0.066711 0.133331
0.666656 0.066681 0.133331
0.733337 0.066711 0.133331
0.799957 0.066711 0.133331
0.866669 0.066711 0.133331
0.933319 0.066711 0.133331
1.000000 0.066711 0.133331
0.000000 0.133331 0.133331
0.066711 0.133331 0.133331
0.133331 0.133331 0.133331
0.200043 0.133331 0.133331
0.266663 0.133331 0.133331
0.333374 0.133331 0.133331
0.399994 0.133331 0.133331
0.466705 0.133331 0.133331
0.533325 0.133331 0.133331
0.600006 0.133331 0.133331
0.666656 0.133331 0.133331
0.733337 0.133331 0.133331
0.799957 0.133331 0.133331
0.866669 0.133331 0.133331
0.933319 0.133331 0.133331
1.000000 0.133331 0.133331
0.127319 0.180206 0.123169
0.203308 0.207794 0.171295
0.274780 0.197906 0.210724
0.288300 0.208679 0.223206
0.347534 0.208679 0.223206
0.406891 0.208679 0.223206
0.466187 0.208679 0.223206
0.525513 0.208679 0.223206
0.584778 0.208679 0.223206
0.644135 0.208679 0.223206
0.703400 0.208679 0.223206
0.762756 0.208679 0.223206
0.822052 0.208679 0.223206
0.881348 0.208679 0.223206
0.940704 0.208679 0.223206
1.000000 0.208679 0.223206
0.271423 0.247223 0.214111
0.336060 0.232513 0.260956
0.385681 0.230316 0.267944
0.398560 0.240692 0.283142
0.418182 0.250275 0.297729
0.471100 0.250275 0.297729
0.523956 0.250275 0.297729
0.576874 0.250275 0.297729
0.629761 0.250275 0.297729
0.682648 0.250275 0.297729
0.735535 0.250275 0.297729
0.788452 0.250275 0.297729
0.841309 0.250275 0.297729
0.894226 0.250275 0.297729
0.947083 0.250275 0.297729
1.000000 0.250275 0.297729
0.391052 0.248718 0.301147
0.433960 0.245972 0.308868
0.474365 0.245972 0.308868
0.486176 0.255341 0.326141
0.504089 0.263611 0.342377
0.527740 0.270966 0.357635
0.574921 0.270966 0.357635
0.622162 0.270966 0.357635
0.669403 0.270966 0.357635
0.716675 0.270966 0.357635
0.763885 0.270966 0.357635
0.811127 0.270966 0.357635
0.858307 0.270966 0.357635
0.905548 0.270966 0.357635
0.952759 0.270966 0.357635
1.000000 0.270966 0.357635
0.476563 0.252930 0.336945
0.511475 0.252930 0.336945
0.546387 0.252930 0.336945
0.556732 0.261292 0.355835
0.573029 0.268555 0.373932
0.597443 0.284698 0.404480
0.626556 0.314453 0.435059
0.668030 0.314453 0.435059
0.709534 0.314453 0.435059
0.751007 0.314453 0.435059
0.792542 0.314453 0.435059
0.834015 0.314453 0.435059
0.875519 0.314453 0.435059
0.916992 0.314453 0.435059
0.958496 0.314453 0.435059
1.000000 0.314453 0.435059
0.557617 0.258301 0.367401
0.587128 0.258301 0.367401
0.616577 0.258301 0.367401
0.624115 0.266022 0.390076
0.639252 0.291473 0.422577
0.659424 0.323914 0.455170
0.683868 0.357666 0.487610
0.712067 0.392853 0.520050
0.748016 0.392853 0.520050
0.784058 0.392853 0.520050
0.820038 0.392853 0.520050
0.856049 0.392853 0.520050
0.892029 0.392853 0.520050
0.928009 0.392853 0.520050
0.963989 0.392853 0.520050
1.000000 0.392853 0.520050
0.650818 0.291046 0.435974
0.674133 0.291046 0.435974
0.697388 0.291046 0.435974
0.700562 0.320557 0.464569
0.709015 0.351074 0.493042
0.722076 0.382568 0.521484
0.739136 0.413971 0.548828
0.759888 0.446716 0.576569
0.783844 0.481537 0.605347
0.814758 0.481537 0.605347
0.845612 0.481537 0.605347
0.876495 0.481537 0.605347
0.907379 0.481537 0.605347
0.938263 0.481537 0.605347
0.969116 0.481537 0.605347
1.000000 0.481537 0.605347
0.736267 0.370972 0.524719
0.753876 0.370972 0.524719
0.771423 0.370972 0.524719
0.769989 0.399323 0.548920
0.773071 0.428162 0.572876
0.780243 0.456573 0.595886
0.791016 0.484283 0.617706
0.805420 0.513885 0.640717
0.822876 0.545074 0.664520
0.843018 0.577484 0.688782
0.869141 0.577484 0.688782
0.895355 0.577484 0.688782
0.921509 0.577484 0.688782
0.947662 0.577484 0.688782
0.973846 0.577484 0.688782
1.000000 0.577484 0.688782
0.810272 0.471771 0.621399
0.822906 0.471771 0.621399
0.835541 0.471771 0.621399
0.830933 0.497375 0.640778
0.830139 0.522736 0.659576
0.832672 0.545258 0.675812
0.838593 0.569275 0.693054
0.847656 0.594727 0.711151
0.859558 0.621094 0.729736
0.873993 0.648407 0.748779
0.890717 0.676086 0.767853
0.912537 0.676086 0.767853
0.934418 0.676086 0.767853
0.956299 0.676086 0.767853
0.978149 0.676086 0.767853
1.000000 0.676086 0.767853
0.871857 0.590607 0.721466
0.880463 0.591675 0.722260
0.889008 0.591675 0.722260
0.882721 0.612732 0.736481
0.879303 0.630310 0.747986
0.878754 0.648529 0.759888
0.881012 0.667725 0.772369
0.885864 0.687775 0.785522
0.893188 0.708527 0.798981
0.902771 0.729614 0.812622
0.914490 0.750916 0.826324
0.928192 0.772217 0.840027
0.946136 0.772217 0.840027
0.964081 0.772217 0.840027
0.982056 0.772217 0.840027
1.000000 0.772217 0.840027
0.920868 0.720673 0.819092
0.926208 0.722839 0.820557
0.931488 0.723450 0.820984
0.924774 0.736145 0.828552
0.920227 0.748260 0.835693
0.917877 0.761108 0.843292
0.917572 0.774536 0.851318
0.919342 0.788391 0.859589
0.923035 0.802673 0.866699
0.928619 0.817047 0.874451
0.936310 0.831238 0.885315
0.945648 0.845459 0.893860
0.956757 0.859497 0.902313
0.971161 0.859497 0.902313
0.985596 0.859497 0.902313
1.000000 0.859497 0.902313
0.957672 0.850250 0.907135
0.960510 0.851105 0.907684
0.963348 0.852051 0.908264
0.957428 0.858337 0.911621
0.952911 0.865021 0.915222
0.949554 0.872437 0.912750
0.947571 0.880096 0.909180
0.947083 0.887756 0.908020
0.948151 0.895325 0.909271
0.950897 0.902832 0.913086
0.955200 0.910248 0.919434
0.961090 0.917419 0.928406
0.968597 0.924377 0.940063
0.977570 0.931244 0.951782
0.988770 0.931244 0.951782
1.000000 0.931244 0.951782
0.983093 0.955200 0.970367
0.984253 0.955353 0.972321
0.985382 0.955536 0.973358
0.981232 0.957611 0.967010
0.977539 0.959717 0.960663
0.974487 0.961945 0.955383
0.972137 0.964111 0.951355
0.970673 0.966309 0.948730
0.970154 0.968414 0.947662
0.970673 0.970551 0.948273
0.972290 0.972656 0.950745
0.975128 0.974670 0.955261
0.979309 0.976593 0.961945
0.984802 0.978516 0.970947
0.991730 0.980286 0.982452
1.000000 0.980255 0.985291
0.998535 1.000000 0.997406
0.998657 1.000000 0.997589
0.998749 1.000000 0.997772
0.997375 1.000000 0.995361
0.995667 1.000000 0.992432
0.993805 1.000000 0.989197
0.992004 1.000000 0.986053
0.990295 1.000000 0.983093
0.988922 1.000000 0.980621
0.987946 1.000000 0.978943
0.987610 1.000000 0.978333
0.988007 1.000000 0.978943
0.989288 1.000000 0.981110
0.991669 1.000000 0.985138
0.995178 1.000000 0.991211
1.000000 1.000000 0.999695
0.000000 0.000000 0.200043
0.066711 0.000000 0.200043
0.133331 0.000000 0.200043
0.200043 0.000000 0.200043
0.266663 0.000000 0.200043
0.333374 0.000000 0.200043
0.399994 0.000000 0.200043
0.466705 0.000000 0.200043
0.533325 0.000000 0.200043
0.600006 0.000000 0.200043
0.666656 0.000000 0.200043
0.733337 0.000000 0.200043
0.799988 0.000000 0.200043
0.866669 0.000000 0.200043
0.933319 0.000000 0.200043
1.000000 0.000000 0.200043
0.000000 0.066711 0.200043
0.066711 0.066711 0.200043
0.133331 0.066711 0.200043
0.200043 0.066711 0.200043
0.266663 0.066711 0.200043
0.333374 0.066711 0.200043
0.399994 0.066711 0.200043
0.466705 0.066711 0.200043
0.533325 0.066711 0.200043
0.600006 0.066711 0.200043
0.666656 0.066711 0.200043
0.733337 0.066711 0.200043
0.799988 0.066711 0.200043
0.866669 0.066711 0.200043
0.933319 0.066711 0.200043
1.000000 0.066711 0.200043
0.000000 0.133331 0.200043
0.066711 0.133331 0.200043
0.133331 0.133331 0.200043
0.200043 0.133331 0.200043
0.266663 0.133331 0.200043
0.333374 0.133331 0.200043
0.399994 0.133331 0.200043
0.466705 0.133331 0.200043
0.533325 0.133331 0.200043
0.600006 0.133331 0.200043
0.666656 0.133331 0.200043
0.733337 0.133331 0.200043
0.799988 0.133331 0.200043
0.866669 0.133331 0.200043
0.933319 0.133331 0.200043
1.000000 0.133331 0.200043
0.000000 0.200043 0.200043
0.066711 0.200043 0.200043
0.133331 0.200043 0.200043
0.200043 0.200043 0.200043
0.266663 0.200043 0.200043
0.333374 0.200043 0.200043
0.399994 0.200043 0.200043
0.466705 0.200043 0.200043
0.533325 0.200043 0.200043
0.600006 0.200043 0.200043
0.666656 0.200043 0.200043
0.733337 0.200043 0.200043
0.799988 0.200043 0.200043
0.866669 0.200043 0.200043
0.933319 0.200043 0.200043
1.000000 0.200043 0.200043
0.124695 0.233398 0.175079
0.185608 0.237427 0.180969
0.261292 0.257935 0.225464
0.330505 0.246613 0.259430
0.347534 0.259979 0.274506
0.406830 0.259979 0.274506
0.466156 0.259979 0.274506
0.525482 0.259979 0.274506
0.584717 0.259979 0.274506
0.644135 0.259979 0.274506
0.703369 0.259979 0.274506
0.762726 0.259979 0.274506
0.822021 0.259979 0.274506
0.881348 0.259979 0.274506
0.940674 0.259979 0.274506
1.000000 0.259979 0.274506
0.256927 0.287811 0.215698
0.321777 0.285065 0.258728
0.385101 0.267975 0.303162
0.432953 0.267303 0.304901
0.448669 0.279205 0.321686
0.471100 0.290283 0.337738
0.523956 0.290283 0.337738
0.576874 0.290283 0.337738
0.629761 0.290283 0.337738
0.682648 0.290283 0.337738
0.735535 0.290283 0.337738
0.788452 0.290283 0.337738
0.841309 0.290283 0.337738
0.894226 0.290283 0.337738
0.947083 0.290283 0.337738
1.000000 0.290283 0.337738
0.379547 0.292358 0.296173
0.433380 0.275696 0.336273
0.474274 0.275024 0.337860
0.514771 0.275024 0.337860
0.529022 0.285553 0.356659
0.551788 0.298645 0.384125
0.580139 0.326691 0.411469
0.626801 0.326691 0.411469
0.673401 0.326691 0.411469
0.720093 0.326691 0.411469
0.766724 0.326691 0.411469
0.813385 0.326691 0.411469
0.860016 0.326691 0.411469
0.906708 0.326691 0.411469
0.953339 0.326691 0.411469
1.000000 0.326691 0.411469
