Color Lookup Presets Effects/z1 (97).CUBE
#Created by: Adobe Photoshop Export Color Lookup Plugin
#Copyright: (C) Copyright 2014 www.zafizack.com
TITLE "Esile Color Lookup"
#LUT size
LUT_3D_SIZE 16
#data domain
DOMAIN_MIN 0.0 0.0 0.0
DOMAIN_MAX 1.0 1.0 1.0
#LUT data points
0.000000 0.000000 0.017639
0.000000 0.000000 0.012939
0.018494 0.000000 0.021362
0.072266 0.000000 0.030731
0.138458 0.000000 0.040924
0.214600 0.000000 0.051880
0.299042 0.010681 0.063568
0.392853 0.020111 0.069061
0.494293 0.025269 0.066101
0.589203 0.030792 0.063934
0.674957 0.036713 0.062592
0.753082 0.043182 0.062042
0.824249 0.049988 0.062317
0.889313 0.057251 0.063324
0.948273 0.064270 0.064636
1.000000 0.071686 0.066620
0.000000 0.000000 0.013977
0.000000 0.000000 0.017151
0.020050 0.000000 0.026459
0.074066 0.000000 0.036621
0.140411 0.009125 0.047607
0.216553 0.022156 0.059326
0.301025 0.035706 0.071686
0.394653 0.045776 0.077484
0.496002 0.050842 0.074432
0.590515 0.056213 0.072083
0.676056 0.061981 0.070526
0.753876 0.067963 0.069550
0.824951 0.073639 0.068817
0.889801 0.079712 0.068848
0.948456 0.086273 0.069641
1.000000 0.093384 0.071259
0.000000 0.000000 0.012421
0.000000 0.000000 0.023468
0.025818 0.013000 0.033813
0.080780 0.026672 0.045074
0.147522 0.040680 0.057068
0.223785 0.055084 0.069794
0.308167 0.069916 0.083038
0.401550 0.080688 0.089355
0.502045 0.085907 0.086090
0.595520 0.090454 0.082825
0.680054 0.095123 0.080109
0.756958 0.100189 0.078094
0.827118 0.105499 0.076843
0.891113 0.111298 0.076385
0.949036 0.117554 0.076721
1.000000 0.124176 0.077820
0.000000 0.031891 0.018677
0.000000 0.035309 0.029053
0.043304 0.040131 0.043182
0.101196 0.055023 0.055573
0.169312 0.070129 0.068573
0.245819 0.085541 0.082275
0.329773 0.101349 0.096649
0.422333 0.112366 0.103119
0.520508 0.116730 0.098663
0.609955 0.121155 0.094788
0.691010 0.125702 0.091492
0.765045 0.130524 0.088898
0.832642 0.135590 0.087006
0.894531 0.141052 0.085968
0.950623 0.146912 0.085602
1.000000 0.153137 0.086029
0.000000 0.085297 0.025421
0.000000 0.085938 0.036926
0.054169 0.075256 0.051971
0.124817 0.083923 0.067291
0.194122 0.099609 0.081268
0.270721 0.115601 0.095886
0.354187 0.131866 0.111053
0.445801 0.143280 0.117798
0.539886 0.147766 0.112854
0.625061 0.152191 0.108429
0.702667 0.156647 0.104553
0.773560 0.161255 0.101288
0.838531 0.166168 0.098755
0.898102 0.171295 0.096985
0.952240 0.176788 0.095917
1.000000 0.182617 0.095581
0.000000 0.155151 0.033539
0.000000 0.152435 0.046783
0.053375 0.127594 0.059479
0.144623 0.116852 0.079407
0.221375 0.127777 0.095703
0.297913 0.144012 0.111237
0.380554 0.160431 0.127350
0.470764 0.171967 0.134308
0.559875 0.176544 0.128876
0.640717 0.181000 0.123779
0.714661 0.185364 0.119202
0.782440 0.189880 0.115326
0.844666 0.194580 0.112061
0.901855 0.199463 0.109558
0.953918 0.204651 0.107727
1.000000 0.210144 0.106598
0.000000 0.243530 0.042938
0.000000 0.236877 0.057800
0.057312 0.198608 0.071472
0.142914 0.172394 0.088440
0.246338 0.156372 0.110840
0.326996 0.168365 0.128265
0.408630 0.184723 0.145386
0.496307 0.196075 0.152557
0.580231 0.200714 0.146454
0.656830 0.205139 0.140808
0.726929 0.209473 0.135651
0.791534 0.213898 0.130981
0.850952 0.218384 0.127014
0.905701 0.223083 0.123657
0.955688 0.227997 0.121002
1.000000 0.233124 0.119110
0.000000 0.351532 0.053528
0.000000 0.343231 0.069855
0.062164 0.297119 0.085571
0.143860 0.258575 0.100128
0.244324 0.235168 0.121735
0.353790 0.216919 0.146240
0.438477 0.229126 0.165161
0.522125 0.240845 0.172668
0.600922 0.245575 0.165924
0.673126 0.250122 0.159576
0.739532 0.254486 0.153687
0.800842 0.258820 0.148315
0.857452 0.263184 0.143585
0.909698 0.267731 0.139435
0.957489 0.272369 0.136017
1.000000 0.277161 0.133179
0.000000 0.475647 0.065247
0.000000 0.467926 0.082977
0.067596 0.420807 0.101288
0.150818 0.380707 0.117401
0.242584 0.344482 0.133636
0.351593 0.324951 0.159058
0.463989 0.306976 0.185333
0.548065 0.312683 0.194397
0.621765 0.317841 0.187073
0.689606 0.322693 0.180115
0.752319 0.327301 0.173523
0.810303 0.331757 0.167419
0.863983 0.336060 0.161865
0.913788 0.340454 0.156891
0.959351 0.344940 0.152557
1.000000 0.349548 0.148926
0.000000 0.587189 0.066681
0.003967 0.581329 0.084625
0.073395 0.545013 0.103210
0.158508 0.511292 0.119781
0.252625 0.478149 0.136597
0.352234 0.447540 0.154877
0.464691 0.429932 0.180878
0.567627 0.413025 0.207489
0.642792 0.411957 0.210052
0.706299 0.417236 0.202332
0.765137 0.422150 0.195068
0.819885 0.426727 0.188232
0.870789 0.431213 0.181885
0.917938 0.435638 0.176086
0.961212 0.439911 0.170898
1.000000 0.444305 0.166260
0.000000 0.682343 0.062683
0.009277 0.678192 0.080322
0.079315 0.652771 0.097473
0.166229 0.628693 0.113708
0.262543 0.604950 0.130341
0.363068 0.581268 0.147369
0.467072 0.559967 0.166473
0.569580 0.547058 0.192108
0.656097 0.534180 0.218292
0.723053 0.530945 0.226318
0.778229 0.535553 0.218353
0.829651 0.539856 0.210724
0.877502 0.543732 0.203583
0.922089 0.547485 0.196960
0.963226 0.551117 0.190918
1.000000 0.554718 0.185425
0.000000 0.772888 0.066132
0.031433 0.780731 0.096466
0.138062 0.778046 0.129700
0.268066 0.777313 0.164886
0.405396 0.776764 0.200043
0.533539 0.775269 0.233124
0.630676 0.771515 0.262634
0.703613 0.766235 0.290314
0.758362 0.758057 0.315735
0.801270 0.744629 0.335632
0.836609 0.729584 0.338348
0.866272 0.717102 0.310394
0.897736 0.702332 0.280334
0.931335 0.686676 0.250946
0.966064 0.672455 0.225098
1.000000 0.663086 0.206299
0.000000 0.836151 0.058350
0.020752 0.834595 0.073761
0.092041 0.824280 0.088135
0.181122 0.814575 0.103119
0.280121 0.805023 0.118683
0.384125 0.795624 0.134888
0.489136 0.786255 0.151855
0.581940 0.776855 0.169525
0.660522 0.767426 0.187714
0.732452 0.762115 0.211426
0.795410 0.757721 0.236877
0.849335 0.753693 0.261108
0.891388 0.756439 0.252380
0.930725 0.758911 0.244019
0.967102 0.761261 0.236267
1.000000 0.763367 0.228943
0.000000 0.897705 0.058136
0.027069 0.896881 0.071686
0.099243 0.891205 0.085205
0.188934 0.885712 0.099365
0.288666 0.880554 0.114166
0.393585 0.875366 0.129822
0.499268 0.870361 0.146179
0.591736 0.865387 0.163300
0.670319 0.860382 0.181152
0.737701 0.855408 0.199585
0.796448 0.850952 0.219666
0.850494 0.849274 0.244781
0.897125 0.847534 0.270386
0.935089 0.848572 0.270325
0.969147 0.850433 0.261627
1.000000 0.852112 0.253418
0.000000 0.952057 0.059387
0.034302 0.951752 0.071045
0.107239 0.949280 0.083801
0.197266 0.946960 0.097107
0.297424 0.944733 0.111145
0.402954 0.942596 0.126007
0.508759 0.940491 0.141724
0.600555 0.938446 0.158234
0.678864 0.936401 0.175568
0.746033 0.934357 0.193481
0.804138 0.932343 0.212219
0.854279 0.930359 0.231598
0.897644 0.928467 0.251831
0.937653 0.928528 0.277039
0.971191 0.929138 0.289001
1.000000 0.930573 0.279785
0.000000 1.000000 0.062225
0.042542 1.000000 0.072052
0.116150 1.000000 0.083984
0.206482 1.000000 0.096527
0.306824 1.000000 0.109863
0.412689 1.000000 0.123993
0.517975 1.000000 0.138977
0.608978 1.000000 0.154816
0.686707 1.000000 0.171387
0.753571 1.000000 0.188782
0.811462 1.000000 0.206940
0.861450 1.000000 0.225739
0.904755 1.000000 0.245300
0.941925 1.000000 0.265594
0.973694 1.000000 0.286530
1.000000 1.000000 0.308167
0.000000 0.000000 0.077515
0.000000 0.000000 0.054626
0.015320 0.000000 0.046600
0.068390 0.000000 0.057526
0.134186 0.000000 0.069122
0.210144 0.000000 0.081299
0.294647 0.006744 0.094147
0.388489 0.016052 0.099792
0.490509 0.021240 0.096008
0.586182 0.026886 0.092987
0.672699 0.032867 0.090668
0.751404 0.039307 0.089203
0.823090 0.046204 0.088379
0.888611 0.053558 0.088409
0.947906 0.061249 0.089172
1.000000 0.069458 0.090637
0.000000 0.000000 0.071136
0.000000 0.000000 0.062531
0.016815 0.000000 0.053833
0.070129 0.000000 0.065887
0.136108 0.005157 0.078369
0.212067 0.017975 0.091522
0.296661 0.031281 0.105194
0.390442 0.041199 0.111328
0.492218 0.046295 0.107361
0.587585 0.051727 0.104095
0.673767 0.057556 0.101563
0.752228 0.063782 0.099670
0.823700 0.070404 0.098602
0.888947 0.077423 0.098267
0.948090 0.084900 0.098724
1.000000 0.092773 0.099792
0.000000 0.000000 0.064026
0.000000 0.003723 0.073517
0.019257 0.011230 0.063934
0.072601 0.024719 0.077240
0.138641 0.038696 0.091064
0.214600 0.053040 0.105377
0.299042 0.067780 0.120178
0.392670 0.078613 0.126953
0.494263 0.083832 0.122955
0.589203 0.089294 0.119476
0.675049 0.095032 0.116638
0.753113 0.101105 0.114502
0.824280 0.107513 0.113037
0.889343 0.114288 0.112274
0.948303 0.121094 0.112030
1.000000 0.127716 0.111877
0.000000 0.032745 0.056885
0.000000 0.041199 0.069305
0.023315 0.050873 0.076843
0.076324 0.066040 0.091034
0.141968 0.081879 0.106171
0.217621 0.098114 0.121796
0.301758 0.114716 0.137939
0.395172 0.126801 0.145477
0.496307 0.132507 0.141571
0.590790 0.138306 0.137970
0.676117 0.144226 0.134949
0.754181 0.149506 0.131775
0.825165 0.154785 0.129028
0.889984 0.160400 0.126953
0.948547 0.166351 0.125488
1.000000 0.172607 0.124786
0.000000 0.085297 0.062744
0.000000 0.092194 0.075012
0.033112 0.097260 0.090179
0.095215 0.103607 0.105591
0.161682 0.120453 0.121521
0.237427 0.137848 0.138153
0.321045 0.155426 0.155243
0.413483 0.168396 0.163300
0.512207 0.174622 0.159271
0.603363 0.179718 0.154724
0.686035 0.184814 0.150421
0.761444 0.189880 0.146576
0.830200 0.195068 0.143219
0.893036 0.200439 0.140594
0.949890 0.206055 0.138489
1.000000 0.212097 0.137177
0.000000 0.155151 0.073486
0.000000 0.161835 0.087006
0.034637 0.160400 0.100922
0.113861 0.143494 0.119629
0.187561 0.155304 0.137848
0.263306 0.173309 0.155396
0.346313 0.191589 0.173462
0.437622 0.204681 0.181610
0.532837 0.210327 0.176483
0.619415 0.215576 0.171448
0.698273 0.220734 0.166687
0.770416 0.225739 0.162323
0.836334 0.230835 0.158417
0.896759 0.236084 0.155060
0.951630 0.241516 0.152374
1.000000 0.247162 0.150330
0.000000 0.243530 0.085114
0.000000 0.250610 0.100342
0.038452 0.243713 0.114838
0.114197 0.210236 0.130798
0.211456 0.191315 0.154419
0.291443 0.204773 0.173737
0.373688 0.223206 0.192474
0.463776 0.236328 0.200867
0.553894 0.242065 0.195251
0.635864 0.247467 0.189758
0.710846 0.252533 0.184418
0.779633 0.257629 0.179504
0.842712 0.262634 0.175049
0.900696 0.267761 0.171112
0.953400 0.272949 0.167633
1.000000 0.278351 0.164856
0.000000 0.351532 0.097900
0.000000 0.359039 0.114563
0.042877 0.349396 0.130615
0.120056 0.307617 0.147858
0.210052 0.275116 0.166107
0.317352 0.256348 0.192657
0.402832 0.270142 0.213135
0.490479 0.283478 0.221680
0.575134 0.289551 0.215607
0.652618 0.295197 0.209595
0.723633 0.300476 0.203796
0.789124 0.305511 0.198273
0.849304 0.310547 0.193146
0.904724 0.315582 0.188568
0.955261 0.320679 0.184418
1.000000 0.325836 0.180939
0.000000 0.475647 0.111725
0.000000 0.482910 0.129822
0.047272 0.473358 0.147339
0.127106 0.430206 0.167053
0.215576 0.392944 0.184265
0.315582 0.365173 0.205963
0.427734 0.347626 0.233795
0.517365 0.354523 0.244049
0.596680 0.361115 0.237427
0.669525 0.367157 0.230896
0.736694 0.372803 0.224579
0.798737 0.378143 0.218475
0.855957 0.383209 0.212738
0.908752 0.388245 0.207520
0.957062 0.393250 0.202667
1.000000 0.398224 0.198395
0.000000 0.587189 0.112457
0.000000 0.592560 0.130920
0.052795 0.585266 0.149261
0.134552 0.551697 0.169861
0.224976 0.520508 0.187683
0.321198 0.489563 0.205444
0.428375 0.468018 0.229248
0.537598 0.452393 0.257294
0.618378 0.452576 0.260803
0.686676 0.459198 0.253784
0.749847 0.465240 0.246857
0.808533 0.470673 0.240173
0.862732 0.475891 0.233795
0.912964 0.480774 0.227844
0.959015 0.485565 0.222351
1.000000 0.490173 0.217285
0.000000 0.682343 0.106598
0.004547 0.686249 0.124847
0.059265 0.680969 0.143433
0.141876 0.657166 0.163361
0.234375 0.634613 0.181274
0.333069 0.612183 0.199219
0.434143 0.589752 0.217377
0.539368 0.575562 0.241821
0.632019 0.564575 0.269226
0.703918 0.562531 0.278168
0.763214 0.567871 0.270660
0.818390 0.572723 0.263458
0.869659 0.577240 0.256439
0.917236 0.581390 0.249786
0.960938 0.585388 0.243500
1.000000 0.589203 0.237732
0.000000 0.770905 0.108368
0.022522 0.782928 0.140808
0.107574 0.790161 0.178680
0.229004 0.788025 0.217346
0.360687 0.786377 0.253998
0.489532 0.783691 0.287445
0.592346 0.778931 0.316467
0.667847 0.770721 0.340179
0.729645 0.763184 0.364563
0.779724 0.751953 0.384277
0.820251 0.739014 0.387115
0.853943 0.728729 0.360321
0.889160 0.716461 0.331085
0.925964 0.703583 0.302063
0.963623 0.692139 0.276489
1.000000 0.686859 0.259796
0.000000 0.836151 0.097870
0.016785 0.837769 0.115448
0.073334 0.835571 0.133575
0.156372 0.826080 0.150787
0.251740 0.816803 0.168243
0.354004 0.807678 0.186005
0.459320 0.798553 0.204132
0.557068 0.789490 0.222565
0.639923 0.780426 0.241425
0.713501 0.773438 0.263153
0.780731 0.769989 0.289581
0.838501 0.766785 0.314606
0.883667 0.769989 0.306274
0.925903 0.772858 0.298340
0.964844 0.775513 0.290649
1.000000 0.777954 0.283356
0.000000 0.897705 0.095276
0.024109 0.898651 0.112335
0.079987 0.897522 0.128815
0.163879 0.892181 0.145447
0.260162 0.887024 0.162415
0.363556 0.881927 0.179840
0.470215 0.877014 0.197632
0.567627 0.872070 0.215942
0.650482 0.867126 0.234558
0.721527 0.862244 0.253784
0.782715 0.857422 0.273315
0.839600 0.855621 0.298157
0.889526 0.854370 0.324524
0.930328 0.855865 0.324951
0.966980 0.858063 0.316589
1.000000 0.860077 0.308594
0.000000 0.952057 0.094177
0.032288 0.952454 0.110596
0.087524 0.952026 0.125183
0.171967 0.949707 0.141205
0.268860 0.947510 0.157562
0.373016 0.945404 0.174530
0.480316 0.943298 0.191986
0.577118 0.941223 0.209839
0.659790 0.939209 0.228180
0.730682 0.937164 0.247070
0.791901 0.935181 0.266510
0.844910 0.933197 0.286438
0.890717 0.931213 0.306824
0.932983 0.931183 0.331757
0.968964 0.932098 0.344116
1.000000 0.933807 0.335297
0.000000 1.000000 0.094452
0.041473 1.000000 0.110321
0.095795 1.000000 0.122833
0.180664 1.000000 0.138275
0.278015 1.000000 0.154114
0.382629 1.000000 0.170471
0.490265 1.000000 0.187439
0.586121 1.000000 0.204834
0.668182 1.000000 0.222839
0.738770 1.000000 0.241333
0.799805 1.000000 0.260437
0.852783 1.000000 0.280029
0.898590 1.000000 0.300201
0.938110 1.000000 0.320892
0.971863 1.000000 0.342102
1.000000 1.000000 0.363770
0.000000 0.000000 0.151672
0.000000 0.000000 0.120087
0.009583 0.000000 0.096497
0.065094 0.000000 0.089386
0.130554 0.000000 0.102264
0.206329 0.000000 0.115479
0.290863 0.003387 0.129181
0.384857 0.012665 0.135040
0.487213 0.017853 0.130585
0.583618 0.023407 0.126709
0.670746 0.029510 0.123657
0.750000 0.036041 0.121277
0.822113 0.042999 0.119659
0.887939 0.050385 0.118774
0.947662 0.058228 0.118683
1.000000 0.066498 0.119171
0.000000 0.000000 0.143524
0.000000 0.000000 0.131104
0.011871 0.000000 0.106171
0.066833 0.000000 0.098724
0.132416 0.001862 0.112549
0.208282 0.014435 0.126709
0.292877 0.027618 0.141388
0.386780 0.037354 0.147644
0.488953 0.042480 0.143097
0.585052 0.047943 0.139160
0.671814 0.053802 0.135834
0.750763 0.060059 0.133179
0.822662 0.066742 0.131317
0.888367 0.073853 0.130096
0.947784 0.081329 0.129669
1.000000 0.089325 0.129852
0.000000 0.000488 0.134216
0.000000 0.008789 0.145905
0.015350 0.013245 0.119568
0.069214 0.021240 0.111145
0.134857 0.035004 0.126373
0.210724 0.049133 0.141815
0.295227 0.063660 0.157532
0.389008 0.074371 0.164642
0.491058 0.079590 0.160126
0.586609 0.085083 0.156097
0.673096 0.090790 0.152618
0.751740 0.096954 0.149750
0.823334 0.103333 0.147461
0.888763 0.110199 0.145935
0.948029 0.117401 0.145081
1.000000 0.125061 0.144897
0.000000 0.034546 0.124695
0.000000 0.043945 0.139221
0.020111 0.051971 0.135803
0.072845 0.062073 0.126099
0.138184 0.077759 0.142578
0.213715 0.093811 0.159424
0.297913 0.110168 0.176514
0.391449 0.122131 0.184387
0.493011 0.127838 0.180115
0.588165 0.133545 0.176117
0.674286 0.139496 0.172546
0.752533 0.145630 0.169525
0.823944 0.152069 0.167023
0.889160 0.158783 0.165192
0.948212 0.165894 0.163849
1.000000 0.173248 0.163330
0.000000 0.085907 0.114990
0.000000 0.094177 0.128876
0.026581 0.103088 0.142120
0.079346 0.114777 0.145172
0.143127 0.131409 0.161652
0.217896 0.149323 0.179504
0.301392 0.167847 0.197815
0.394287 0.181458 0.206635
0.495270 0.188019 0.202667
0.589752 0.194550 0.198914
0.675415 0.200989 0.195435
0.753357 0.207611 0.192291
0.824585 0.213806 0.189270
0.889618 0.219452 0.186188
0.948425 0.225342 0.183594
1.000000 0.231567 0.181580
0.000000 0.155151 0.119324
0.000000 0.161835 0.133179
0.029327 0.169037 0.145874
0.094971 0.172424 0.165375
0.162445 0.180511 0.181122
0.236481 0.199188 0.199341
0.319122 0.218719 0.218384
0.410980 0.233246 0.227631
0.509521 0.240631 0.223785
0.600769 0.247589 0.219910
0.683929 0.253601 0.215515
0.759735 0.259430 0.211243
0.829041 0.265076 0.207214
0.892273 0.270721 0.203613
0.949615 0.276550 0.200500
1.000000 0.282593 0.197876
0.000000 0.243530 0.132904
0.000000 0.250610 0.148682
0.033386 0.256714 0.162140
0.096069 0.249969 0.177887
0.186584 0.225311 0.199890
0.263947 0.238556 0.219025
0.345856 0.257996 0.238525
0.436310 0.272827 0.247986
0.530914 0.280151 0.243500
0.617584 0.286713 0.238770
0.696625 0.292816 0.233948
0.769165 0.298676 0.229218
0.835419 0.304413 0.224731
0.896240 0.310028 0.220673
0.951416 0.315765 0.216980
1.000000 0.321594 0.213715
0.000000 0.351532 0.147369
0.000000 0.359039 0.164825
0.037598 0.364563 0.179596
0.101440 0.352936 0.195770
0.188232 0.316895 0.214447
0.289337 0.292786 0.238800
0.374390 0.307434 0.259979
0.463379 0.322144 0.269348
0.552795 0.329468 0.264252
0.634705 0.336334 0.259033
0.709747 0.342682 0.253845
0.778748 0.348785 0.248688
0.842133 0.354523 0.243683
0.900330 0.360199 0.239044
0.953278 0.365845 0.234772
1.000000 0.371490 0.230988
0.000000 0.475647 0.162689
0.000000 0.482910 0.181641
0.041779 0.487793 0.197754
0.107300 0.475403 0.215271
0.195526 0.436707 0.235046
0.288910 0.402588 0.252838
0.398865 0.383759 0.280792
0.491089 0.391693 0.291840
0.574921 0.399506 0.286255
0.652039 0.406738 0.280640
0.722992 0.413544 0.275024
0.788483 0.419922 0.269409
0.848846 0.425812 0.263947
0.904449 0.431580 0.258698
0.955139 0.437164 0.253906
1.000000 0.442719 0.249359
0.000000 0.587189 0.163086
0.000000 0.592560 0.182556
0.047028 0.596069 0.199524
0.114288 0.586212 0.218170
0.204224 0.555420 0.238739
0.298798 0.526245 0.256714
0.399323 0.499847 0.276276
0.511810 0.485718 0.305115
0.597107 0.487000 0.309692
0.669586 0.494415 0.303680
0.736511 0.501190 0.297577
0.798492 0.507385 0.291473
0.855743 0.513031 0.285583
0.908661 0.518402 0.279785
0.956970 0.523407 0.274353
1.000000 0.528290 0.269257
0.000000 0.682343 0.155701
0.004547 0.686249 0.175293
0.053223 0.688568 0.192566
0.122101 0.681366 0.212036
0.213226 0.659027 0.232574
0.309845 0.637726 0.250793
0.410309 0.616455 0.268951
0.513428 0.598450 0.289825
0.611176 0.589111 0.318085
0.687195 0.588043 0.327942
0.750092 0.594086 0.321472
0.808563 0.599609 0.314941
0.862732 0.604645 0.308502
0.912964 0.609314 0.302216
0.958984 0.613617 0.296173
1.000000 0.617706 0.290497
0.000000 0.768036 0.153137
0.018982 0.778839 0.186768
0.090759 0.789673 0.222473
0.192047 0.794739 0.262146
0.316498 0.791565 0.299377
0.440918 0.787689 0.332153
0.549988 0.781982 0.360168
0.632233 0.773315 0.382721
0.697968 0.763458 0.402588
0.755646 0.753723 0.422333
0.802307 0.742737 0.425995
0.840912 0.734772 0.401459
0.880280 0.725067 0.374573
0.920685 0.715271 0.347900
0.961304 0.707092 0.324707
1.000000 0.706573 0.313080
0.000000 0.836151 0.143677
0.016785 0.837769 0.162842
0.067200 0.838745 0.180328
0.138519 0.835632 0.200745
0.230255 0.826599 0.219269
0.330536 0.817688 0.237732
0.435059 0.808807 0.256348
0.536255 0.800049 0.275085
0.622711 0.791260 0.294037
0.696838 0.782562 0.313202
0.767975 0.779999 0.340302
0.828949 0.777466 0.365692
0.877014 0.781097 0.358368
0.921722 0.784424 0.351013
0.963013 0.787445 0.343933
1.000000 0.790192 0.337006
0.000000 0.897705 0.139221
0.024109 0.898651 0.158081
0.075226 0.899231 0.175446
0.145874 0.897552 0.194580
0.238586 0.892426 0.212769
0.340149 0.887451 0.231140
0.446136 0.882538 0.249695
0.547424 0.877686 0.268463
0.633850 0.872894 0.287537
0.707947 0.868073 0.306915
0.771820 0.863342 0.326324
0.830109 0.860748 0.349640
0.882874 0.860077 0.376282
0.926239 0.861908 0.377411
0.965057 0.864441 0.369720
1.000000 0.866760 0.362274
0.000000 0.952057 0.136139
0.032288 0.952454 0.154541
0.084015 0.952698 0.171661
0.153656 0.952026 0.189087
0.247131 0.949860 0.207001
0.349548 0.947723 0.225067
0.456757 0.945587 0.243378
0.557587 0.943573 0.262024
0.643646 0.941528 0.280975
0.717682 0.939575 0.300323
0.781586 0.937531 0.319977
0.837006 0.935577 0.339966
0.884979 0.933655 0.360168
0.928802 0.933350 0.384094
0.967102 0.934601 0.396881
1.000000 0.936615 0.388855
0.000000 1.000000 0.134430
0.041473 1.000000 0.152344
0.093658 1.000000 0.169098
0.162018 1.000000 0.184570
0.256073 1.000000 0.202057
0.359222 1.000000 0.219788
0.467102 1.000000 0.237854
0.567047 1.000000 0.256226
0.652679 1.000000 0.275024
0.726410 1.000000 0.294159
0.790131 1.000000 0.313721
0.845490 1.000000 0.333679
0.893463 1.000000 0.354004
0.934906 1.000000 0.374634
0.970428 1.000000 0.395477
1.000000 1.000000 0.416595
0.000000 0.000000 0.238251
0.000000 0.000000 0.202026
0.005188 0.000000 0.173767
0.056183 0.000000 0.149536
0.127075 0.000000 0.144592
0.202759 0.000000 0.158722
0.287354 0.000305 0.173218
0.381409 0.009491 0.179260
0.484009 0.014679 0.174103
0.581177 0.020355 0.169617
0.668915 0.026459 0.165741
0.748596 0.033051 0.162567
0.821198 0.040100 0.160126
0.887421 0.047577 0.158356
0.947418 0.055481 0.157318
1.000000 0.063812 0.156982
0.000000 0.000000 0.229218
0.000000 0.000000 0.215027
0.008057 0.000000 0.185669
0.058838 0.000000 0.160461
0.128998 0.000000 0.155151
0.204712 0.011169 0.170319
0.289337 0.024139 0.185608
0.383270 0.033936 0.192169
0.485870 0.038971 0.187042
0.582642 0.044495 0.182526
0.669983 0.050354 0.178589
0.749451 0.056671 0.175201
0.821747 0.063385 0.172607
0.887756 0.070587 0.170532
0.947540 0.078156 0.169220
1.000000 0.086151 0.168640
0.000000 0.005096 0.218811
0.000000 0.013947 0.232117
0.012177 0.018616 0.201538
0.062653 0.022980 0.175140
0.131470 0.031555 0.169128
0.207214 0.045471 0.185486
0.291687 0.059814 0.202026
0.385620 0.070435 0.209229
0.487915 0.075653 0.204468
0.584259 0.081085 0.199921
0.671234 0.086884 0.195923
0.750336 0.092987 0.192383
0.822449 0.099457 0.189575
0.888153 0.106354 0.187256
0.947723 0.113647 0.185638
1.000000 0.121307 0.184692
0.000000 0.036499 0.207764
0.000000 0.046661 0.224518
0.017365 0.055237 0.219971
0.067688 0.063507 0.192474
0.134613 0.073914 0.185211
0.210114 0.089783 0.203003
0.294342 0.105957 0.220734
0.388031 0.117737 0.228912
0.489929 0.123444 0.224426
0.585785 0.129150 0.220154
0.672455 0.135101 0.216278
0.751251 0.141296 0.212708
0.823029 0.147675 0.209686
0.888580 0.154449 0.207214
0.947906 0.161530 0.205292
1.000000 0.169006 0.204071
0.000000 0.085510 0.196320
0.000000 0.095154 0.212402
0.023560 0.104156 0.225800
0.074310 0.115265 0.212555
0.139801 0.127380 0.204315
0.214203 0.144897 0.222626
0.297729 0.163147 0.241547
0.390747 0.176636 0.250641
0.492126 0.183228 0.246735
0.587341 0.189667 0.242889
0.673584 0.196075 0.239258
0.752014 0.202606 0.235718
0.823547 0.209259 0.232727
0.888916 0.216187 0.230164
0.948090 0.223297 0.228088
1.000000 0.230682 0.226501
0.000000 0.155579 0.184570
0.000000 0.164124 0.200012
0.029938 0.172333 0.213135
0.083282 0.181976 0.227356
0.149078 0.196259 0.228577
0.220398 0.213348 0.245361
0.302582 0.233368 0.264801
0.394592 0.248566 0.274628
0.494812 0.256409 0.271240
0.589203 0.264069 0.267944
0.674744 0.271484 0.264679
0.752838 0.278839 0.261505
0.824066 0.286102 0.258606
0.889252 0.292999 0.255615
0.948273 0.299286 0.252411
1.000000 0.305542 0.249573
0.000000 0.243530 0.188568
0.000000 0.250610 0.204071
0.033386 0.256714 0.216827
0.088684 0.264771 0.230469
0.167297 0.262360 0.251434
0.241028 0.273010 0.268280
0.321594 0.292877 0.287354
0.411926 0.308533 0.297272
0.509491 0.317200 0.294037
0.600189 0.325653 0.290894
0.683136 0.333405 0.287262
0.759033 0.340302 0.283295
0.828491 0.346924 0.279358
0.891937 0.353424 0.275452
0.949432 0.359772 0.271790
1.000000 0.366150 0.268494
