Color Lookup Presets Effects/z1 (71).CUBE
#Created by: Adobe Photoshop Export Color Lookup Plugin
#Copyright: (C) Copyright 2016 www.zafizack.com
TITLE "zafizack pastel color preset"
#LUT size
LUT_3D_SIZE 6
#data domain
DOMAIN_MIN 0.0 0.0 0.0
DOMAIN_MAX 1.0 1.0 1.0
#LUT data points
0.000000 0.000000 0.000000
0.281311 0.024536 0.022766
0.540741 0.057861 0.054779
0.746429 0.084106 0.094849
0.883545 0.138397 0.182098
1.000000 0.194580 0.235870
0.000031 0.244598 0.000031
0.238861 0.248352 0.002625
0.505249 0.282257 0.018860
0.708588 0.306122 0.044495
0.881714 0.339417 0.099060
1.000000 0.385193 0.187744
0.000153 0.507172 0.000122
0.230011 0.505646 0.000397
0.481018 0.510651 0.005157
0.682281 0.524139 0.017365
0.877991 0.533813 0.035004
1.000000 0.551697 0.147705
0.000214 0.687683 0.000153
0.224792 0.684998 0.000000
0.472504 0.687012 0.002502
0.665619 0.694580 0.008240
0.860260 0.704346 0.018005
1.000000 0.711182 0.136749
0.000244 0.860352 0.000214
0.220245 0.858887 0.000000
0.466766 0.861542 0.001129
0.657074 0.869415 0.005341
0.850372 0.880798 0.012329
1.000000 0.878418 0.194916
0.000793 1.000000 0.000671
0.215485 0.998749 0.000000
0.463165 1.000000 0.001678
0.655731 1.000000 0.018433
0.845551 1.000000 0.132202
1.000000 1.000000 0.353485
0.000000 0.000000 0.170563
0.266479 0.015961 0.326538
0.533203 0.048035 0.375702
0.738953 0.075989 0.415741
0.883179 0.130981 0.448212
1.000000 0.188660 0.464264
0.000000 0.225861 0.260803
0.226196 0.233673 0.275177
0.500275 0.257050 0.306946
0.703033 0.270752 0.334106
0.881927 0.300781 0.367126
1.000000 0.356110 0.415741
0.000000 0.497040 0.261627
0.202362 0.501221 0.238068
0.475708 0.506866 0.248627
0.677155 0.514740 0.285797
0.872040 0.520813 0.298798
1.000000 0.539764 0.369568
0.000000 0.677246 0.256836
0.194031 0.679749 0.223450
0.460266 0.681885 0.225677
0.659821 0.689575 0.246307
0.854218 0.696289 0.267487
1.000000 0.703400 0.350037
0.000000 0.850677 0.250305
0.188385 0.853485 0.212769
0.452820 0.856110 0.211334
0.648071 0.863892 0.227570
0.843903 0.875549 0.244659
1.000000 0.874969 0.377380
0.000000 0.990784 0.242310
0.183289 0.993103 0.203064
0.448486 0.994904 0.199829
0.642212 1.000000 0.219757
0.838928 1.000000 0.316284
1.000000 1.000000 0.490204
0.000000 0.000000 0.380432
0.255981 0.010834 0.564484
0.525085 0.039001 0.592102
0.731476 0.067627 0.613403
0.882843 0.122742 0.612885
1.000000 0.181549 0.616821
0.000000 0.211761 0.512512
0.201599 0.196136 0.537537
0.490417 0.225983 0.562256
0.695862 0.253082 0.577606
0.881592 0.283173 0.587280
1.000000 0.345093 0.594391
0.000000 0.488434 0.523071
0.192749 0.493103 0.530334
0.458740 0.494110 0.540436
0.670715 0.504333 0.551758
0.865326 0.506653 0.556427
1.000000 0.527863 0.571716
0.000000 0.667633 0.524963
0.184998 0.672272 0.522095
0.436920 0.676910 0.517975
0.652435 0.684692 0.524353
0.847656 0.687347 0.539856
1.000000 0.694244 0.560303
0.000000 0.840485 0.524200
0.179199 0.846588 0.516815
0.418579 0.850342 0.505585
0.631134 0.858368 0.507324
0.836121 0.869904 0.516754
1.000000 0.870087 0.563629
0.000000 0.980103 0.521973
0.173737 0.986023 0.512726
0.407654 0.987885 0.498108
0.620636 0.994354 0.496857
0.826691 1.000000 0.526093
1.000000 1.000000 0.630920
0.000000 0.000000 0.563416
0.248322 0.006836 0.741486
0.517334 0.031342 0.771057
0.723877 0.059448 0.793335
0.882477 0.113617 0.778473
1.000000 0.173920 0.768127
0.000000 0.200775 0.665161
0.190521 0.185181 0.714966
0.477631 0.207428 0.739319
0.686340 0.234497 0.759064
0.881195 0.263367 0.767853
1.000000 0.332977 0.753937
0.000000 0.481323 0.687775
0.181335 0.482269 0.707703
0.436096 0.470306 0.718536
0.658203 0.482666 0.736145
0.858551 0.493713 0.742035
1.000000 0.517609 0.738129
0.000000 0.659058 0.695282
0.175690 0.664795 0.703217
0.423431 0.666779 0.710083
0.636383 0.670349 0.720032
0.840668 0.678650 0.725433
1.000000 0.686737 0.728790
0.000000 0.831909 0.697510
0.170044 0.840088 0.697937
0.406586 0.843842 0.697052
0.616089 0.852417 0.698700
0.827606 0.863708 0.706573
1.000000 0.867279 0.731384
0.000000 0.970886 0.696899
0.164215 0.979309 0.693604
0.395905 0.981201 0.689026
0.602997 0.987671 0.685028
0.810791 0.999329 0.691498
1.000000 1.000000 0.773956
0.000000 0.000000 0.660950
0.243317 0.004639 0.871948
0.511627 0.028259 0.898041
0.702423 0.070282 0.898712
0.876343 0.111908 0.899017
1.000000 0.168671 0.885254
0.000000 0.196960 0.775635
0.184387 0.179016 0.845612
0.471863 0.198608 0.871674
0.679382 0.224670 0.893066
0.871246 0.258606 0.899292
1.000000 0.323975 0.879425
0.000000 0.476990 0.808502
0.174744 0.476990 0.841614
0.421906 0.454254 0.852753
0.645782 0.472839 0.872070
0.851532 0.482971 0.885559
1.000000 0.509064 0.872559
0.000000 0.653870 0.823151
0.168762 0.658691 0.840729
0.407745 0.655273 0.847656
0.619415 0.653290 0.860107
0.832672 0.662262 0.872528
1.000000 0.675018 0.867523
0.000000 0.826508 0.831116
0.163177 0.835815 0.840302
0.397888 0.839203 0.845093
0.610474 0.847473 0.854828
0.820892 0.857361 0.864502
1.000000 0.862946 0.870087
0.000000 0.964813 0.835175
0.156769 0.974426 0.839447
0.387024 0.976501 0.839752
0.597504 0.982941 0.842773
0.805145 0.994232 0.852692
1.000000 1.000000 0.896149
0.000000 0.000000 0.759338
0.237976 0.003021 1.000000
0.499756 0.034119 1.000000
0.686340 0.078613 1.000000
0.857605 0.122162 1.000000
1.000000 0.163330 1.000000
0.000000 0.193542 0.885559
0.178467 0.173248 0.977264
0.466583 0.193726 1.000000
0.664917 0.231537 1.000000
0.846405 0.274475 1.000000
1.000000 0.315125 1.000000
0.000000 0.472656 0.926544
0.168549 0.471436 0.973206
0.410583 0.442657 0.982910
0.637207 0.461243 1.000000
0.832672 0.483368 1.000000
1.000000 0.500214 1.000000
0.000000 0.649475 0.945587
0.162354 0.653748 0.972351
0.396667 0.647400 0.977722
0.608246 0.642029 0.988647
0.818237 0.651123 1.000000
1.000000 0.661804 1.000000
0.000000 0.822083 0.956329
0.156464 0.831085 0.971924
0.387115 0.830811 0.975098
0.599426 0.834229 0.983551
0.807770 0.844391 0.994476
1.000000 0.851349 1.000000
0.000000 0.959839 0.961395
0.150116 0.970612 0.971802
0.379700 0.972443 0.973877
0.592865 0.978821 0.980286
0.800507 0.990387 0.991119
1.000000 1.000000 1.000000
