Color Lookup Presets Effects/z1 (76).CUBE
#Created by: Adobe Photoshop Export Color Lookup Plugin
#Copyright: (C) Copyright 2014 www.zafizack.com
TITLE "zafizack"
#LUT size
LUT_3D_SIZE 6
#data domain
DOMAIN_MIN 0.0 0.0 0.0
DOMAIN_MAX 1.0 1.0 1.0
#LUT data points
0.047516 0.074768 0.112732
0.171143 0.074524 0.112366
0.377136 0.074524 0.112366
0.668396 0.074280 0.111969
0.844543 0.074280 0.111969
1.000000 0.074280 0.111969
0.047394 0.191376 0.112366
0.175629 0.204468 0.112732
0.382446 0.190094 0.112366
0.673828 0.175079 0.112366
0.846069 0.166931 0.111969
1.000000 0.166992 0.111969
0.047394 0.400208 0.112366
0.179688 0.419983 0.112366
0.388916 0.398560 0.112366
0.677521 0.374756 0.112366
0.847595 0.361481 0.111969
1.000000 0.361481 0.111969
0.047394 0.685059 0.112366
0.183777 0.697662 0.112366
0.394867 0.683960 0.112366
0.679382 0.665833 0.111969
0.849060 0.657410 0.111969
1.000000 0.657318 0.111969
0.047241 0.850494 0.111969
0.185730 0.857452 0.112366
0.395752 0.849976 0.111969
0.680756 0.843262 0.111969
0.848022 0.838074 0.111603
1.000000 0.838074 0.111603
0.047119 1.000000 0.111603
0.186676 1.000000 0.111969
0.395203 1.000000 0.111603
0.679230 1.000000 0.111603
0.848450 1.000000 0.111603
1.000000 1.000000 0.111237
0.047516 0.074768 0.235962
0.171509 0.074524 0.236511
0.376617 0.074524 0.205536
0.670044 0.074524 0.201691
0.844543 0.074280 0.200989
1.000000 0.074280 0.200989
0.047394 0.191162 0.237396
0.175964 0.204803 0.239868
0.382019 0.189880 0.205200
0.674133 0.175171 0.200958
0.846069 0.166931 0.200256
1.000000 0.166992 0.200165
0.047394 0.400543 0.240631
0.180054 0.420441 0.242004
0.388916 0.398560 0.204834
0.677826 0.374878 0.200195
0.847717 0.361542 0.199493
1.000000 0.361542 0.199493
0.047394 0.685272 0.243927
0.184875 0.698517 0.245728
0.394867 0.683960 0.204834
0.679382 0.665833 0.199066
0.849060 0.657410 0.199066
1.000000 0.657379 0.199127
0.047241 0.850494 0.244751
0.185425 0.855927 0.246338
0.395752 0.849976 0.204407
0.681000 0.843292 0.199127
0.848022 0.838074 0.198456
1.000000 0.838074 0.198456
0.047119 1.000000 0.245026
0.186310 1.000000 0.247620
0.394714 1.000000 0.204010
0.679474 1.000000 0.198639
0.846466 1.000000 0.197937
1.000000 1.000000 0.197937
0.047516 0.074768 0.441010
0.171143 0.074524 0.440887
0.376617 0.074524 0.398499
0.670044 0.074524 0.388611
0.844666 0.074280 0.386993
1.000000 0.074280 0.387115
0.047394 0.191589 0.443329
0.176392 0.205139 0.446869
0.382996 0.190308 0.397949
0.673828 0.175079 0.387146
0.846344 0.166992 0.385468
1.000000 0.166992 0.385468
0.047394 0.400848 0.447357
0.180389 0.420929 0.449341
0.389404 0.398865 0.397400
0.678131 0.375031 0.385529
0.847870 0.361572 0.384033
1.000000 0.361542 0.384125
0.047394 0.685516 0.451904
0.184875 0.698517 0.454041
0.394867 0.683960 0.397369
0.679382 0.665833 0.382996
0.849304 0.657440 0.382904
1.000000 0.657440 0.382996
0.047241 0.850555 0.452454
0.185791 0.856018 0.454651
0.395752 0.849976 0.396332
0.680756 0.843262 0.382965
0.848022 0.838074 0.381470
1.000000 0.838074 0.381470
0.047119 1.000000 0.451904
0.185669 1.000000 0.454132
0.394714 1.000000 0.395233
0.678955 1.000000 0.381683
0.846466 1.000000 0.380188
1.000000 1.000000 0.380035
0.047516 0.074768 0.704224
0.171143 0.074524 0.702759
0.377136 0.074524 0.677429
0.670624 0.074524 0.668121
0.844666 0.074280 0.666199
1.000000 0.074280 0.666199
0.047394 0.191864 0.704407
0.176758 0.205475 0.707336
0.382996 0.190308 0.677124
0.674347 0.175293 0.666931
0.846588 0.167053 0.664734
1.000000 0.167053 0.664734
0.047394 0.401215 0.706696
0.180817 0.421417 0.707794
0.389923 0.399200 0.676819
0.678131 0.375031 0.665680
0.847870 0.361572 0.663666
1.000000 0.361664 0.663513
0.047394 0.685272 0.708801
0.184875 0.698517 0.710236
0.395844 0.684357 0.676758
0.679962 0.666046 0.662506
0.849548 0.657501 0.662445
1.000000 0.657440 0.662506
0.047241 0.850555 0.708374
0.185791 0.856018 0.709656
0.395752 0.849976 0.675018
0.680756 0.843262 0.662476
0.847839 0.838043 0.660614
1.000000 0.838074 0.660492
0.047119 1.000000 0.707092
0.185669 1.000000 0.708374
0.394714 1.000000 0.673370
0.679474 1.000000 0.660461
0.846466 1.000000 0.658508
1.000000 1.000000 0.658508
0.047516 0.074768 0.859802
0.171814 0.074524 0.858429
0.378113 0.074524 0.848022
0.670959 0.074524 0.843445
0.844788 0.074280 0.841736
1.000000 0.074280 0.841644
0.047394 0.192566 0.859161
0.177094 0.205872 0.861115
0.384003 0.190765 0.847870
0.674713 0.175354 0.842865
0.846466 0.167053 0.841125
1.000000 0.167053 0.841125
0.047394 0.401215 0.859833
0.180817 0.421417 0.860321
0.390442 0.399445 0.847717
0.678680 0.375305 0.842255
0.847992 0.361664 0.840546
1.000000 0.361694 0.840515
0.047394 0.685516 0.860840
0.185242 0.698822 0.861389
0.395844 0.684357 0.847717
0.679962 0.666046 0.840027
0.849670 0.657532 0.839966
1.000000 0.657440 0.840027
0.047241 0.850372 0.859497
0.185425 0.855927 0.860107
0.395294 0.849915 0.846100
0.680145 0.843201 0.840088
0.847839 0.838043 0.838287
1.000000 0.838043 0.838287
0.047119 1.000000 0.858307
0.186035 1.000000 0.858917
0.394714 1.000000 0.844513
0.679230 1.000000 0.838226
0.846466 1.000000 0.836487
1.000000 1.000000 0.836487
0.047516 0.074768 1.000000
0.172607 0.074524 1.000000
0.378113 0.074524 1.000000
0.670959 0.074524 1.000000
0.845001 0.074280 1.000000
1.000000 0.074280 1.000000
0.047394 0.192322 1.000000
0.176758 0.205475 1.000000
0.384460 0.190979 1.000000
0.675232 0.175568 1.000000
0.846588 0.167053 1.000000
1.000000 0.167053 1.000000
0.047394 0.401855 1.000000
0.181519 0.422455 1.000000
0.391418 0.400116 1.000000
0.679596 0.375702 1.000000
0.848236 0.361725 1.000000
1.000000 0.361725 1.000000
0.047394 0.685516 1.000000
0.184875 0.698517 1.000000
0.395355 0.684113 1.000000
0.679718 0.665924 1.000000
0.849304 0.657440 1.000000
1.000000 0.657440 1.000000
0.047241 0.850555 1.000000
0.185791 0.856018 1.000000
0.395752 0.849976 1.000000
0.680756 0.843262 1.000000
0.848022 0.838074 1.000000
1.000000 0.838074 1.000000
0.047119 1.000000 1.000000
0.185669 1.000000 1.000000
0.394714 1.000000 1.000000
0.679230 1.000000 1.000000
0.846375 1.000000 1.000000
1.000000 1.000000 1.000000
