Color Lookup Presets Effects/z1 (82).CUBE
#Created by: Adobe Photoshop Export Color Lookup Plugin
#Copyright: (C) Copyright 2015 www.zafizack.com
TITLE "zafizack-VG-08"
#LUT size
LUT_3D_SIZE 6
#data domain
DOMAIN_MIN 0.0 0.0 0.0
DOMAIN_MAX 1.0 1.0 1.0
#LUT data points
0.020416 0.020416 0.020416
0.177032 0.020416 0.055511
0.408295 0.020416 0.099670
0.649658 0.020416 0.147461
0.873993 0.020416 0.195435
0.998138 0.055908 0.249969
0.020416 0.155457 0.027405
0.165039 0.185150 0.063538
0.399719 0.221771 0.114868
0.641876 0.240265 0.155090
0.865814 0.241241 0.204712
0.998138 0.266235 0.263885
0.020416 0.360291 0.036469
0.141083 0.390594 0.058136
0.380432 0.425751 0.117126
0.637329 0.476044 0.177307
0.857635 0.469147 0.219421
0.998138 0.478455 0.277710
0.020416 0.565216 0.046692
0.118713 0.589203 0.055023
0.353455 0.618896 0.111298
0.610901 0.647980 0.176239
0.855316 0.690063 0.241486
0.998138 0.682861 0.308441
0.020416 0.738892 0.057251
0.109863 0.761078 0.061676
0.326721 0.783752 0.105408
0.585052 0.809265 0.169678
0.822723 0.834351 0.240021
0.998138 0.849548 0.318512
0.020416 0.892639 0.068420
0.100067 0.919525 0.068970
0.300537 0.932098 0.099670
0.558899 0.955933 0.163269
0.800476 0.973724 0.240204
0.998138 0.973724 0.318512
0.020416 0.020416 0.113373
0.177032 0.020416 0.167694
0.408295 0.020416 0.220795
0.649658 0.020416 0.274506
0.873993 0.020416 0.323090
0.998138 0.055908 0.368225
0.020416 0.155457 0.125610
0.169647 0.181976 0.175446
0.399719 0.210938 0.229065
0.641876 0.240265 0.282562
0.865814 0.241241 0.331635
0.998138 0.266235 0.380951
0.020416 0.360291 0.138367
0.162415 0.387085 0.183380
0.384796 0.422272 0.238373
0.633972 0.465240 0.302582
0.857635 0.462494 0.340332
0.998138 0.478455 0.393829
0.020416 0.565216 0.151245
0.154907 0.586060 0.191437
0.357666 0.615967 0.231628
0.614929 0.645081 0.301422
0.852203 0.681213 0.363037
0.998138 0.665436 0.406525
0.020416 0.738892 0.164398
0.146942 0.758514 0.199860
0.335297 0.781128 0.228210
0.589050 0.806610 0.295044
0.826447 0.831879 0.361725
0.998138 0.844971 0.432526
0.020416 0.892639 0.177887
0.138306 0.917145 0.209015
0.326904 0.929718 0.236542
0.562958 0.953552 0.288391
0.804199 0.973724 0.359283
0.998138 0.973724 0.432526
0.020416 0.020416 0.230988
0.195892 0.020416 0.306427
0.408295 0.020416 0.346680
0.649658 0.020416 0.396057
0.873993 0.020416 0.442535
0.998138 0.055908 0.485596
0.020416 0.155457 0.245148
0.168915 0.173950 0.300262
0.399719 0.210938 0.354218
0.641876 0.240265 0.403473
0.865814 0.241241 0.451508
0.998138 0.266235 0.500916
0.020416 0.360291 0.259155
0.162415 0.387085 0.311401
0.391083 0.418732 0.361786
0.633881 0.450012 0.410919
0.857635 0.462494 0.460480
0.998138 0.478455 0.516937
0.020416 0.565216 0.273010
0.154907 0.586060 0.318970
0.382690 0.613037 0.369263
0.618866 0.642242 0.418671
0.849121 0.671722 0.482422
0.998138 0.665436 0.533722
0.020416 0.738892 0.286804
0.146942 0.758514 0.327148
0.374207 0.778381 0.376556
0.593201 0.804077 0.412598
0.830139 0.829376 0.481262
0.998138 0.840363 0.570282
0.020416 0.892639 0.300323
0.138306 0.917145 0.335815
0.365662 0.927277 0.384003
0.572479 0.951233 0.410370
0.807159 0.973724 0.475403
0.998138 0.973724 0.570282
0.020416 0.020416 0.350830
0.199463 0.020416 0.423431
0.447815 0.020416 0.493835
0.649658 0.020416 0.526581
0.873993 0.020416 0.593475
0.998138 0.055908 0.651825
0.020416 0.137238 0.350830
0.172546 0.170746 0.417542
0.420624 0.207703 0.486603
0.641876 0.240265 0.536591
0.865814 0.241241 0.607178
0.998138 0.266235 0.675598
0.020416 0.360291 0.376556
0.162415 0.387085 0.430878
0.388550 0.408478 0.480255
0.633881 0.450012 0.546936
0.857635 0.462494 0.621429
0.998138 0.478455 0.699921
0.020416 0.565216 0.389435
0.154907 0.586060 0.438660
0.382690 0.613037 0.492950
0.625885 0.639374 0.557312
0.849121 0.659698 0.635956
0.998138 0.665436 0.725403
0.020416 0.738892 0.402130
0.146942 0.758514 0.446869
0.374207 0.778381 0.501953
0.618042 0.801544 0.568451
0.833984 0.826843 0.649445
0.998138 0.826477 0.751160
0.020416 0.892639 0.415100
0.138306 0.917145 0.455719
0.365662 0.927277 0.511047
0.609924 0.948822 0.579865
0.810211 0.972382 0.638275
0.998138 0.973724 0.777832
0.020416 0.020416 0.466278
0.203339 0.020416 0.561066
0.452271 0.020416 0.669495
0.686218 0.020416 0.771698
0.873993 0.020416 0.820221
0.998138 0.055908 0.883209
0.020416 0.131012 0.466278
0.176361 0.167603 0.552399
0.425079 0.204224 0.657928
0.677429 0.237000 0.786163
0.865814 0.241241 0.838257
0.998138 0.266235 0.911652
0.020416 0.360291 0.495605
0.160889 0.361603 0.552399
0.389160 0.401184 0.647919
0.652466 0.446594 0.773132
0.857635 0.462494 0.856598
0.998138 0.478455 0.923126
0.020416 0.565216 0.511414
0.154907 0.586060 0.587311
0.382690 0.613037 0.672668
0.623871 0.631195 0.762390
0.849121 0.659698 0.875275
0.998138 0.665436 0.923126
0.020416 0.738892 0.527832
0.146942 0.758514 0.599945
0.374207 0.778381 0.686768
0.618042 0.801544 0.786011
0.841278 0.824310 0.892853
0.998138 0.826477 0.923126
0.020416 0.892639 0.545349
0.138306 0.917145 0.614044
0.365662 0.927277 0.701263
0.609924 0.948822 0.801697
0.833984 0.970032 0.909210
0.998138 0.973724 0.923126
0.020416 0.020416 0.621429
0.206970 0.020416 0.770142
0.456696 0.020416 0.910156
0.706329 0.020416 0.923126
0.907623 0.020416 0.923126
0.998138 0.055908 0.923126
0.020416 0.124695 0.621429
0.180023 0.164337 0.757904
0.429291 0.200989 0.896271
0.681458 0.233673 0.923126
0.899475 0.237915 0.923126
0.998138 0.266235 0.923126
0.020416 0.338135 0.638062
0.157715 0.350250 0.757904
0.393616 0.397583 0.884094
0.656372 0.442871 0.923126
0.891296 0.459076 0.923126
0.998138 0.478455 0.923126
0.020416 0.565216 0.691376
0.154907 0.585693 0.811340
0.381409 0.592224 0.884094
0.620544 0.621674 0.923126
0.866516 0.656921 0.923126
0.998138 0.665436 0.923126
0.020416 0.738892 0.716522
0.146942 0.758514 0.828949
0.374207 0.778381 0.923126
0.618042 0.801544 0.923126
0.839844 0.817566 0.923126
0.998138 0.826477 0.923126
0.020416 0.892639 0.742035
0.138306 0.917145 0.847076
0.365662 0.927277 0.923126
0.609924 0.948822 0.923126
0.833984 0.970032 0.923126
0.998138 0.973724 0.923126
