Color Lookup Presets Effects/z1 (59).CUBE
#Created by: Adobe Photoshop Export Color Lookup Plugin
#Copyright: (C) Copyright 2014 www.zafizack.com
TITLE "Diean"
#LUT size
LUT_3D_SIZE 6
#data domain
DOMAIN_MIN 0.0 0.0 0.0
DOMAIN_MAX 1.0 1.0 1.0
#LUT data points
0.000000 0.000000 0.000000
0.241302 0.028839 0.013489
0.505219 0.053497 0.025208
0.725342 0.073792 0.034943
0.904755 0.091278 0.043427
1.000000 0.099152 0.047241
0.000183 0.139496 0.077484
0.232300 0.225281 0.131317
0.508942 0.243439 0.120758
0.725189 0.214417 0.105469
0.898743 0.160736 0.077881
1.000000 0.099152 0.047241
0.000519 0.343109 0.197052
0.200104 0.384125 0.181793
0.510864 0.513031 0.315735
0.742310 0.525818 0.306061
0.907379 0.530182 0.296417
1.000000 0.517792 0.281921
0.000732 0.594391 0.333374
0.205078 0.628754 0.299591
0.496338 0.700012 0.362915
0.752899 0.779480 0.490875
0.911133 0.796143 0.505554
1.000000 0.799042 0.505188
0.000305 0.834564 0.425018
0.220337 0.868286 0.388336
0.495087 0.905090 0.409241
0.742004 0.941864 0.511139
0.906219 0.968048 0.606781
1.000000 0.975250 0.658539
0.000000 1.000000 0.489258
0.242584 1.000000 0.445679
0.509155 1.000000 0.440521
0.748322 1.000000 0.525726
0.908539 1.000000 0.610840
1.000000 1.000000 0.681580
0.001160 0.000000 0.068024
0.168365 0.012939 0.034546
0.453552 0.048889 0.023010
0.696899 0.070923 0.033569
0.887604 0.089722 0.042664
1.000000 0.099152 0.047241
0.001221 0.140717 0.140717
0.198181 0.182709 0.150818
0.493164 0.207764 0.132324
0.729218 0.217377 0.106995
0.900543 0.164032 0.079559
1.000000 0.099854 0.047607
0.001617 0.345795 0.266388
0.194305 0.378174 0.258423
0.487610 0.480408 0.334351
0.734406 0.500580 0.314911
0.907959 0.522278 0.299133
1.000000 0.523376 0.285614
0.001923 0.597137 0.408661
0.210175 0.631958 0.399414
0.472687 0.681610 0.403564
0.739899 0.762054 0.506378
0.909668 0.788269 0.507782
1.000000 0.799286 0.506622
0.001556 0.836853 0.504089
0.225647 0.870758 0.490265
0.474426 0.901855 0.459015
0.730194 0.939636 0.538086
0.902435 0.966980 0.616089
1.000000 0.974792 0.657318
0.001282 1.000000 0.565399
0.249115 1.000000 0.529541
0.494354 1.000000 0.483978
0.739471 1.000000 0.550049
0.905518 1.000000 0.620300
1.000000 1.000000 0.679840
0.002899 0.000000 0.187256
0.172058 0.013062 0.153687
0.383179 0.025970 0.113678
0.658844 0.048615 0.038116
0.870392 0.087952 0.041809
1.000000 0.099152 0.047241
0.003021 0.142120 0.266266
0.184814 0.164459 0.258881
0.405762 0.185516 0.222107
0.685028 0.205231 0.154572
0.887909 0.233643 0.115540
1.000000 0.169861 0.082489
0.003204 0.348816 0.380188
0.199371 0.381744 0.378998
0.444366 0.426605 0.392029
0.720215 0.464722 0.341492
0.906525 0.501556 0.307434
1.000000 0.516479 0.289429
0.003571 0.600189 0.531372
0.215546 0.635345 0.529297
0.453796 0.665985 0.525970
0.716248 0.732697 0.559021
0.905304 0.769379 0.522552
1.000000 0.787354 0.508514
0.003326 0.839020 0.628784
0.232788 0.873535 0.622620
0.477539 0.903198 0.615936
0.686920 0.934143 0.603210
0.889435 0.963684 0.653107
1.000000 0.972595 0.665131
0.003113 1.000000 0.691437
0.256348 1.000000 0.663757
0.498840 1.000000 0.640350
0.695679 1.000000 0.613342
0.892090 1.000000 0.657532
1.000000 1.000000 0.696808
0.005402 0.000000 0.394318
0.177429 0.013184 0.357574
0.389862 0.026093 0.315216
0.621399 0.038666 0.267548
0.850250 0.052368 0.090973
1.000000 0.099152 0.047241
0.005524 0.143616 0.475372
0.190613 0.166321 0.465576
0.411957 0.188507 0.427277
0.641968 0.208649 0.382385
0.862579 0.190491 0.195923
1.000000 0.220367 0.131531
0.005676 0.351898 0.591248
0.205750 0.385376 0.586121
0.436829 0.416962 0.577545
0.663605 0.444458 0.534790
0.881500 0.463989 0.396301
1.000000 0.493225 0.341156
0.005859 0.603271 0.730377
0.221863 0.638702 0.724091
0.462341 0.669281 0.716309
0.644073 0.695953 0.651917
0.895538 0.737823 0.581390
1.000000 0.760803 0.535492
0.005737 0.841278 0.835876
0.240753 0.876343 0.826599
0.485809 0.905945 0.817230
0.651337 0.931519 0.761230
0.863434 0.959290 0.740753
1.000000 0.968536 0.696411
0.005615 1.000000 0.904633
0.264069 1.000000 0.871368
0.504456 1.000000 0.844055
0.661987 1.000000 0.774841
0.867035 1.000000 0.750488
1.000000 1.000000 0.756653
0.007904 0.000000 0.636108
0.182953 0.013306 0.597595
0.397705 0.026276 0.553345
0.627930 0.038788 0.507904
0.836151 0.051117 0.465302
1.000000 0.060547 0.343292
0.008026 0.145172 0.716827
0.196533 0.168274 0.694885
0.420349 0.190765 0.654816
0.647858 0.212341 0.615570
0.850189 0.232300 0.578308
1.000000 0.206970 0.453278
0.008148 0.354980 0.831543
0.211884 0.389038 0.812988
0.445465 0.420776 0.790527
0.669006 0.450531 0.756683
0.864410 0.477325 0.723907
1.000000 0.461578 0.616608
0.008331 0.606354 0.968292
0.228088 0.642029 0.947205
0.470612 0.672546 0.923645
0.644562 0.698944 0.881500
0.852295 0.722412 0.842773
1.000000 0.720917 0.735352
0.008484 0.843353 1.000000
0.249115 0.878906 1.000000
0.494324 0.908447 1.000000
0.657166 0.934204 1.000000
0.847107 0.957184 0.954285
1.000000 0.962769 0.858978
0.008453 1.000000 1.000000
0.272217 1.000000 1.000000
0.509857 1.000000 1.000000
0.667603 1.000000 1.000000
0.853058 1.000000 0.970856
1.000000 1.000000 0.937134
0.011963 0.000000 1.000000
0.190643 0.013458 0.962158
0.408447 0.026520 0.910950
0.637817 0.038971 0.859192
0.844482 0.051208 0.812439
1.000000 0.060547 0.774536
0.011963 0.146698 1.000000
0.204315 0.170288 1.000000
0.431213 0.192932 0.986572
0.657593 0.214539 0.940033
0.858063 0.236053 0.899384
1.000000 0.253052 0.868713
0.011963 0.358185 1.000000
0.219818 0.392731 1.000000
0.455902 0.424713 1.000000
0.678040 0.454529 1.000000
0.870483 0.482819 1.000000
1.000000 0.505005 0.991974
0.011963 0.609436 1.000000
0.235992 0.645233 1.000000
0.480896 0.675903 1.000000
0.651550 0.702087 1.000000
0.858887 0.725861 1.000000
1.000000 0.743591 1.000000
0.011963 0.845398 1.000000
0.258453 0.881561 1.000000
0.502533 0.911072 1.000000
0.663940 0.936371 1.000000
0.854340 0.959045 1.000000
1.000000 0.975250 1.000000
0.011963 1.000000 1.000000
0.281403 1.000000 1.000000
0.515778 1.000000 1.000000
0.674225 1.000000 1.000000
0.861084 1.000000 1.000000
1.000000 1.000000 1.000000
