Color Lookup Presets Effects/z1 (68).CUBE
#Created by: Adobe Photoshop Export Color Lookup Plugin
#Copyright: (C) Copyright 2016 www.zafizack.com
TITLE "zafizack pastel color preset"
#LUT size
LUT_3D_SIZE 16
#data domain
DOMAIN_MIN 0.0 0.0 0.0
DOMAIN_MAX 1.0 1.0 1.0
#LUT data points
0.150208 0.067627 0.121643
0.193237 0.077972 0.128601
0.240265 0.089447 0.143585
0.338837 0.111420 0.162689
0.447296 0.133606 0.182495
0.547272 0.153137 0.201141
0.622192 0.171173 0.224274
0.688934 0.188538 0.247162
0.750854 0.204865 0.267578
0.807922 0.221069 0.286987
0.849335 0.239471 0.310394
0.884521 0.259613 0.335175
0.919128 0.281128 0.359192
0.953491 0.302551 0.382202
0.977783 0.319244 0.399719
0.997620 0.333099 0.414001
0.149933 0.115479 0.119934
0.188904 0.122620 0.121704
0.234741 0.149414 0.127777
0.331329 0.171417 0.143311
0.436798 0.193695 0.162598
0.540436 0.213867 0.180511
0.615967 0.231995 0.196442
0.681793 0.250458 0.221283
0.743317 0.268341 0.244415
0.799988 0.285828 0.265961
0.850586 0.303040 0.287598
0.885193 0.322662 0.316803
0.919434 0.342865 0.343933
0.953491 0.363617 0.369598
0.977814 0.380005 0.389709
0.997620 0.393707 0.405426
0.149933 0.189728 0.118500
0.188477 0.196472 0.119995
0.227753 0.203430 0.121643
0.326111 0.235657 0.128448
0.429413 0.258179 0.144684
0.535828 0.279083 0.162567
0.611420 0.296722 0.178101
0.676392 0.314789 0.195587
0.737457 0.332184 0.218719
0.793823 0.349335 0.240845
0.846313 0.365936 0.261566
0.886200 0.383331 0.290039
0.919891 0.402100 0.320892
0.953613 0.420990 0.349518
0.977936 0.436737 0.371857
0.997620 0.449219 0.389099
0.150360 0.272797 0.117371
0.187073 0.277832 0.118347
0.226166 0.284576 0.119720
0.304077 0.292999 0.121552
0.423981 0.330750 0.128998
0.531281 0.352570 0.144928
0.608490 0.370453 0.160126
0.672638 0.388397 0.177612
0.732941 0.405426 0.194183
0.788757 0.422089 0.215332
0.840607 0.438049 0.235840
0.887482 0.453491 0.257904
0.920593 0.469879 0.293304
0.953796 0.486786 0.325500
0.978027 0.497162 0.351685
0.997620 0.503479 0.371246
0.151672 0.362274 0.116699
0.186615 0.365051 0.117126
0.224609 0.371033 0.118073
0.298676 0.378204 0.119537
0.393890 0.387268 0.121979
0.525940 0.429657 0.129578
0.607025 0.448364 0.143707
0.670105 0.465759 0.160950
0.729614 0.482300 0.177277
0.784729 0.497986 0.192566
0.835999 0.511597 0.211517
0.884399 0.520325 0.230957
0.921265 0.527649 0.265381
0.954041 0.535126 0.302795
0.978119 0.541931 0.332825
0.997620 0.547241 0.354156
0.153381 0.454132 0.116028
0.185822 0.455353 0.116058
0.223572 0.460327 0.116913
0.294983 0.466400 0.118042
0.387787 0.473267 0.119446
0.487030 0.481781 0.122467
0.605865 0.522491 0.129852
0.668243 0.532898 0.146942
0.726959 0.542236 0.163544
0.781342 0.551147 0.179108
0.831909 0.559631 0.193573
0.879913 0.567841 0.211456
0.921936 0.575104 0.237579
0.954193 0.580841 0.280701
0.978180 0.586731 0.315186
0.997620 0.591278 0.338837
0.154877 0.534485 0.115509
0.185150 0.535522 0.115295
0.222321 0.538696 0.116028
0.291107 0.542603 0.116943
0.382538 0.546692 0.118073
0.479523 0.551147 0.119446
0.581635 0.556244 0.124268
0.666138 0.582153 0.134705
0.724670 0.591583 0.151794
0.778656 0.600189 0.167206
0.828857 0.608124 0.181549
0.876373 0.615814 0.194763
0.921692 0.623352 0.210724
0.954315 0.627655 0.258942
0.978271 0.632385 0.298920
0.997620 0.636200 0.325165
0.155670 0.591217 0.115295
0.183594 0.591431 0.114960
0.220551 0.594116 0.115631
0.285797 0.597565 0.116547
0.376221 0.601044 0.117706
0.471649 0.604858 0.119049
0.572784 0.609192 0.121277
0.639801 0.613129 0.127075
0.719757 0.638123 0.140259
0.776764 0.649506 0.156586
0.826599 0.657257 0.170837
0.873596 0.664490 0.183807
0.918427 0.671387 0.195313
0.954529 0.675415 0.237457
0.978333 0.678894 0.284454
0.997620 0.681793 0.313934
0.155731 0.647827 0.115417
0.181458 0.647461 0.114807
0.218140 0.649597 0.115509
0.279938 0.652557 0.116455
0.369690 0.655457 0.117615
0.464050 0.658630 0.118927
0.564026 0.662262 0.120575
0.634949 0.665802 0.124237
0.695465 0.669434 0.130005
0.767822 0.691406 0.145477
0.824890 0.706757 0.161194
0.871521 0.713684 0.174103
0.916016 0.720154 0.185455
0.954742 0.724243 0.215637
0.978394 0.725891 0.272644
0.997620 0.728119 0.305786
0.155731 0.704224 0.115631
0.179321 0.703461 0.114624
0.215820 0.704987 0.115387
0.274109 0.707397 0.116302
0.363037 0.709778 0.117462
0.456696 0.712402 0.118835
0.555634 0.715363 0.120422
0.630646 0.718536 0.122498
0.691071 0.721802 0.127228
0.747833 0.725189 0.135468
0.812469 0.744141 0.150360
0.869995 0.763428 0.165344
0.914124 0.769745 0.176758
0.955078 0.774231 0.194183
0.978424 0.773895 0.263519
0.997620 0.775024 0.302094
0.155823 0.760376 0.115875
0.176971 0.759186 0.114441
0.213379 0.760254 0.115173
0.268311 0.762054 0.116119
0.356873 0.764069 0.117310
0.449768 0.766083 0.118622
0.547729 0.768494 0.120178
0.626495 0.771118 0.121857
0.686829 0.774048 0.124786
0.743805 0.777344 0.130127
0.796295 0.780426 0.141663
0.854797 0.796600 0.155090
0.912781 0.819855 0.168854
0.955078 0.825165 0.179230
0.978333 0.822357 0.257874
0.997620 0.822479 0.304504
0.155823 0.816589 0.116241
0.174927 0.815186 0.114227
0.210938 0.815704 0.114960
0.262604 0.816956 0.115906
0.350586 0.818451 0.117065
0.442810 0.819916 0.118408
0.539917 0.821747 0.119965
0.622559 0.824005 0.121613
0.682617 0.826447 0.123322
0.739746 0.829346 0.127533
0.792694 0.832611 0.135681
0.841827 0.835480 0.147400
0.894897 0.848511 0.158966
0.953735 0.875854 0.172150
0.978241 0.871490 0.258148
0.997620 0.870117 0.316132
0.155853 0.864136 0.116455
0.173737 0.863159 0.114136
0.208740 0.863647 0.114746
0.257660 0.864929 0.115723
0.345398 0.866455 0.116882
0.436951 0.867950 0.118164
0.533356 0.869812 0.119720
0.618988 0.871979 0.121399
0.679077 0.874542 0.123047
0.736145 0.877563 0.125671
0.789154 0.880981 0.130554
0.838654 0.884430 0.142151
0.884766 0.887543 0.152740
0.935394 0.900513 0.163513
0.978119 0.918762 0.267365
0.997620 0.916382 0.341400
0.155792 0.907654 0.116699
0.173767 0.906555 0.114105
0.206879 0.906738 0.114594
0.253326 0.907623 0.115540
0.340698 0.908722 0.116669
0.431885 0.910004 0.117950
0.528046 0.911530 0.119537
0.615967 0.913361 0.121185
0.676086 0.915619 0.122803
0.733307 0.918274 0.124634
0.786438 0.921509 0.128815
0.836090 0.924835 0.138184
0.882538 0.928162 0.149139
0.925964 0.930084 0.164154
0.972900 0.941681 0.279755
0.997620 0.953094 0.371857
0.155792 0.951294 0.116943
0.173645 0.950226 0.114075
0.204834 0.950012 0.114410
0.248993 0.950531 0.115356
0.336121 0.951263 0.116455
0.427002 0.952240 0.117798
0.522461 0.953369 0.119293
0.613342 0.954895 0.121002
0.673126 0.956818 0.122589
0.730408 0.959290 0.124359
0.783752 0.962189 0.127472
0.832977 0.962097 0.153656
0.878754 0.962097 0.190826
0.921417 0.961975 0.249542
0.961090 0.961823 0.316467
0.993317 0.976044 0.409027
0.156067 0.994812 0.117310
0.173645 0.994110 0.114014
0.202881 0.993652 0.114227
0.244873 0.993744 0.115143
0.331757 0.994110 0.116272
0.422028 0.994812 0.117554
0.518219 0.994812 0.119232
0.611053 0.994812 0.121399
0.671082 0.994812 0.123993
0.728485 0.994812 0.133179
0.781677 0.994812 0.160431
0.831055 0.994812 0.195038
0.877014 0.994812 0.253693
0.919983 0.994812 0.326080
0.959198 0.994812 0.402863
0.988007 0.994812 0.467987
0.149445 0.065247 0.159637
0.182251 0.066101 0.177673
0.222748 0.073334 0.190491
0.307739 0.081177 0.205811
0.417755 0.093506 0.227753
0.521637 0.109070 0.247772
0.605957 0.122375 0.265137
0.676025 0.138184 0.285065
0.741241 0.153290 0.304108
0.801025 0.168121 0.322083
0.845825 0.187286 0.343048
0.882050 0.209320 0.366119
0.917572 0.231628 0.387848
0.952637 0.253326 0.408752
0.977631 0.270416 0.424347
0.997620 0.284119 0.437531
0.149811 0.107605 0.180908
0.182526 0.109314 0.179779
0.223816 0.128754 0.195862
0.307953 0.151031 0.216888
0.414398 0.172272 0.242340
0.521210 0.191406 0.264587
0.603638 0.207642 0.283142
0.671967 0.224640 0.304230
0.735779 0.240845 0.323425
0.794373 0.256714 0.341614
0.847961 0.272614 0.359100
0.883423 0.293121 0.382996
0.918274 0.315155 0.406311
0.952820 0.337494 0.429260
0.977692 0.355286 0.447052
0.997620 0.369324 0.460754
0.150970 0.183746 0.183075
0.184357 0.184784 0.178009
0.220978 0.190491 0.182800
0.303070 0.217041 0.200836
0.406799 0.239471 0.223724
0.515656 0.260834 0.247498
0.597870 0.278503 0.267517
0.665192 0.296722 0.289307
0.728577 0.314423 0.310974
0.787140 0.331818 0.331573
0.841431 0.348907 0.350677
0.883972 0.367340 0.374817
0.918488 0.387878 0.401031
0.952728 0.408386 0.426086
0.977783 0.425232 0.445526
0.997620 0.437103 0.458710
0.152679 0.266602 0.177124
0.185181 0.266724 0.170044
0.219421 0.271667 0.168396
0.287842 0.280273 0.182068
0.401337 0.312439 0.200623
0.509796 0.334595 0.221497
0.594727 0.352753 0.241638
0.661133 0.371033 0.263153
0.723907 0.388580 0.284515
0.781860 0.405548 0.304718
0.835602 0.421997 0.323456
0.885223 0.437866 0.342407
0.919159 0.456238 0.373260
0.952972 0.474701 0.402039
0.977905 0.488129 0.424683
0.997620 0.496338 0.442474
0.154419 0.355743 0.172180
0.186615 0.355133 0.164093
0.217834 0.358612 0.155518
0.282166 0.365875 0.167969
0.377808 0.375031 0.183716
0.503571 0.411957 0.201111
0.592804 0.431305 0.219116
0.658356 0.449066 0.240631
0.720306 0.466064 0.261566
0.777557 0.482330 0.281250
0.830597 0.497833 0.299591
0.880554 0.510773 0.317352
0.919739 0.519226 0.345795
0.953186 0.527496 0.379974
0.977966 0.535126 0.406525
0.997620 0.540894 0.426147
0.156219 0.447388 0.165985
0.187988 0.446869 0.157837
0.216858 0.449158 0.143066
0.278564 0.455200 0.154663
0.371552 0.462097 0.168762
0.471863 0.470947 0.184265
0.591766 0.509552 0.200134
0.656555 0.522919 0.219299
0.717529 0.532623 0.240906
0.774048 0.541809 0.260986
0.826508 0.550598 0.279388
0.875946 0.558960 0.296906
0.920410 0.566956 0.317352
0.953247 0.573730 0.357178
0.978027 0.580414 0.388306
0.997620 0.585388 0.410217
0.157806 0.529938 0.162140
0.189362 0.529388 0.153839
0.215576 0.530792 0.138184
0.274902 0.535553 0.143982
0.366455 0.539642 0.157379
0.463959 0.544281 0.171478
0.567383 0.549469 0.187378
0.653992 0.572784 0.203735
0.715027 0.582550 0.224243
0.771179 0.591400 0.244324
0.823212 0.599701 0.262451
0.872131 0.607635 0.279602
0.918793 0.615448 0.294281
0.953430 0.620850 0.335388
0.978149 0.626434 0.372070
0.997620 0.630615 0.396515
0.158752 0.587738 0.160278
0.189972 0.587311 0.152039
0.213959 0.587921 0.134705
0.270050 0.591187 0.139679
0.360321 0.594727 0.149139
0.456360 0.598602 0.162720
0.558960 0.603058 0.177948
0.630249 0.607147 0.191223
0.712921 0.632446 0.207703
0.769196 0.641388 0.228485
0.820862 0.649475 0.246674
0.869354 0.656830 0.263580
0.915436 0.664154 0.277924
0.953644 0.669128 0.312744
0.978180 0.673248 0.356812
0.997620 0.676666 0.384430
0.158875 0.644470 0.161133
0.190002 0.643982 0.152985
0.211609 0.644135 0.132843
0.264069 0.646881 0.137451
0.353790 0.649841 0.143585
0.448761 0.653107 0.156311
0.549805 0.656799 0.170593
0.625366 0.660461 0.183472
0.687622 0.664246 0.196106
0.762695 0.686768 0.212463
0.819061 0.699493 0.232452
0.867218 0.706726 0.249512
0.912872 0.713501 0.263611
0.953888 0.718475 0.290405
0.978271 0.720886 0.343781
0.997620 0.723358 0.375610
0.158966 0.700989 0.162109
0.189972 0.700562 0.154053
0.209259 0.700348 0.132202
0.258362 0.702545 0.135345
0.347168 0.704865 0.140717
0.441315 0.707550 0.150360
0.541351 0.710632 0.163940
0.620850 0.713867 0.176422
0.683014 0.717285 0.188629
0.741699 0.720764 0.200867
0.808716 0.740204 0.217163
0.865601 0.757080 0.236481
0.910950 0.763550 0.250732
0.954163 0.769104 0.267120
0.978271 0.769379 0.333130
0.997620 0.770905 0.370667
0.159088 0.757294 0.162781
0.189880 0.756836 0.154785
0.207306 0.756439 0.132202
0.252625 0.757996 0.133881
0.341095 0.759796 0.138428
0.434509 0.761993 0.144928
0.533539 0.764404 0.157562
0.616669 0.767151 0.169678
0.678650 0.770111 0.181427
0.737640 0.773529 0.193512
0.791840 0.776825 0.205109
0.852112 0.793274 0.221375
0.909546 0.814362 0.238800
0.953003 0.819855 0.252350
0.978180 0.818542 0.325531
0.997620 0.818848 0.371368
0.159210 0.813660 0.164093
0.189880 0.813171 0.156281
0.207275 0.812683 0.132965
0.247009 0.813599 0.133423
0.334961 0.814941 0.136505
0.427368 0.816467 0.141541
0.525696 0.818359 0.152222
0.612488 0.820618 0.163971
0.674255 0.823151 0.175110
0.733337 0.826202 0.186676
0.787964 0.829529 0.198334
0.838470 0.832520 0.209839
0.893127 0.845886 0.224976
0.951660 0.871094 0.242157
0.978119 0.868164 0.324097
0.997620 0.867157 0.381500
0.159241 0.861542 0.164276
0.189453 0.861542 0.156342
0.206879 0.861450 0.133331
0.244019 0.862427 0.133179
0.329742 0.863647 0.135254
0.421875 0.865265 0.139526
0.518982 0.867126 0.147308
0.609009 0.869415 0.158539
0.670685 0.871979 0.169067
0.729706 0.875153 0.180176
0.784454 0.878571 0.191437
0.835236 0.882141 0.202911
0.882568 0.885284 0.214355
0.934326 0.898499 0.228851
0.977966 0.916412 0.329773
0.997620 0.914032 0.403809
0.159271 0.905090 0.165466
0.189423 0.905060 0.157654
0.206818 0.904877 0.134003
0.242096 0.905518 0.133057
0.325256 0.906494 0.134888
0.416779 0.907715 0.138428
0.513489 0.909241 0.144257
0.605896 0.911194 0.155487
0.667664 0.913452 0.165466
0.726685 0.916229 0.176300
0.781555 0.919556 0.187195
0.832611 0.923004 0.198578
0.880219 0.926331 0.208710
0.924927 0.928894 0.222229
0.973206 0.941467 0.340057
0.997620 0.951141 0.426758
0.159271 0.948853 0.165070
0.188873 0.948883 0.157227
0.206268 0.948639 0.134216
0.240448 0.949005 0.132751
0.321014 0.949554 0.134552
0.412292 0.950439 0.136902
0.508423 0.951538 0.141632
0.603363 0.953156 0.151245
0.664825 0.955109 0.160889
0.723938 0.957642 0.171112
0.778748 0.960663 0.181732
0.829956 0.961975 0.204224
0.877136 0.961914 0.251404
0.920837 0.961823 0.309540
0.961395 0.961700 0.373596
0.993683 0.976044 0.459778
0.159302 0.992859 0.166809
0.188904 0.992798 0.158905
0.206329 0.992462 0.135010
0.238464 0.992645 0.132599
0.316315 0.992859 0.134399
0.407074 0.993378 0.136292
0.502838 0.994110 0.140533
0.600677 0.994812 0.150513
0.662750 0.994812 0.165894
0.722443 0.994812 0.186127
0.777588 0.994812 0.213318
0.828522 0.994812 0.259766
0.875763 0.994812 0.316345
0.919708 0.994812 0.386780
0.958862 0.994812 0.453461
0.988342 0.994812 0.509552
0.150757 0.064758 0.215057
0.183411 0.064301 0.268341
0.216034 0.065247 0.268555
0.276306 0.070648 0.274689
0.386475 0.077667 0.297028
0.492432 0.083832 0.316559
0.585968 0.093811 0.333038
0.659485 0.108215 0.351257
0.728668 0.123169 0.369110
0.791840 0.137939 0.385834
0.840729 0.157990 0.404175
0.878510 0.182709 0.424927
0.915253 0.207367 0.444977
0.951355 0.231140 0.464386
0.977356 0.249664 0.479126
0.997620 0.264771 0.490997
0.150360 0.099487 0.263031
0.182526 0.102478 0.270752
0.216187 0.104462 0.268280
0.276489 0.116058 0.276764
0.383575 0.134583 0.298157
0.492645 0.151367 0.317871
0.584198 0.165680 0.333710
0.655945 0.180145 0.351013
0.723633 0.194977 0.368286
0.785522 0.209473 0.384521
0.842529 0.223724 0.399475
0.880371 0.246307 0.420410
0.916321 0.269196 0.441071
0.951752 0.292267 0.461243
0.977539 0.310211 0.477112
0.997620 0.324890 0.489685
0.150391 0.171387 0.268860
0.182587 0.176117 0.272797
0.217163 0.179718 0.272278
0.279114 0.190948 0.280975
0.383820 0.209961 0.302155
0.495361 0.227661 0.321838
0.584351 0.243317 0.338867
0.654114 0.259857 0.357758
0.720154 0.276306 0.376831
0.780975 0.292999 0.395355
0.837006 0.309479 0.412842
0.882141 0.328857 0.433075
0.917297 0.352539 0.457092
0.952118 0.375336 0.479340
0.977600 0.390991 0.492462
0.997620 0.403503 0.502716
0.151276 0.261261 0.281769
0.182678 0.262604 0.274963
0.217499 0.262909 0.269135
0.274261 0.268005 0.271332
0.380310 0.294220 0.295868
0.489197 0.316406 0.319214
0.581299 0.334991 0.338379
0.649689 0.353119 0.358185
0.714752 0.371002 0.378174
0.774872 0.388397 0.397034
0.830292 0.405090 0.414398
0.882416 0.421387 0.430481
0.917572 0.441620 0.455811
0.951874 0.460083 0.476837
0.977631 0.474609 0.491699
0.997620 0.481506 0.503540
0.153046 0.350037 0.275116
0.184174 0.350891 0.264893
0.218140 0.350494 0.257904
0.268646 0.354126 0.250427
0.364319 0.363525 0.270721
0.483154 0.394531 0.294434
0.578918 0.414398 0.314484
0.646851 0.432373 0.333893
0.710907 0.449799 0.353363
0.770355 0.466400 0.372040
0.825226 0.482422 0.388947
0.876648 0.497955 0.405029
0.918304 0.510223 0.428131
0.952271 0.519775 0.457428
0.977783 0.526642 0.477203
0.997620 0.531403 0.489929
0.154816 0.441437 0.268036
0.185577 0.442413 0.256378
0.219238 0.441681 0.248749
0.265015 0.444305 0.231995
0.358093 0.451416 0.250458
0.458740 0.460297 0.271118
0.577271 0.494385 0.292053
0.644928 0.510071 0.312256
0.708069 0.522766 0.332245
0.766785 0.532257 0.351105
0.820923 0.541260 0.368347
0.871765 0.549866 0.384430
0.918823 0.558441 0.400726
0.952393 0.566223 0.435577
0.977905 0.573700 0.463501
0.997620 0.577637 0.477814
0.156433 0.525696 0.261780
0.187042 0.526245 0.249084
0.220215 0.525452 0.241150
0.261536 0.526947 0.216919
0.353027 0.532379 0.233063
0.450989 0.537598 0.252228
0.554657 0.542908 0.272766
0.642517 0.563354 0.293365
0.705597 0.573486 0.314240
0.763885 0.582550 0.332916
0.817596 0.591003 0.349854
0.867950 0.599304 0.365570
0.915833 0.607208 0.379364
0.952515 0.613739 0.413208
0.977966 0.620087 0.446564
0.997620 0.624298 0.466309
0.157440 0.584412 0.259125
0.187805 0.584869 0.245819
0.220703 0.584198 0.237640
0.257019 0.584961 0.208282
0.347198 0.588531 0.220367
0.443359 0.592499 0.238953
0.547058 0.597107 0.258911
0.621826 0.601288 0.276184
0.703308 0.623993 0.296906
0.761627 0.633209 0.316559
0.815094 0.641449 0.333466
0.865082 0.649139 0.348999
0.912354 0.656494 0.362335
0.952698 0.662476 0.390472
0.978058 0.667328 0.431152
0.997620 0.671265 0.455933
0.157562 0.641205 0.258850
0.187866 0.641724 0.245209
0.220398 0.640991 0.236877
0.251251 0.641388 0.201752
0.340698 0.644409 0.213440
0.435852 0.647736 0.228119
0.537933 0.651520 0.247009
0.616913 0.655273 0.263916
0.680664 0.659149 0.280365
0.758087 0.682098 0.300110
0.813293 0.692169 0.318207
0.862915 0.699585 0.333710
0.909729 0.706512 0.346924
0.952972 0.712280 0.366699
0.978149 0.715546 0.417206
0.997620 0.718506 0.446045
0.157684 0.697784 0.258728
0.187866 0.698395 0.245087
0.220215 0.697632 0.236603
0.245575 0.697693 0.195923
0.334320 0.700073 0.207031
0.428497 0.702850 0.218964
0.529205 0.706024 0.236206
0.612152 0.709229 0.252930
0.675812 0.712830 0.268951
0.736298 0.716461 0.284882
0.805267 0.736206 0.302643
0.861237 0.750671 0.319977
0.907806 0.757233 0.333282
0.952576 0.763214 0.345276
0.978119 0.764526 0.405334
0.997620 0.766479 0.440033
0.157806 0.754211 0.258392
0.187775 0.754761 0.244598
0.219910 0.753937 0.236145
0.243286 0.753876 0.190643
0.328156 0.755707 0.200867
0.421509 0.757813 0.212219
0.521210 0.760437 0.225861
0.607849 0.763184 0.242310
0.671417 0.766296 0.257629
0.731964 0.769806 0.273590
0.787750 0.773132 0.288574
0.849609 0.789948 0.304657
0.906372 0.808563 0.320404
0.950836 0.814270 0.332428
0.978027 0.814301 0.396027
0.997620 0.814941 0.439209
0.157867 0.810638 0.258881
0.187805 0.811157 0.244873
0.219666 0.810394 0.236389
0.241943 0.810272 0.187714
0.321930 0.811371 0.195251
0.414795 0.812988 0.206116
0.513397 0.815033 0.217712
0.603577 0.817291 0.232483
0.666931 0.819916 0.247040
0.727570 0.823059 0.262512
0.783752 0.826447 0.277893
0.835480 0.829498 0.292389
0.891449 0.843140 0.306091
0.949463 0.866089 0.321045
0.977936 0.864655 0.391785
0.997620 0.863800 0.445374
0.157928 0.858673 0.257751
0.187531 0.859741 0.244049
0.219299 0.859436 0.235779
0.241394 0.859680 0.186798
0.316925 0.860840 0.190247
0.408997 0.862457 0.200653
0.506561 0.864441 0.211609
0.600006 0.866760 0.223724
0.662994 0.869415 0.237518
0.723694 0.872559 0.252502
0.779907 0.876190 0.267334
0.832123 0.879822 0.282196
0.880585 0.883057 0.295074
0.933350 0.896301 0.307922
0.977814 0.913818 0.394653
0.997620 0.911255 0.459503
0.157990 0.902344 0.257446
0.187653 0.903351 0.243591
0.218933 0.903076 0.235321
0.240845 0.903198 0.186310
0.312500 0.904114 0.186310
0.404083 0.905334 0.196503
0.501221 0.906982 0.207092
0.597168 0.908905 0.218109
0.660126 0.911255 0.230408
0.720703 0.914154 0.244873
0.777039 0.917511 0.259583
0.829498 0.921082 0.274292
0.878143 0.924530 0.287720
0.923828 0.927124 0.299683
0.973602 0.941193 0.401306
0.997620 0.949066 0.479065
0.158020 0.946136 0.256165
0.187256 0.947235 0.242706
0.218384 0.946899 0.234375
0.240143 0.947021 0.185089
0.308289 0.947540 0.182220
0.399628 0.948425 0.192200
0.495941 0.949646 0.202515
0.594452 0.951294 0.213287
0.657166 0.953369 0.223114
0.717712 0.955902 0.237000
0.774231 0.958923 0.251343
0.826782 0.961761 0.270294
0.875458 0.961761 0.316193
0.920288 0.961700 0.371613
0.961487 0.961578 0.430817
0.994171 0.976013 0.512634
0.158020 0.990234 0.255280
0.187378 0.991180 0.242157
0.218048 0.990906 0.233826
0.239624 0.991028 0.184875
0.303894 0.991302 0.178650
0.394897 0.991760 0.188293
0.490784 0.992676 0.198181
0.591370 0.993927 0.208954
0.654785 0.994812 0.220612
0.716370 0.994812 0.247437
0.773438 0.994812 0.281647
0.825897 0.994812 0.325470
0.874298 0.994812 0.380066
0.918121 0.994812 0.439850
0.958618 0.994812 0.505707
0.988770 0.994812 0.545074
0.152039 0.064270 0.284088
0.184235 0.062653 0.372986
0.216919 0.063599 0.375061
0.271362 0.063568 0.378265
0.357361 0.067719 0.375336
0.464722 0.073029 0.394714
0.561615 0.077667 0.410797
0.642853 0.083160 0.427002
0.715607 0.094879 0.443756
0.782288 0.109344 0.459412
0.835480 0.129211 0.474823
0.874847 0.156311 0.492310
0.912811 0.182831 0.509766
0.949921 0.208344 0.526886
0.977112 0.228333 0.538879
0.997620 0.244354 0.547394
0.151001 0.095551 0.350311
0.183502 0.097839 0.373138
0.217041 0.099976 0.372803
0.267883 0.097382 0.373993
0.353546 0.107697 0.373810
0.464172 0.123566 0.393005
0.558533 0.137299 0.408356
0.638580 0.150818 0.423767
0.709808 0.165405 0.439941
0.775269 0.179535 0.454895
0.835236 0.193451 0.468628
0.876617 0.217560 0.486115
0.913757 0.243103 0.504181
0.950317 0.268402 0.522552
0.977264 0.288086 0.536316
0.997620 0.304169 0.545349
0.151093 0.163300 0.363098
0.182220 0.167267 0.376404
0.216034 0.169464 0.374725
0.267517 0.173187 0.372681
0.352966 0.181427 0.374939
0.465179 0.198547 0.393921
0.557861 0.212433 0.408691
0.636383 0.226166 0.423370
0.706024 0.240662 0.439117
0.770447 0.255096 0.454041
0.829376 0.268860 0.467712
0.878387 0.286621 0.483154
0.914856 0.310638 0.502411
0.950775 0.334015 0.521271
0.977386 0.352936 0.535950
0.997620 0.366150 0.543732
0.151154 0.242523 0.368103
0.181244 0.247253 0.372498
0.215942 0.251709 0.372803
0.268890 0.258209 0.376099
0.355377 0.266174 0.379456
0.465149 0.284607 0.398438
0.560822 0.299652 0.413391
0.636719 0.313660 0.427765
0.704559 0.328217 0.443146
0.767303 0.342529 0.457977
0.824768 0.358887 0.474152
0.878448 0.375336 0.489746
0.915924 0.397125 0.509277
0.950684 0.417267 0.525848
0.977417 0.434479 0.538635
0.997620 0.447449 0.547180
0.151733 0.344635 0.390320
0.181580 0.346588 0.384918
0.215485 0.346100 0.378021
0.266541 0.346954 0.372894
0.351685 0.351685 0.372955
0.462677 0.376282 0.395996
0.560638 0.396423 0.415863
0.634644 0.414276 0.433624
0.700836 0.431915 0.452087
0.762054 0.448181 0.467987
0.818359 0.463379 0.481598
0.871368 0.478088 0.494324
0.915710 0.492737 0.509033
0.950317 0.503204 0.528412
0.977386 0.512451 0.542572
0.997620 0.518036 0.552063
0.153412 0.435638 0.386017
0.183044 0.438019 0.377502
0.216583 0.437256 0.370026
0.268280 0.437469 0.363831
0.345184 0.440186 0.353333
0.445923 0.449188 0.373138
0.558533 0.477173 0.393738
0.632721 0.495483 0.412262
0.697968 0.509094 0.431122
0.758728 0.521271 0.448700
0.814758 0.530823 0.464722
0.866882 0.539093 0.477814
0.916565 0.547302 0.489349
0.950684 0.553741 0.511902
0.977539 0.560150 0.531189
0.997620 0.564972 0.542297
0.155090 0.521515 0.381866
0.184509 0.523193 0.371307
0.217590 0.522339 0.363495
0.269928 0.522003 0.356537
0.340088 0.523315 0.336853
0.438232 0.529297 0.354919
0.541656 0.535919 0.374390
0.630066 0.553009 0.393555
0.695129 0.563263 0.413574
0.755554 0.572449 0.431091
0.811127 0.581146 0.446960
0.863159 0.589478 0.461456
0.912262 0.597656 0.474121
0.951141 0.603485 0.495148
0.977661 0.608521 0.518127
