Color Lookup Presets Effects/z1 (98).CUBE
#Created by: Adobe Photoshop Export Color Lookup Plugin
#Copyright: (C) Copyright 2015 www.zafizack.com
TITLE "zafizack-VG-Olivia"
#LUT size
LUT_3D_SIZE 16
#data domain
DOMAIN_MIN 0.0 0.0 0.0
DOMAIN_MAX 1.0 1.0 1.0
#LUT data points
0.067780 0.076263 0.096771
0.093384 0.076447 0.096619
0.132568 0.076660 0.096436
0.187317 0.076904 0.096222
0.267548 0.077148 0.096039
0.363159 0.077423 0.095795
0.464478 0.077728 0.095551
0.561188 0.078003 0.095337
0.623810 0.078308 0.095123
0.682404 0.078613 0.094879
0.737366 0.078918 0.094604
0.789398 0.079285 0.094360
0.839111 0.079590 0.094116
0.886963 0.079926 0.093842
0.933319 0.080261 0.093597
0.978882 0.080627 0.093323
0.068665 0.117065 0.096313
0.094513 0.117340 0.096130
0.134155 0.117706 0.095917
0.189453 0.118073 0.095703
0.270203 0.118469 0.095459
0.365967 0.118866 0.095215
0.467163 0.119324 0.095001
0.562836 0.119720 0.094727
0.625214 0.120178 0.094452
0.683533 0.120605 0.094208
0.738312 0.121063 0.093933
0.790131 0.121552 0.093689
0.839630 0.122009 0.093414
0.887329 0.122498 0.093140
0.933502 0.122986 0.092865
0.978882 0.123444 0.092590
0.069519 0.168823 0.095856
0.095642 0.169281 0.095673
0.135651 0.169739 0.095428
0.191467 0.170288 0.095184
0.272705 0.170868 0.094940
0.368683 0.171448 0.094666
0.469788 0.172028 0.094391
0.564331 0.172638 0.094177
0.626465 0.173248 0.093872
0.684570 0.173889 0.093628
0.739197 0.174500 0.093353
0.790802 0.175140 0.093079
0.840118 0.175751 0.092834
0.887634 0.176422 0.092529
0.933655 0.177032 0.092255
0.978882 0.177734 0.091980
0.070374 0.234222 0.095398
0.096741 0.234833 0.095184
0.137177 0.235504 0.094940
0.193481 0.236206 0.094696
0.275208 0.236938 0.094421
0.371338 0.237671 0.094177
0.472198 0.238434 0.093872
0.565765 0.239258 0.093628
0.627625 0.240021 0.093353
0.685577 0.240784 0.093079
0.739960 0.241547 0.092804
0.791412 0.242340 0.092529
0.840546 0.243103 0.092224
0.887909 0.243958 0.091949
0.933807 0.244751 0.091675
0.978882 0.245575 0.091400
0.071472 0.327576 0.094879
0.098083 0.328247 0.094635
0.138947 0.328918 0.094391
0.195831 0.329773 0.094116
0.278107 0.330597 0.093842
0.374359 0.331451 0.093567
0.474945 0.332275 0.093292
0.567413 0.333191 0.093018
0.629028 0.334015 0.092712
0.686676 0.334900 0.092438
0.740845 0.335724 0.092163
0.792114 0.336609 0.091888
0.841064 0.337433 0.091583
0.888245 0.338348 0.091309
0.933990 0.339142 0.091034
0.978882 0.340027 0.090759
0.072601 0.433136 0.094269
0.099487 0.433899 0.094086
0.140900 0.434631 0.093781
0.198395 0.435394 0.093506
0.281219 0.436188 0.093231
0.377472 0.437012 0.092926
0.477905 0.437866 0.092651
0.569122 0.438660 0.092346
0.630463 0.439453 0.092102
0.687836 0.440338 0.091797
0.741730 0.441071 0.091492
0.792755 0.441925 0.091217
0.841553 0.442749 0.090942
0.888580 0.443542 0.090698
0.934113 0.444336 0.090393
0.978882 0.445129 0.090118
0.073761 0.533386 0.093719
0.100952 0.534027 0.093475
0.142822 0.534760 0.093201
0.200897 0.535339 0.092926
0.284210 0.536102 0.092621
0.380585 0.536835 0.092316
0.480682 0.537476 0.092072
0.570709 0.538208 0.091766
0.631775 0.538910 0.091461
0.688965 0.539551 0.091187
0.742615 0.540283 0.090912
0.793427 0.540924 0.090637
0.842072 0.541626 0.090332
0.888885 0.542297 0.090057
0.934265 0.542969 0.089813
0.978882 0.543610 0.089539
0.074921 0.601105 0.093201
0.102386 0.601440 0.092926
0.144684 0.601898 0.092651
0.203400 0.602295 0.092346
0.287140 0.602722 0.092072
0.383484 0.603119 0.091766
0.483337 0.603516 0.091461
0.572296 0.603943 0.091187
0.633087 0.604401 0.090912
0.689941 0.604767 0.090607
0.743469 0.605194 0.090332
0.794037 0.605560 0.090057
0.842529 0.605957 0.089813
0.889160 0.606384 0.089539
0.934418 0.606750 0.089264
0.978882 0.607147 0.088989
0.076050 0.658203 0.092651
0.103790 0.658478 0.092377
0.146545 0.658844 0.092102
0.205750 0.659180 0.091827
0.289886 0.659485 0.091522
0.386383 0.659851 0.091217
0.485962 0.660217 0.090912
0.573730 0.660553 0.090637
0.634277 0.660828 0.090332
0.690948 0.661194 0.090057
0.744202 0.661499 0.089813
0.794647 0.661804 0.089539
0.842926 0.662170 0.089264
0.889435 0.662445 0.089020
0.934540 0.662720 0.088745
0.978882 0.663055 0.088501
0.077148 0.709717 0.092133
0.105164 0.709961 0.091888
0.148346 0.710236 0.091583
0.208099 0.710510 0.091309
0.292694 0.710785 0.091003
0.389038 0.711029 0.090698
0.488312 0.711334 0.090424
0.575134 0.711578 0.090118
0.635406 0.711884 0.089844
0.691864 0.712128 0.089569
0.744904 0.712402 0.089325
0.795197 0.712616 0.089020
0.843292 0.712860 0.088806
0.889709 0.713135 0.088531
0.934662 0.713348 0.088318
0.978882 0.713623 0.088074
0.078217 0.756836 0.091614
0.106537 0.757019 0.091370
0.150208 0.757263 0.091095
0.210388 0.757477 0.090790
0.295227 0.757690 0.090485
0.391663 0.757874 0.090210
0.490692 0.758087 0.089935
0.576416 0.758301 0.089630
0.636444 0.758514 0.089386
0.692688 0.758698 0.089111
0.745605 0.758911 0.088867
0.795715 0.759094 0.088593
0.843658 0.759308 0.088348
0.889923 0.759491 0.088104
0.934784 0.759674 0.087860
0.978882 0.759857 0.087616
0.079285 0.800415 0.091156
0.107849 0.800568 0.090912
0.151917 0.800690 0.090607
0.212616 0.800873 0.090332
0.297821 0.801056 0.090027
0.394104 0.801208 0.089752
0.492889 0.801361 0.089447
0.577667 0.801514 0.089203
0.637512 0.801636 0.088928
0.693542 0.801819 0.088654
0.746216 0.801971 0.088409
0.796204 0.802094 0.088165
0.843994 0.802246 0.087921
0.890106 0.802368 0.087708
0.934906 0.802490 0.087463
0.978882 0.802643 0.087250
0.080322 0.841217 0.090698
0.109131 0.841278 0.090424
0.153595 0.841431 0.090149
0.214722 0.841522 0.089874
0.300201 0.841644 0.089600
0.396545 0.841736 0.089325
0.494934 0.841858 0.089020
0.578888 0.842010 0.088776
0.638458 0.842102 0.088501
0.694275 0.842224 0.088257
0.746857 0.842316 0.088013
0.796631 0.842407 0.087769
0.844330 0.842529 0.087555
0.890320 0.842590 0.087311
0.934967 0.842682 0.087097
0.978882 0.842773 0.086914
0.081360 0.879944 0.090240
0.110413 0.880005 0.089996
0.155243 0.880096 0.089722
0.216797 0.880157 0.089447
0.302551 0.880249 0.089142
0.398834 0.880280 0.088867
0.496979 0.880371 0.088623
0.579987 0.880432 0.088348
0.639343 0.880493 0.088104
0.695007 0.880585 0.087860
0.747406 0.880646 0.087616
0.797058 0.880707 0.087402
0.844604 0.880737 0.087189
0.890503 0.880798 0.086975
0.935028 0.880859 0.086792
0.978882 0.880890 0.086578
0.082367 0.917175 0.089813
0.111664 0.917206 0.089569
0.156891 0.917236 0.089294
0.218842 0.917267 0.089020
0.304779 0.917267 0.088745
0.401031 0.917328 0.088470
0.498932 0.917358 0.088226
0.581055 0.917358 0.087952
0.640228 0.917389 0.087738
0.695709 0.917419 0.087494
0.747925 0.917450 0.087280
0.797455 0.917480 0.087067
0.844910 0.917511 0.086853
0.890686 0.917542 0.086639
0.935150 0.917542 0.086456
0.978882 0.917603 0.086273
0.083313 0.951324 0.089386
0.112823 0.951324 0.089172
0.158325 0.951324 0.088898
0.220734 0.951324 0.088654
0.306854 0.951324 0.088348
0.402985 0.951324 0.088104
0.500610 0.951324 0.087860
0.582092 0.951324 0.087616
0.640961 0.951324 0.087372
0.696289 0.951324 0.087158
0.748383 0.951324 0.086945
0.797791 0.951324 0.086731
0.845123 0.951324 0.086548
0.890839 0.951324 0.086365
0.935211 0.951324 0.086182
0.978882 0.951324 0.086029
0.067963 0.076355 0.143494
0.093628 0.076569 0.143280
0.132904 0.076813 0.143036
0.187714 0.077057 0.142792
0.268005 0.077301 0.142517
0.363708 0.077576 0.142212
0.465027 0.077881 0.141876
0.561523 0.078186 0.141571
0.624115 0.078491 0.141266
0.682617 0.078766 0.140930
0.737579 0.079102 0.140594
0.789551 0.079437 0.140259
0.839233 0.079773 0.139923
0.887054 0.080109 0.139557
0.933380 0.080444 0.139221
0.978882 0.080811 0.138855
0.068878 0.117218 0.142883
0.094788 0.117523 0.142639
0.134491 0.117859 0.142365
0.189880 0.118256 0.142059
0.270782 0.118683 0.141724
0.366699 0.119080 0.141388
0.467834 0.119537 0.141083
0.563171 0.119965 0.140747
0.625549 0.120392 0.140381
0.683807 0.120850 0.140015
0.738525 0.121338 0.139709
0.790283 0.121796 0.139343
0.839783 0.122253 0.138977
0.887390 0.122742 0.138641
0.933563 0.123260 0.138245
0.978882 0.123718 0.137878
0.069763 0.169098 0.142273
0.095917 0.169525 0.141998
0.136017 0.170044 0.141663
0.191956 0.170563 0.141357
0.273407 0.171143 0.141022
0.369354 0.171753 0.140686
0.470367 0.172333 0.140320
0.564728 0.172974 0.139954
0.626801 0.173553 0.139587
0.684845 0.174194 0.139252
0.739319 0.174805 0.138855
0.790955 0.175476 0.138519
0.840240 0.176086 0.138184
0.887665 0.176788 0.137756
0.933716 0.177399 0.137451
0.978882 0.178070 0.137054
0.070648 0.234558 0.141663
0.097046 0.235168 0.141357
0.137573 0.235870 0.141052
0.194031 0.236572 0.140686
0.275909 0.237335 0.140350
0.372009 0.238129 0.139984
0.472809 0.238892 0.139587
0.566132 0.239655 0.139252
0.627960 0.240387 0.138855
0.685822 0.241211 0.138489
0.740143 0.242035 0.138153
0.791565 0.242798 0.137756
0.840698 0.243591 0.137390
0.887970 0.244415 0.137024
0.933838 0.245209 0.136627
0.978882 0.246033 0.136322
0.071716 0.327911 0.140930
0.098389 0.328583 0.140656
0.139374 0.329376 0.140289
0.196381 0.330200 0.139923
0.278809 0.331085 0.139526
0.375031 0.331879 0.139191
0.475586 0.332703 0.138794
0.567749 0.333588 0.138397
0.629333 0.334473 0.138062
0.686951 0.335327 0.137665
0.741058 0.336243 0.137299
0.792236 0.337036 0.136932
0.841156 0.337921 0.136536
0.888336 0.338776 0.136200
0.933990 0.339630 0.135803
0.978882 0.340515 0.135468
0.072876 0.433594 0.140167
0.099884 0.434265 0.139832
0.141357 0.435028 0.139496
0.199005 0.435822 0.139130
0.281982 0.436646 0.138733
0.378235 0.437531 0.138306
0.478577 0.438232 0.137909
0.569550 0.439117 0.137573
0.630768 0.439941 0.137177
0.688110 0.440735 0.136810
0.741974 0.441528 0.136414
0.792938 0.442322 0.136047
0.841675 0.443176 0.135681
0.888641 0.443909 0.135284
0.934143 0.444733 0.134949
0.978882 0.445557 0.134583
0.074066 0.533813 0.139404
0.101318 0.534363 0.139038
0.143341 0.535034 0.138702
0.201508 0.535736 0.138306
0.285004 0.536469 0.137909
0.381317 0.537140 0.137543
0.481354 0.537842 0.137146
0.571167 0.538605 0.136749
0.632111 0.539215 0.136383
0.689209 0.539886 0.135986
0.742859 0.540649 0.135620
0.793610 0.541290 0.135254
0.842163 0.542023 0.134888
0.888977 0.542664 0.134552
0.934326 0.543304 0.134186
0.978882 0.543915 0.133789
0.075226 0.601349 0.138672
0.102783 0.601685 0.138306
0.145233 0.602112 0.137909
0.204071 0.602509 0.137573
0.287903 0.602905 0.137146
0.384338 0.603363 0.136749
0.484100 0.603729 0.136383
0.572693 0.604156 0.135986
0.633392 0.604584 0.135620
0.690216 0.604950 0.135223
0.743652 0.605377 0.134857
0.794250 0.605804 0.134521
0.842621 0.606171 0.134155
0.889221 0.606567 0.133789
0.934448 0.606903 0.133453
0.978882 0.607330 0.133087
0.076355 0.658386 0.137939
0.104187 0.658661 0.137634
0.147095 0.658997 0.137207
0.206451 0.659332 0.136841
0.290710 0.659698 0.136444
0.387146 0.660034 0.136017
0.486725 0.660370 0.135651
0.574188 0.660706 0.135284
0.634583 0.661041 0.134888
0.691162 0.661377 0.134552
0.744415 0.661652 0.134155
0.794800 0.661987 0.133789
0.843018 0.662323 0.133453
0.889496 0.662628 0.133118
0.934601 0.662903 0.132782
0.978882 0.663208 0.132416
0.077454 0.709869 0.137268
0.105560 0.710114 0.136932
0.148926 0.710388 0.136536
0.208832 0.710663 0.136169
0.293457 0.710907 0.135742
0.389832 0.711212 0.135345
0.489075 0.711487 0.134949
0.575562 0.711761 0.134583
0.635712 0.712006 0.134216
0.692108 0.712311 0.133850
0.745117 0.712524 0.133514
0.795349 0.712738 0.133148
0.843414 0.712982 0.132843
0.889771 0.713226 0.132446
0.934692 0.713501 0.132141
0.978882 0.713715 0.131836
0.078552 0.756927 0.136597
0.106934 0.757111 0.136261
0.150726 0.757324 0.135834
0.211090 0.757568 0.135498
0.296082 0.757782 0.135071
0.392426 0.757996 0.134705
0.491364 0.758179 0.134338
0.576843 0.758423 0.133942
0.636780 0.758606 0.133606
0.692993 0.758820 0.133240
0.745789 0.759003 0.132904
0.795868 0.759155 0.132538
0.843750 0.759399 0.132233
0.890015 0.759583 0.131897
0.934814 0.759735 0.131592
0.978882 0.759918 0.131287
0.079620 0.800476 0.135956
0.108276 0.800598 0.135620
0.152435 0.800781 0.135223
0.213257 0.800934 0.134857
0.298523 0.801117 0.134491
0.394897 0.801270 0.134094
0.493561 0.801453 0.133698
0.578094 0.801605 0.133331
0.637817 0.801788 0.133026
0.693787 0.801910 0.132660
0.746429 0.802032 0.132324
0.796356 0.802185 0.131989
0.844086 0.802277 0.131683
0.890167 0.802429 0.131378
0.934937 0.802612 0.131073
0.978882 0.802704 0.130768
0.080658 0.841248 0.135345
0.109558 0.841339 0.135010
0.154144 0.841461 0.134644
0.215454 0.841583 0.134247
0.300995 0.841736 0.133850
0.397217 0.841797 0.133484
0.495605 0.841949 0.133148
0.579285 0.842072 0.132782
0.638733 0.842194 0.132416
0.694519 0.842255 0.132111
0.747009 0.842377 0.131775
0.796753 0.842468 0.131470
0.844421 0.842560 0.131165
0.890381 0.842651 0.130890
0.934998 0.842712 0.130615
0.978882 0.842804 0.130371
0.081696 0.879944 0.134735
0.110840 0.880035 0.134430
0.155792 0.880096 0.134033
0.217529 0.880188 0.133667
0.303314 0.880249 0.133301
0.399506 0.880310 0.132935
0.497620 0.880402 0.132568
0.580353 0.880463 0.132233
0.639679 0.880554 0.131897
0.695251 0.880615 0.131592
0.747589 0.880676 0.131287
0.797180 0.880737 0.130981
0.844696 0.880768 0.130707
0.890564 0.880829 0.130432
0.935059 0.880890 0.130157
0.978882 0.880951 0.129913
0.082672 0.917175 0.134186
0.112061 0.917236 0.133850
0.157379 0.917236 0.133484
0.219574 0.917267 0.133118
0.305511 0.917297 0.132751
0.401642 0.917328 0.132385
0.499512 0.917358 0.132050
0.581451 0.917389 0.131744
0.640533 0.917389 0.131439
0.695923 0.917450 0.131134
0.748077 0.917480 0.130829
0.797577 0.917511 0.130554
0.844971 0.917542 0.130249
0.890747 0.917542 0.130005
0.935181 0.917572 0.129761
0.978882 0.917603 0.129547
0.083649 0.951324 0.133636
0.113251 0.951324 0.133331
0.158875 0.951324 0.132965
0.221375 0.951324 0.132599
0.307587 0.951324 0.132233
0.403625 0.951324 0.131897
0.501160 0.951324 0.131592
0.582397 0.951324 0.131287
0.641266 0.951324 0.130981
0.696503 0.951324 0.130676
0.748566 0.951324 0.130402
0.797913 0.951324 0.130157
0.845245 0.951324 0.129883
0.890900 0.951324 0.129639
0.935242 0.951324 0.129456
0.978882 0.951324 0.129181
0.068146 0.076477 0.214813
0.093842 0.076691 0.214539
0.133209 0.076904 0.214203
0.188141 0.077148 0.213867
0.268585 0.077423 0.213409
0.364288 0.077728 0.213013
0.465576 0.078003 0.212616
0.561829 0.078339 0.212189
0.624329 0.078644 0.211792
0.682861 0.078949 0.211334
0.737793 0.079315 0.210907
0.789703 0.079620 0.210449
0.839294 0.079956 0.209961
0.887115 0.080292 0.209564
0.933411 0.080658 0.209076
0.978882 0.081024 0.208588
0.069061 0.117401 0.213959
0.095032 0.117737 0.213623
0.134857 0.118073 0.213226
0.190369 0.118469 0.212830
0.271362 0.118866 0.212402
0.367279 0.119324 0.211975
0.468353 0.119751 0.211548
0.563568 0.120209 0.211060
0.625793 0.120667 0.210632
0.684021 0.121094 0.210175
0.738739 0.121582 0.209717
0.790436 0.122040 0.209229
0.839874 0.122559 0.208771
0.887512 0.123016 0.208282
0.933594 0.123505 0.207794
0.978882 0.123993 0.207336
0.069977 0.169342 0.213165
0.096191 0.169769 0.212769
0.136444 0.170319 0.212341
0.192505 0.170868 0.211914
0.274048 0.171478 0.211456
0.370056 0.172058 0.211029
0.471008 0.172699 0.210571
0.565063 0.173279 0.210083
0.627075 0.173889 0.209595
0.685089 0.174561 0.209076
0.739563 0.175201 0.208649
0.791107 0.175812 0.208191
0.840363 0.176483 0.207672
0.887787 0.177155 0.207153
0.933716 0.177795 0.206726
0.978882 0.178436 0.206207
0.070892 0.234924 0.212311
0.097351 0.235535 0.211914
0.138000 0.236237 0.211487
0.194580 0.236938 0.211060
0.276581 0.237701 0.210571
0.372681 0.238464 0.210083
0.473480 0.239288 0.209595
0.566559 0.240051 0.209076
0.628296 0.240814 0.208649
0.686127 0.241638 0.208160
0.740356 0.242462 0.207642
0.791748 0.243225 0.207123
0.840820 0.244049 0.206696
0.888062 0.244812 0.206177
0.933868 0.245636 0.205688
0.978882 0.246460 0.205200
0.071991 0.328339 0.211365
0.098755 0.329010 0.210968
0.139862 0.329773 0.210480
0.197021 0.330597 0.209991
0.279602 0.331482 0.209534
0.375793 0.332336 0.209015
0.476288 0.333221 0.208527
0.568207 0.334106 0.208008
0.629700 0.334961 0.207550
0.687256 0.335815 0.207031
0.741272 0.336700 0.206543
0.792419 0.337524 0.206024
0.841278 0.338409 0.205536
0.888397 0.339294 0.205078
0.934021 0.340149 0.204590
0.978882 0.341003 0.204071
0.073181 0.433929 0.210358
0.100220 0.434692 0.209900
0.141846 0.435425 0.209412
0.199677 0.436188 0.208954
0.282715 0.437073 0.208435
0.379028 0.437897 0.207916
0.479340 0.438751 0.207397
0.569916 0.439514 0.206879
0.631104 0.440369 0.206421
0.688385 0.441193 0.205902
0.742218 0.441986 0.205414
0.793121 0.442841 0.204895
0.841797 0.443573 0.204407
0.888733 0.444397 0.203949
0.934204 0.445251 0.203461
0.978882 0.446014 0.202972
0.074371 0.534149 0.209320
0.101685 0.534760 0.208862
0.143799 0.535400 0.208435
0.202209 0.536102 0.207916
0.285767 0.536835 0.207367
0.382111 0.537506 0.206848
0.482117 0.538239 0.206329
0.571594 0.538940 0.205841
0.632446 0.539581 0.205353
0.689484 0.540314 0.204834
0.743042 0.541016 0.204346
0.793793 0.541656 0.203827
0.842285 0.542328 0.203400
0.889038 0.542999 0.202881
0.934357 0.543671 0.202423
0.978882 0.544312 0.201935
0.075531 0.601532 0.208374
0.103149 0.601898 0.207916
0.145752 0.602325 0.207367
0.204712 0.602722 0.206879
0.288696 0.603180 0.206360
0.385071 0.603546 0.205872
0.484833 0.603973 0.205353
0.573090 0.604401 0.204834
0.633698 0.604797 0.204315
0.690491 0.605225 0.203796
0.743866 0.605621 0.203369
0.794403 0.605988 0.202850
0.842743 0.606415 0.202393
0.889313 0.606781 0.201904
0.934509 0.607178 0.201477
0.978882 0.607513 0.201019
0.076691 0.658569 0.207397
0.104614 0.658844 0.206970
0.147614 0.659180 0.206451
0.207123 0.659485 0.205933
0.291504 0.659851 0.205414
0.387970 0.660217 0.204865
0.487396 0.660553 0.204376
0.574585 0.660858 0.203857
0.634918 0.661224 0.203430
0.691467 0.661560 0.202881
0.744629 0.661835 0.202423
0.794983 0.662170 0.201935
0.843140 0.662506 0.201508
0.889587 0.662781 0.201050
0.934631 0.663086 0.200592
0.978882 0.663391 0.200195
0.077789 0.709991 0.206512
0.105988 0.710236 0.206024
0.149475 0.710510 0.205536
0.209534 0.710785 0.205048
0.294250 0.711060 0.204529
0.390625 0.711365 0.204010
0.489807 0.711609 0.203491
0.575928 0.711914 0.202942
0.636047 0.712128 0.202484
0.692383 0.712433 0.202057
0.745361 0.712646 0.201538
0.795502 0.712891 0.201080
0.843506 0.713165 0.200684
0.889862 0.713379 0.200195
0.934723 0.713623 0.199768
0.978882 0.713837 0.199402
0.078857 0.757050 0.205627
0.107361 0.757263 0.205170
0.151245 0.757477 0.204651
0.211792 0.757690 0.204193
0.296844 0.757874 0.203674
0.393280 0.758087 0.203125
0.492035 0.758331 0.202637
0.577271 0.758514 0.202118
0.637115 0.758698 0.201630
0.693237 0.758942 0.201233
0.746002 0.759094 0.200775
0.795990 0.759338 0.200287
0.843872 0.759491 0.199890
0.890045 0.759705 0.199432
0.934845 0.759857 0.199066
0.978882 0.760010 0.198639
0.079956 0.800568 0.204803
0.108673 0.800720 0.204346
0.153015 0.800873 0.203796
0.214050 0.801056 0.203369
0.299377 0.801208 0.202820
0.395691 0.801361 0.202332
0.494263 0.801514 0.201843
0.578522 0.801666 0.201355
0.638123 0.801849 0.200897
0.694031 0.802002 0.200470
0.746613 0.802094 0.199982
0.796509 0.802246 0.199615
0.844238 0.802368 0.199158
0.890259 0.802490 0.198792
0.934937 0.802643 0.198364
0.978882 0.802765 0.198029
0.081024 0.841309 0.203979
0.109955 0.841431 0.203522
0.154694 0.841522 0.203003
0.216125 0.841644 0.202545
0.301788 0.841736 0.202057
0.398010 0.841888 0.201538
0.496277 0.842010 0.201050
0.579651 0.842133 0.200592
0.639038 0.842224 0.200165
0.694794 0.842316 0.199738
0.747223 0.842407 0.199310
0.796936 0.842529 0.198883
0.844513 0.842621 0.198517
0.890442 0.842682 0.198120
0.935028 0.842773 0.197754
0.978882 0.842865 0.197449
0.082031 0.880005 0.203186
0.111267 0.880096 0.202728
0.156342 0.880157 0.202271
0.218170 0.880249 0.201782
0.304108 0.880280 0.201294
0.400269 0.880371 0.200806
0.498260 0.880432 0.200317
0.580750 0.880524 0.199890
0.639954 0.880585 0.199463
0.695465 0.880646 0.199066
0.747742 0.880737 0.198608
0.797333 0.880737 0.198242
0.844818 0.880798 0.197876
0.890625 0.880890 0.197540
0.935120 0.880920 0.197205
0.978882 0.880981 0.196838
0.083038 0.917206 0.202423
0.112518 0.917236 0.202026
0.157959 0.917267 0.201508
0.220215 0.917267 0.201050
0.306305 0.917328 0.200562
0.402435 0.917358 0.200073
0.500122 0.917358 0.199646
0.581818 0.917389 0.199188
0.640747 0.917419 0.198822
0.696136 0.917450 0.198395
0.748291 0.917480 0.198029
0.797699 0.917542 0.197662
0.845062 0.917542 0.197327
0.890808 0.917572 0.196991
0.935181 0.917603 0.196686
0.978882 0.917633 0.196381
0.083984 0.951324 0.201721
0.113678 0.951324 0.201294
0.159454 0.951324 0.200836
0.222046 0.951324 0.200409
0.308350 0.951324 0.199921
0.404388 0.951324 0.199463
0.501801 0.951324 0.199066
0.582733 0.951324 0.198608
0.641571 0.951324 0.198242
0.696716 0.951324 0.197845
0.748718 0.951324 0.197510
0.798004 0.951324 0.197174
0.845306 0.951324 0.196808
0.890961 0.951324 0.196503
0.935272 0.951324 0.196228
0.978882 0.951324 0.195923
0.068298 0.076569 0.298187
0.094055 0.076813 0.297882
0.133484 0.077026 0.297455
0.188538 0.077301 0.297119
0.269073 0.077576 0.296661
0.364807 0.077850 0.296204
0.466064 0.078186 0.295685
0.562134 0.078491 0.295288
0.624634 0.078796 0.294769
0.683075 0.079102 0.294281
0.737946 0.079437 0.293823
0.789856 0.079773 0.293243
0.839417 0.080139 0.292786
0.887177 0.080475 0.292236
0.933411 0.080811 0.291718
0.978882 0.081177 0.291229
0.069275 0.117554 0.297272
0.095276 0.117859 0.296844
0.135162 0.118256 0.296417
0.190796 0.118652 0.295990
0.271912 0.119080 0.295471
0.367828 0.119507 0.295013
0.468964 0.119934 0.294525
0.563843 0.120392 0.293976
0.626038 0.120880 0.293488
0.684235 0.121338 0.292908
0.738922 0.121796 0.292450
0.790588 0.122284 0.291870
0.839966 0.122772 0.291382
0.887512 0.123260 0.290802
0.933624 0.123749 0.290314
0.978882 0.124207 0.289734
0.070190 0.169525 0.296295
0.096466 0.170013 0.295929
0.136810 0.170563 0.295380
0.192963 0.171112 0.294922
0.274628 0.171753 0.294403
0.370697 0.172333 0.293915
0.471588 0.172943 0.293396
0.565430 0.173553 0.292847
0.627350 0.174194 0.292328
0.685333 0.174835 0.291779
0.739777 0.175476 0.291260
0.791229 0.176117 0.290710
0.840454 0.176788 0.290161
0.887817 0.177429 0.289581
0.933777 0.178101 0.289032
0.978882 0.178802 0.288513
0.071136 0.235229 0.295380
0.097626 0.235870 0.294922
0.138367 0.236572 0.294464
0.195038 0.237305 0.293945
0.277161 0.238098 0.293457
0.373322 0.238831 0.292877
0.474060 0.239655 0.292328
0.566895 0.240387 0.291779
0.628571 0.241211 0.291229
0.686310 0.242035 0.290710
0.740570 0.242798 0.290161
0.791870 0.243591 0.289581
0.840881 0.244446 0.289001
0.888153 0.245239 0.288513
0.933929 0.246033 0.287903
0.978882 0.246887 0.287415
0.072266 0.328674 0.294312
0.099030 0.329376 0.293854
0.140259 0.330200 0.293304
0.197601 0.330963 0.292786
0.280212 0.331787 0.292236
0.376465 0.332703 0.291687
0.476929 0.333588 0.291077
0.568512 0.334473 0.290588
0.629974 0.335327 0.290009
0.687439 0.336243 0.289429
0.741455 0.337128 0.288910
0.792572 0.338013 0.288330
0.841400 0.338776 0.287781
0.888489 0.339691 0.287231
0.934052 0.340515 0.286682
0.978882 0.341370 0.286133
0.073425 0.434357 0.293152
0.100555 0.435028 0.292725
0.142273 0.435822 0.292145
0.200165 0.436584 0.291626
0.283325 0.437439 0.291016
0.379669 0.438232 0.290436
0.479889 0.439117 0.289856
0.570282 0.439941 0.289246
0.631409 0.440735 0.288696
0.688660 0.441528 0.288177
0.742401 0.442383 0.287567
0.793274 0.443176 0.287079
0.841888 0.444000 0.286469
0.888794 0.444794 0.285980
0.934235 0.445587 0.285431
0.978882 0.446350 0.284882
0.074615 0.534454 0.292023
0.102020 0.535034 0.291504
0.144257 0.535736 0.290955
0.202759 0.536407 0.290405
0.286438 0.537109 0.289795
0.382782 0.537842 0.289246
0.482697 0.538574 0.288635
0.571899 0.539215 0.288147
0.632751 0.539886 0.287537
0.689728 0.540649 0.286987
0.743256 0.541351 0.286407
0.793915 0.542023 0.285828
0.842377 0.542664 0.285309
0.889069 0.543304 0.284729
0.934387 0.543945 0.284241
0.978882 0.544586 0.283722
