Color Lookup Presets Effects/z1 (89).CUBE
#Created by: Adobe Photoshop Export Color Lookup Plugin
#Copyright: (C) Copyright 2015 www.zafizack.com
TITLE "zafizack-VG-15"
#LUT size
LUT_3D_SIZE 16
#data domain
DOMAIN_MIN 0.0 0.0 0.0
DOMAIN_MAX 1.0 1.0 1.0
#LUT data points
0.000000 0.000000 0.000000
0.066681 0.000000 0.000000
0.133331 0.000000 0.000000
0.200012 0.000000 0.000000
0.266663 0.000000 0.000000
0.333344 0.000000 0.000000
0.399994 0.000000 0.000000
0.466675 0.000000 0.000000
0.533325 0.000000 0.000000
0.600006 0.000000 0.000000
0.666656 0.000000 0.000000
0.733337 0.000000 0.000000
0.799988 0.000000 0.000000
0.866669 0.000000 0.000000
0.933319 0.000000 0.000000
1.000000 0.000000 0.000000
0.124756 0.087402 0.000000
0.128906 0.093536 0.000000
0.191132 0.093536 0.000000
0.253357 0.093536 0.000000
0.315552 0.093536 0.000000
0.377808 0.093536 0.000000
0.440002 0.093536 0.000000
0.502228 0.093536 0.000000
0.564453 0.093536 0.000000
0.626678 0.093536 0.000000
0.688873 0.093536 0.000000
0.751129 0.093536 0.000000
0.813324 0.093536 0.000000
0.875549 0.093536 0.000000
0.937775 0.093536 0.000000
1.000000 0.093536 0.000000
0.233459 0.159607 0.000000
0.237274 0.171448 0.000000
0.248871 0.183167 0.000000
0.306671 0.183167 0.000000
0.364441 0.183167 0.000000
0.422241 0.183167 0.000000
0.479980 0.183167 0.000000
0.537781 0.183167 0.000000
0.595551 0.183167 0.000000
0.653351 0.183167 0.000000
0.711090 0.183167 0.000000
0.768890 0.183167 0.000000
0.826660 0.183167 0.000000
0.884460 0.183167 0.000000
0.942200 0.183167 0.000000
1.000000 0.183167 0.000000
0.328003 0.217987 0.000000
0.331329 0.235138 0.000000
0.342133 0.252167 0.000000
0.360016 0.269043 0.000000
0.413330 0.269043 0.000000
0.466675 0.269043 0.000000
0.519989 0.269043 0.000000
0.573334 0.269043 0.000000
0.626678 0.269043 0.000000
0.680023 0.269043 0.000000
0.733337 0.269043 0.000000
0.786682 0.269043 0.000000
0.839996 0.269043 0.000000
0.893341 0.269043 0.000000
0.946655 0.269043 0.000000
1.000000 0.269043 0.000000
0.410065 0.263428 0.000000
0.412628 0.285736 0.000000
0.422455 0.307770 0.000000
0.439178 0.329559 0.000000
0.462219 0.351013 0.000000
0.511108 0.351013 0.000000
0.559998 0.351013 0.000000
0.608887 0.351013 0.000000
0.657776 0.351013 0.000000
0.706665 0.351013 0.000000
0.755554 0.351013 0.000000
0.804443 0.351013 0.000000
0.853333 0.351013 0.000000
0.902222 0.351013 0.000000
0.951111 0.351013 0.000000
1.000000 0.351013 0.000000
0.481506 0.296783 0.000000
0.482849 0.324127 0.000000
0.491547 0.351013 0.000000
0.506989 0.377533 0.000000
0.528503 0.403595 0.000000
0.555573 0.429199 0.000000
0.600006 0.429199 0.000000
0.644470 0.429199 0.000000
0.688873 0.429199 0.000000
0.733337 0.429199 0.000000
0.777771 0.429199 0.000000
0.822235 0.429199 0.000000
0.866669 0.429199 0.000000
0.911102 0.429199 0.000000
0.955536 0.429199 0.000000
1.000000 0.429199 0.000000
0.543976 0.318665 0.000000
0.543701 0.351013 0.000000
0.550873 0.382751 0.000000
0.564789 0.413879 0.000000
0.584747 0.444336 0.000000
0.610077 0.474243 0.000000
0.639984 0.503510 0.000000
0.679993 0.503510 0.000000
0.720001 0.503510 0.000000
0.760010 0.503510 0.000000
0.799988 0.503510 0.000000
0.839996 0.503510 0.000000
0.880005 0.503510 0.000000
0.920013 0.503510 0.000000
0.959991 0.503510 0.000000
1.000000 0.503510 0.000000
0.611603 0.357117 0.000000
0.607758 0.390106 0.000000
0.611420 0.422455 0.000000
0.621765 0.454102 0.000000
0.638092 0.485046 0.000000
0.659698 0.515411 0.000000
0.685730 0.545044 0.000000
0.715576 0.574036 0.000000
0.751099 0.574036 0.000000
0.786682 0.574036 0.000000
0.822205 0.574036 0.000000
0.857788 0.574036 0.000000
0.893341 0.574036 0.000000
0.928894 0.574036 0.000000
0.964447 0.574036 0.000000
1.000000 0.574036 0.000000
0.691254 0.434998 0.000000
0.682770 0.462463 0.000000
0.681305 0.489502 0.000000
0.686127 0.515961 0.000000
0.696625 0.541901 0.000000
0.712128 0.567413 0.000000
0.731964 0.589447 0.000000
0.755585 0.612762 0.000000
0.782227 0.640686 0.000000
0.813324 0.640686 0.000000
0.844452 0.640686 0.000000
0.875549 0.640686 0.000000
0.906647 0.640686 0.000000
0.937775 0.640686 0.000000
0.968872 0.640686 0.000000
1.000000 0.640686 0.000000
0.764832 0.516571 0.000000
0.753021 0.538818 0.000000
0.747559 0.560760 0.000000
0.747864 0.582275 0.000000
0.753387 0.603394 0.000000
0.763611 0.621063 0.000000
0.777924 0.634857 0.000000
0.795807 0.653656 0.000000
0.816681 0.676758 0.000000
0.839996 0.703522 0.000000
0.866669 0.703522 0.000000
0.893341 0.703522 0.000000
0.919983 0.703522 0.000000
0.946655 0.703522 0.000000
0.973328 0.703522 0.000000
1.000000 0.703522 0.000000
0.830872 0.600433 0.000000
0.817047 0.617798 0.000000
0.808868 0.634918 0.000000
0.805786 0.651794 0.000000
0.807373 0.667206 0.000000
0.813171 0.672424 0.000000
0.822693 0.682709 0.000000
0.835480 0.697388 0.000000
0.851105 0.715942 0.000000
0.869049 0.737885 0.000000
0.888885 0.762512 0.000000
0.911102 0.762512 0.000000
0.933319 0.762512 0.000000
0.955566 0.762512 0.000000
0.977783 0.762512 0.000000
1.000000 0.762512 0.000000
0.888062 0.685272 0.000000
0.873718 0.698120 0.000000
0.864136 0.710846 0.000000
0.858856 0.723389 0.000000
0.857605 0.723846 0.000000
0.859924 0.726776 0.000000
0.865479 0.733978 0.000000
0.873932 0.744965 0.000000
0.884857 0.759277 0.000000
0.897919 0.776489 0.000000
0.912720 0.796082 0.000000
0.928894 0.817688 0.000000
0.946655 0.817688 0.000000
0.964447 0.817688 0.000000
0.982208 0.817688 0.000000
1.000000 0.817688 0.000000
0.934937 0.769379 0.000000
0.921631 0.778168 0.000000
0.912048 0.786896 0.000000
0.905914 0.786255 0.000000
0.902954 0.783875 0.000000
0.902893 0.785187 0.000000
0.905426 0.789825 0.000000
0.910309 0.797485 0.000000
0.917267 0.807800 0.000000
0.925964 0.820435 0.000000
0.936188 0.835083 0.000000
0.947632 0.851410 0.000000
0.959991 0.869019 0.000000
0.973328 0.869019 0.000000
0.986664 0.869019 0.000000
1.000000 0.869019 0.000000
0.970154 0.851135 0.000000
0.959503 0.856384 0.000000
0.951477 0.856232 0.000000
0.945892 0.851135 0.000000
0.942505 0.848816 0.000000
0.941193 0.849060 0.000000
0.941742 0.851654 0.000000
0.943970 0.856384 0.000000
0.947693 0.863007 0.000000
0.952728 0.871277 0.000000
0.958893 0.881012 0.000000
0.965973 0.891907 0.000000
0.973816 0.903839 0.000000
0.982208 0.916534 0.000000
0.991119 0.916534 0.000000
1.000000 0.916534 0.000000
0.992310 0.928619 0.000000
0.986053 0.929260 0.000000
0.981201 0.924713 0.000000
0.977600 0.921722 0.000000
0.975189 0.920227 0.000000
0.973846 0.920044 0.000000
0.973541 0.921112 0.000000
0.974091 0.923279 0.000000
0.975494 0.926453 0.000000
0.977570 0.930511 0.000000
0.980286 0.935333 0.000000
0.983551 0.940826 0.000000
0.987244 0.946869 0.000000
0.991272 0.953369 0.000000
0.995544 0.960175 0.000000
1.000000 0.960175 0.000000
1.000000 1.000000 0.000000
1.000000 1.000000 0.000000
1.000000 1.000000 0.000000
1.000000 1.000000 0.000000
1.000000 1.000000 0.000000
1.000000 1.000000 0.000000
1.000000 1.000000 0.000000
1.000000 1.000000 0.000000
1.000000 1.000000 0.000000
1.000000 1.000000 0.000000
1.000000 1.000000 0.000000
1.000000 1.000000 0.000000
1.000000 1.000000 0.000000
1.000000 1.000000 0.000000
1.000000 1.000000 0.000000
1.000000 1.000000 0.000000
0.000000 0.000000 0.066681
0.066681 0.000000 0.066681
0.133331 0.000000 0.066681
0.200012 0.000000 0.066681
0.266663 0.000000 0.066681
0.333344 0.000000 0.066681
0.399994 0.000000 0.066681
0.466675 0.000000 0.066681
0.533325 0.000000 0.066681
0.600006 0.000000 0.066681
0.666656 0.000000 0.066681
0.733337 0.000000 0.066681
0.799988 0.000000 0.066681
0.866669 0.000000 0.066681
0.933319 0.000000 0.066681
1.000000 0.000000 0.066681
0.000000 0.066681 0.066681
0.066681 0.066681 0.066681
0.133331 0.066681 0.066681
0.200012 0.066681 0.066681
0.266663 0.066681 0.066681
0.333344 0.066681 0.066681
0.399994 0.066681 0.066681
0.466675 0.066681 0.066681
0.533325 0.066681 0.066681
0.600006 0.066681 0.066681
0.666656 0.066681 0.066681
0.733337 0.066681 0.066681
0.799988 0.066681 0.066681
0.866669 0.066681 0.066681
0.933319 0.066681 0.066681
1.000000 0.066681 0.066681
0.124725 0.118927 0.058350
0.183075 0.147949 0.058350
0.191101 0.158264 0.062225
0.253326 0.158264 0.062225
0.315552 0.158264 0.062225
0.377777 0.158264 0.062225
0.439972 0.158264 0.062225
0.502228 0.158264 0.062225
0.564423 0.158264 0.062225
0.626678 0.158264 0.062225
0.688873 0.158264 0.062225
0.751099 0.158264 0.062225
0.813324 0.158264 0.062225
0.875549 0.158264 0.062225
0.937775 0.158264 0.062225
1.000000 0.158264 0.062225
0.233459 0.193329 0.051117
0.284576 0.214539 0.051117
0.291809 0.230347 0.054474
0.306671 0.246033 0.057800
0.364441 0.246033 0.057800
0.422241 0.246033 0.057800
0.479980 0.246033 0.057800
0.537781 0.246033 0.057800
0.595551 0.246033 0.057800
0.653351 0.246033 0.057800
0.711090 0.246033 0.057800
0.768890 0.246033 0.057800
0.826660 0.246033 0.057800
0.884460 0.246033 0.057800
0.942200 0.246033 0.057800
1.000000 0.246033 0.057800
0.327972 0.260254 0.044800
0.372803 0.267639 0.044800
0.379059 0.288605 0.047791
0.392700 0.309387 0.050598
0.413330 0.329926 0.053345
0.466675 0.329926 0.053345
0.519989 0.329926 0.053345
0.573334 0.329926 0.053345
0.626648 0.329926 0.053345
0.679993 0.329926 0.053345
0.733307 0.329926 0.053345
0.786652 0.329926 0.053345
0.839996 0.329926 0.053345
0.893341 0.329926 0.053345
0.946655 0.329926 0.053345
1.000000 0.329926 0.053345
0.410065 0.308197 0.039337
0.449402 0.308197 0.039337
0.454559 0.334137 0.041962
0.466919 0.359802 0.044434
0.485901 0.385101 0.046722
0.511108 0.410034 0.048889
0.559998 0.410034 0.048889
0.608887 0.410034 0.048889
0.657776 0.410034 0.048889
0.706665 0.410034 0.048889
0.755554 0.410034 0.048889
0.804443 0.410034 0.048889
0.853333 0.410034 0.048889
0.902222 0.410034 0.048889
0.951111 0.410034 0.048889
1.000000 0.410034 0.048889
0.481445 0.336945 0.034576
0.516022 0.336945 0.034576
0.519806 0.367859 0.036926
0.530640 0.398224 0.039124
0.548035 0.428070 0.041107
0.571350 0.457428 0.042877
0.599976 0.486267 0.044464
0.644440 0.486267 0.044464
0.688873 0.486267 0.044464
0.733337 0.486267 0.044464
0.777771 0.486267 0.044464
0.822205 0.486267 0.044464
0.866669 0.486267 0.044464
0.911102 0.486267 0.044464
0.955536 0.486267 0.044464
1.000000 0.486267 0.044464
0.555756 0.378021 0.029633
0.585358 0.378021 0.029633
0.585754 0.409546 0.031891
0.593079 0.440491 0.033905
0.606812 0.470856 0.035767
0.626282 0.500732 0.037384
0.650879 0.529968 0.038788
0.679993 0.558716 0.040009
0.720001 0.558716 0.040009
0.760010 0.558716 0.040009
0.799988 0.558716 0.040009
0.839996 0.558716 0.040009
0.880005 0.558716 0.040009
0.920013 0.558716 0.040009
0.959991 0.558716 0.040009
1.000000 0.558716 0.040009
0.641174 0.452698 0.023926
0.665070 0.452698 0.023926
0.660492 0.478912 0.026123
0.662415 0.504669 0.028137
0.670319 0.530029 0.029968
0.683685 0.554993 0.031647
0.701904 0.576599 0.033142
0.724609 0.599579 0.034424
0.751099 0.627258 0.035553
0.786652 0.627258 0.035553
0.822205 0.627258 0.035553
0.857788 0.627258 0.035553
0.893311 0.627258 0.035553
0.928894 0.627258 0.035553
0.964447 0.627258 0.035553
1.000000 0.627258 0.035553
0.720825 0.531219 0.018616
0.739441 0.531219 0.018616
0.731110 0.552368 0.020691
0.728638 0.573212 0.022614
0.731659 0.593719 0.024414
0.739716 0.610870 0.026031
0.752319 0.624207 0.027527
0.769073 0.642639 0.028870
0.789581 0.665466 0.030060
0.813324 0.692017 0.031128
0.844452 0.692017 0.031128
0.875549 0.692017 0.031128
0.906647 0.692017 0.031128
0.937775 0.692017 0.031128
0.968872 0.692017 0.031128
1.000000 0.692017 0.031128
0.793335 0.612183 0.013794
0.807098 0.612183 0.013794
0.796265 0.628571 0.015686
0.790619 0.644836 0.017456
0.789764 0.659668 0.019104
0.793396 0.664368 0.020660
0.801178 0.674194 0.022095
0.812744 0.688507 0.023407
0.827728 0.706787 0.024628
0.845825 0.728455 0.025696
0.866669 0.752930 0.026672
0.893341 0.752930 0.026672
0.919983 0.752930 0.026672
0.946655 0.752930 0.026672
0.973328 0.752930 0.026672
1.000000 0.752930 0.026672
0.857300 0.694244 0.009521
0.866821 0.694244 0.009521
0.854889 0.706329 0.011169
0.847260 0.718292 0.012726
0.843689 0.718262 0.014221
0.843933 0.720734 0.015625
0.847717 0.727539 0.016937
0.854797 0.738159 0.018158
0.864929 0.752167 0.019287
0.877869 0.769135 0.020355
0.893341 0.788544 0.021332
0.911102 0.810028 0.022217
0.933319 0.810028 0.022217
0.955566 0.810028 0.022217
0.977783 0.810028 0.022217
1.000000 0.810028 0.022217
0.911285 0.775757 0.005920
0.917206 0.775757 0.005920
0.905640 0.783966 0.007263
0.897369 0.782867 0.008545
0.892303 0.780060 0.009796
0.890259 0.781006 0.010986
0.891022 0.785278 0.012115
0.894501 0.792633 0.013184
0.900513 0.802704 0.014221
0.908905 0.815125 0.015198
0.919495 0.829590 0.016113
0.932129 0.845764 0.016968
0.946655 0.863251 0.017792
0.964447 0.863251 0.017792
0.982208 0.863251 0.017792
1.000000 0.863251 0.017792
0.953949 0.855133 0.003082
0.957031 0.855133 0.003082
0.947388 0.854614 0.004059
0.939972 0.849182 0.005005
0.934692 0.846558 0.005951
0.931519 0.846527 0.006866
0.930359 0.848877 0.007751
0.931152 0.853363 0.008606
0.933838 0.859772 0.009460
0.938385 0.867859 0.010284
0.944641 0.877441 0.011078
0.952606 0.888245 0.011841
0.962189 0.900055 0.012604
0.973328 0.912689 0.013336
0.986664 0.912689 0.013336
1.000000 0.912689 0.013336
0.983887 0.927612 0.001068
0.984955 0.928833 0.001068
0.978882 0.924072 0.001617
0.973816 0.920929 0.002197
0.969757 0.919250 0.002747
0.966736 0.918915 0.003326
0.964813 0.919830 0.003906
0.963989 0.921875 0.004486
0.964294 0.924927 0.005096
0.965729 0.928894 0.005707
0.968353 0.933624 0.006317
0.972168 0.939056 0.006958
0.977203 0.945038 0.007599
0.983521 0.951477 0.008240
0.991119 0.958252 0.008881
1.000000 0.958252 0.008881
0.999695 1.000000 0.000031
0.999725 1.000000 0.000031
0.998962 1.000000 0.000092
0.997864 1.000000 0.000183
0.996521 1.000000 0.000305
0.995056 1.000000 0.000488
0.993591 1.000000 0.000702
0.992249 1.000000 0.000977
0.991150 1.000000 0.001251
0.990387 1.000000 0.001587
0.990112 1.000000 0.001984
0.990448 1.000000 0.002380
0.991455 1.000000 0.002838
0.993317 1.000000 0.003326
0.996124 1.000000 0.003876
1.000000 1.000000 0.004456
0.000000 0.000000 0.133331
0.066681 0.000000 0.133331
0.133331 0.000000 0.133331
0.200012 0.000000 0.133331
0.266663 0.000000 0.133331
0.333344 0.000000 0.133331
0.399994 0.000000 0.133331
0.466675 0.000000 0.133331
0.533325 0.000000 0.133331
0.600006 0.000000 0.133331
0.666656 0.000000 0.133331
0.733337 0.000000 0.133331
0.799988 0.000000 0.133331
0.866669 0.000000 0.133331
0.933319 0.000000 0.133331
1.000000 0.000000 0.133331
0.000000 0.066681 0.133331
0.066681 0.066681 0.133331
0.133331 0.066681 0.133331
0.200012 0.066681 0.133331
0.266663 0.066681 0.133331
0.333344 0.066681 0.133331
0.399994 0.066681 0.133331
0.466675 0.066681 0.133331
0.533325 0.066681 0.133331
0.600006 0.066681 0.133331
0.666656 0.066681 0.133331
0.733337 0.066681 0.133331
0.799988 0.066681 0.133331
0.866669 0.066681 0.133331
0.933319 0.066681 0.133331
1.000000 0.066681 0.133331
0.000000 0.133331 0.133331
0.066681 0.133331 0.133331
0.133331 0.133331 0.133331
0.200012 0.133331 0.133331
0.266663 0.133331 0.133331
0.333344 0.133331 0.133331
0.399994 0.133331 0.133331
0.466675 0.133331 0.133331
0.533325 0.133331 0.133331
0.600006 0.133331 0.133331
0.666656 0.133331 0.133331
0.733337 0.133331 0.133331
0.799988 0.133331 0.133331
0.866669 0.133331 0.133331
0.933319 0.133331 0.133331
1.000000 0.133331 0.133331
0.124756 0.175049 0.116699
0.183105 0.177460 0.116699
0.241455 0.208496 0.116699
0.253357 0.223022 0.124451
0.315552 0.223022 0.124451
0.377808 0.223022 0.124451
0.440002 0.223022 0.124451
0.502228 0.223022 0.124451
0.564453 0.223022 0.124451
0.626678 0.223022 0.124451
0.688873 0.223022 0.124451
0.751129 0.223022 0.124451
0.813324 0.223022 0.124451
0.875549 0.223022 0.124451
0.937775 0.223022 0.124451
1.000000 0.223022 0.124451
0.233490 0.214417 0.102173
0.284607 0.246948 0.102173
0.335693 0.269440 0.102173
0.346252 0.289215 0.108948
0.364441 0.308838 0.115540
0.422241 0.308838 0.115540
0.479980 0.308838 0.115540
0.537781 0.308838 0.115540
0.595551 0.308838 0.115540
0.653351 0.308838 0.115540
0.711090 0.308838 0.115540
0.768890 0.308838 0.115540
0.826660 0.308838 0.115540
0.884460 0.308838 0.115540
0.942200 0.308838 0.115540
1.000000 0.308838 0.115540
0.328003 0.278412 0.089600
0.372833 0.309509 0.089600
0.417603 0.317291 0.089600
0.426880 0.342102 0.095520
0.443329 0.366608 0.101227
0.466675 0.390869 0.106659
0.519989 0.390869 0.106659
0.573334 0.390869 0.106659
0.626678 0.390869 0.106659
0.680023 0.390869 0.106659
0.733337 0.390869 0.106659
0.786682 0.390869 0.106659
0.839996 0.390869 0.106659
0.893341 0.390869 0.106659
0.946655 0.390869 0.106659
1.000000 0.390869 0.106659
0.410065 0.337006 0.078644
0.449402 0.352936 0.078644
0.488739 0.352936 0.078644
0.496521 0.382599 0.083893
0.511322 0.411774 0.088837
0.532623 0.440613 0.093475
0.559998 0.469025 0.097778
0.608887 0.469025 0.097778
0.657776 0.469025 0.097778
0.706665 0.469025 0.097778
0.755554 0.469025 0.097778
0.804443 0.469025 0.097778
0.853333 0.469025 0.097778
0.902222 0.469025 0.097778
0.951111 0.469025 0.097778
1.000000 0.469025 0.097778
0.492371 0.396667 0.067688
0.526245 0.396667 0.067688
0.560059 0.396667 0.067688
0.564392 0.426910 0.072601
0.575531 0.456665 0.077179
0.592926 0.486053 0.081390
0.616058 0.514923 0.085327
0.644470 0.543365 0.088898
0.688873 0.543365 0.088898
0.733337 0.543365 0.088898
0.777771 0.543365 0.088898
0.822235 0.543365 0.088898
0.866669 0.543365 0.088898
0.911102 0.543365 0.088898
0.955536 0.543365 0.088898
1.000000 0.543365 0.088898
0.584290 0.468353 0.055420
0.612000 0.468353 0.055420
0.639709 0.468353 0.055420
0.638702 0.493408 0.060211
0.644043 0.518127 0.064728
0.655243 0.542572 0.068939
0.671906 0.563751 0.072906
0.693634 0.586395 0.076599
0.720001 0.613861 0.079987
0.760010 0.613861 0.079987
0.799988 0.613861 0.079987
0.839996 0.613861 0.079987
0.880005 0.613861 0.079987
0.920013 0.613861 0.079987
0.959991 0.613861 0.079987
1.000000 0.613861 0.079987
0.670776 0.544006 0.043884
0.692749 0.544006 0.043884
0.714691 0.544006 0.043884
0.709442 0.564148 0.048401
0.709930 0.584076 0.052734
0.715820 0.600647 0.056824
0.726715 0.613556 0.060730
0.742401 0.631622 0.064392
0.762482 0.654175 0.067871
0.786682 0.680542 0.071106
0.822205 0.680542 0.071106
0.857788 0.680542 0.071106
0.893341 0.680542 0.071106
0.928894 0.680542 0.071106
0.964447 0.680542 0.071106
1.000000 0.680542 0.071106
0.750427 0.622223 0.033264
0.767059 0.622223 0.033264
0.783691 0.622223 0.033264
0.775452 0.637848 0.037415
0.772186 0.652100 0.041412
0.773651 0.656311 0.045258
0.779663 0.665710 0.048950
0.789978 0.679657 0.052490
0.804352 0.697601 0.055878
0.822601 0.719055 0.059143
0.844452 0.743347 0.062225
0.875549 0.743347 0.062225
0.906647 0.743347 0.062225
0.937775 0.743347 0.062225
0.968872 0.743347 0.062225
1.000000 0.743347 0.062225
0.821869 0.697998 0.023743
0.833740 0.701843 0.023743
0.845642 0.701843 0.023743
0.835632 0.713226 0.027405
0.829773 0.712677 0.030945
0.827942 0.714722 0.034393
0.829926 0.721069 0.037811
0.835693 0.731354 0.041077
0.845032 0.745087 0.044281
0.857849 0.761810 0.047363
0.873993 0.781036 0.050415
0.893341 0.802338 0.053345
0.919983 0.802338 0.053345
0.946655 0.802338 0.053345
0.973328 0.802338 0.053345
1.000000 0.802338 0.053345
0.883698 0.770386 0.015503
0.891449 0.778595 0.015503
0.899200 0.781067 0.015503
0.888855 0.779480 0.018524
0.881653 0.776276 0.021515
0.877625 0.776825 0.024475
0.876648 0.780762 0.027405
0.878723 0.787811 0.030334
0.883789 0.797607 0.033203
0.891846 0.809784 0.036041
0.902802 0.824097 0.038879
0.916656 0.840118 0.041687
0.933319 0.857513 0.044434
0.955566 0.857513 0.044434
0.977783 0.857513 0.044434
1.000000 0.857513 0.044434
0.934540 0.843964 0.008728
0.938904 0.848480 0.008728
0.943268 0.853027 0.008728
0.934021 0.847260 0.010986
0.926849 0.844299 0.013306
0.921814 0.843994 0.015625
0.918976 0.846069 0.018005
0.918365 0.850342 0.020416
0.920013 0.856537 0.022858
0.924042 0.864471 0.025330
0.930450 0.873901 0.027832
0.939270 0.884583 0.030365
0.950592 0.896301 0.032959
0.964447 0.908844 0.035553
0.982208 0.908844 0.035553
1.000000 0.908844 0.035553
0.972961 0.919952 0.003601
0.974762 0.921692 0.003601
0.976563 0.923462 0.003601
0.970032 0.920135 0.005005
0.964325 0.918274 0.006470
0.959625 0.917786 0.008087
0.956116 0.918579 0.009766
0.953888 0.920502 0.011536
0.953094 0.923431 0.013397
0.953888 0.927277 0.015381
0.956390 0.931915 0.017456
0.960785 0.937286 0.019592
0.967194 0.943207 0.021851
0.975769 0.949585 0.024231
0.986664 0.956329 0.026672
1.000000 0.956329 0.026672
0.997620 1.000000 0.000305
0.997772 1.000000 0.000305
0.997955 1.000000 0.000305
0.995728 1.000000 0.000702
0.993042 1.000000 0.001251
0.990112 1.000000 0.001984
0.987183 1.000000 0.002838
0.984497 1.000000 0.003876
0.982300 1.000000 0.005066
0.980804 1.000000 0.006409
0.980255 1.000000 0.007904
0.980865 1.000000 0.009552
0.982941 1.000000 0.011383
0.986664 1.000000 0.013336
0.992249 1.000000 0.015503
1.000000 1.000000 0.017792
0.000000 0.000000 0.200012
0.066681 0.000000 0.200012
0.133331 0.000000 0.200012
0.200012 0.000000 0.200012
0.266663 0.000000 0.200012
0.333344 0.000000 0.200012
0.399994 0.000000 0.200012
0.466675 0.000000 0.200012
0.533325 0.000000 0.200012
0.600006 0.000000 0.200012
0.666656 0.000000 0.200012
0.733337 0.000000 0.200012
0.799988 0.000000 0.200012
0.866669 0.000000 0.200012
0.933319 0.000000 0.200012
1.000000 0.000000 0.200012
0.000000 0.066681 0.200012
0.066681 0.066681 0.200012
0.133331 0.066681 0.200012
0.200012 0.066681 0.200012
0.266663 0.066681 0.200012
0.333344 0.066681 0.200012
0.399994 0.066681 0.200012
0.466675 0.066681 0.200012
0.533325 0.066681 0.200012
0.600006 0.066681 0.200012
0.666656 0.066681 0.200012
0.733337 0.066681 0.200012
0.799988 0.066681 0.200012
0.866669 0.066681 0.200012
0.933319 0.066681 0.200012
1.000000 0.066681 0.200012
0.000000 0.133331 0.200012
0.066681 0.133331 0.200012
0.133331 0.133331 0.200012
0.200012 0.133331 0.200012
0.266663 0.133331 0.200012
0.333344 0.133331 0.200012
0.399994 0.133331 0.200012
0.466675 0.133331 0.200012
0.533325 0.133331 0.200012
0.600006 0.133331 0.200012
0.666656 0.133331 0.200012
0.733337 0.133331 0.200012
0.799988 0.133331 0.200012
0.866669 0.133331 0.200012
0.933319 0.133331 0.200012
1.000000 0.133331 0.200012
0.000000 0.200012 0.200012
0.066681 0.200012 0.200012
0.133331 0.200012 0.200012
0.200012 0.200012 0.200012
0.266663 0.200012 0.200012
0.333344 0.200012 0.200012
0.399994 0.200012 0.200012
0.466675 0.200012 0.200012
0.533325 0.200012 0.200012
0.600006 0.200012 0.200012
0.666656 0.200012 0.200012
0.733337 0.200012 0.200012
0.799988 0.200012 0.200012
0.866669 0.200012 0.200012
0.933319 0.200012 0.200012
1.000000 0.200012 0.200012
0.124725 0.233398 0.175049
0.183075 0.233398 0.175049
0.241425 0.235962 0.175049
0.299774 0.269073 0.175049
0.315552 0.287750 0.186676
0.377777 0.287750 0.186676
0.439972 0.287750 0.186676
0.502228 0.287750 0.186676
0.564423 0.287750 0.186676
0.626678 0.287750 0.186676
0.688873 0.287750 0.186676
0.751099 0.287750 0.186676
0.813324 0.287750 0.186676
0.875549 0.287750 0.186676
0.937775 0.287750 0.186676
1.000000 0.287750 0.186676
0.233490 0.255524 0.153320
0.284607 0.266113 0.153320
0.335693 0.300507 0.153320
0.386810 0.324371 0.153320
0.400726 0.348114 0.163452
0.422241 0.371674 0.173340
0.479980 0.371674 0.173340
0.537781 0.371674 0.173340
0.595551 0.371674 0.173340
0.653351 0.371674 0.173340
0.711090 0.371674 0.173340
0.768890 0.371674 0.173340
0.826660 0.371674 0.173340
0.884460 0.371674 0.173340
0.942200 0.371674 0.173340
1.000000 0.371674 0.173340
0.327972 0.293335 0.134399
0.372803 0.326050 0.134399
0.417572 0.358734 0.134399
0.462402 0.366943 0.134399
0.474579 0.395508 0.143311
0.493927 0.423767 0.151825
0.519989 0.451752 0.160004
0.573334 0.451752 0.160004
0.626648 0.451752 0.160004
0.679993 0.451752 0.160004
0.733307 0.451752 0.160004
0.786652 0.451752 0.160004
0.839996 0.451752 0.160004
0.893341 0.451752 0.160004
0.946655 0.451752 0.160004
1.000000 0.451752 0.160004
