Color Lookup Presets Effects/z1 (94).CUBE
#Created by: Adobe Photoshop Export Color Lookup Plugin
#Copyright: (C) Copyright 2014 www.zafizack.com
TITLE "Devinda"
#LUT size
LUT_3D_SIZE 6
#data domain
DOMAIN_MIN 0.0 0.0 0.0
DOMAIN_MAX 1.0 1.0 1.0
#LUT data points
0.040955 0.016632 0.082062
0.314209 0.085205 0.072174
0.632202 0.165924 0.000000
0.883667 0.262970 0.000000
0.996063 0.381775 0.000000
0.996063 0.443542 0.000000
0.008972 0.130310 0.126801
0.186554 0.171265 0.127716
0.523163 0.251801 0.118042
0.835510 0.336548 0.086487
0.990967 0.438660 0.100983
0.996063 0.489899 0.133545
0.000000 0.358185 0.259064
0.019348 0.354156 0.253174
0.394775 0.419342 0.263580
0.780853 0.497589 0.307037
0.976166 0.569611 0.351990
0.996063 0.605164 0.385529
0.000000 0.662109 0.514099
0.000000 0.659027 0.509644
0.248444 0.656647 0.496246
0.679962 0.677155 0.553528
0.949921 0.718292 0.613068
0.996063 0.738770 0.635803
0.000000 0.880920 0.752075
0.000000 0.879944 0.750366
0.231598 0.877472 0.742706
0.517181 0.855225 0.587311
0.902069 0.850555 0.638306
0.996063 0.861664 0.677979
0.000000 0.996063 0.898071
0.000000 0.996063 0.897461
0.244141 0.996063 0.893829
0.534210 0.996063 0.824371
0.868866 0.996063 0.793854
0.996063 0.996063 0.806549
0.040131 0.015625 0.085907
0.305023 0.080261 0.076050
0.622131 0.161041 0.003876
0.876282 0.257324 0.000000
0.996063 0.373657 0.000000
0.996063 0.436981 0.000000
0.009369 0.125336 0.189056
0.146759 0.139648 0.158691
0.458527 0.220581 0.168640
0.784393 0.297180 0.162659
0.979980 0.392578 0.177979
0.996063 0.446777 0.203064
0.000000 0.337616 0.374481
0.004578 0.336731 0.370636
0.339844 0.372192 0.313141
0.729645 0.449921 0.355469
0.966125 0.526093 0.398376
0.996063 0.563324 0.427307
0.000000 0.657593 0.615173
0.000000 0.655396 0.611389
0.251495 0.653503 0.603027
0.674622 0.672150 0.530090
0.949219 0.713348 0.587372
0.996063 0.733673 0.608276
0.000000 0.881104 0.810974
0.000000 0.880035 0.809113
0.232361 0.877594 0.803284
0.524261 0.855621 0.642151
0.903564 0.851349 0.669373
0.996063 0.862885 0.702271
0.000000 0.996063 0.934906
0.000000 0.996063 0.934357
0.243256 0.996063 0.931366
0.534668 0.996063 0.886871
0.873383 0.996063 0.852600
0.996063 0.996063 0.858551
0.038574 0.014343 0.123871
0.249237 0.058685 0.108459
0.546021 0.130920 0.087616
0.818756 0.220428 0.037567
0.988434 0.328827 0.000000
0.996063 0.390869 0.031281
0.009216 0.120117 0.271942
0.110504 0.109558 0.188965
0.401337 0.186096 0.201721
0.731842 0.259064 0.208496
0.969055 0.349274 0.225586
0.996063 0.402771 0.247040
0.000000 0.318451 0.499390
0.000000 0.318207 0.495972
0.287476 0.323975 0.354889
0.678558 0.401276 0.389984
0.956268 0.475098 0.425903
0.996063 0.516022 0.452087
0.000000 0.632202 0.716217
0.000000 0.639557 0.720428
0.286804 0.652344 0.728363
0.634216 0.661194 0.592651
0.939087 0.690277 0.617554
0.996063 0.710693 0.634277
0.000000 0.881348 0.860413
0.000000 0.880463 0.858948
0.235657 0.878510 0.854980
0.524689 0.855743 0.745148
0.904907 0.853058 0.720734
0.996063 0.864777 0.744110
0.000000 0.996063 0.968018
0.000000 0.996063 0.967499
0.244141 0.996063 0.964996
0.535126 0.996063 0.938599
0.875977 0.996063 0.911377
0.996063 0.996063 0.911835
0.039001 0.015930 0.180634
0.204346 0.039215 0.130920
0.479309 0.104736 0.129852
0.762390 0.188324 0.115692
0.976227 0.289276 0.104065
0.996063 0.350677 0.122925
0.012665 0.116821 0.373901
0.088562 0.101746 0.263123
0.349548 0.153717 0.227631
0.677429 0.219360 0.239166
0.958344 0.300201 0.252106
0.996063 0.354980 0.273010
0.000000 0.299408 0.616302
0.000000 0.299896 0.614105
0.243134 0.280945 0.389526
0.626312 0.351959 0.412750
0.946594 0.422211 0.444641
0.996063 0.464264 0.466003
0.000000 0.610504 0.796082
0.000000 0.647766 0.813385
0.352020 0.668182 0.821442
0.624146 0.672791 0.660889
0.933136 0.685242 0.660950
0.996063 0.684174 0.649445
0.000000 0.875336 0.907990
0.000000 0.875153 0.907166
0.238617 0.873138 0.904938
0.526215 0.850403 0.834320
0.894012 0.847290 0.788422
0.996063 0.859863 0.803101
0.000000 0.996063 0.996063
0.000000 0.996063 0.996063
0.244995 0.996063 0.995392
0.535126 0.996063 0.983215
0.875977 0.996063 0.968597
0.996063 0.996063 0.963959
0.036743 0.013794 0.255981
0.164490 0.021362 0.147644
0.417389 0.080933 0.158569
0.706299 0.151642 0.152557
0.964508 0.250977 0.148560
0.996063 0.312775 0.165222
0.016571 0.115082 0.488739
0.072357 0.099182 0.350250
0.301483 0.122162 0.247314
0.622742 0.186340 0.263214
0.947571 0.252838 0.269257
0.996063 0.304596 0.285034
0.000000 0.282684 0.711853
0.000427 0.283508 0.710449
0.237915 0.256104 0.494537
0.572571 0.304047 0.428619
0.936646 0.367432 0.454956
0.996063 0.409210 0.471924
0.000000 0.591766 0.858124
0.000000 0.640198 0.872040
0.395691 0.665985 0.877197
0.603790 0.665619 0.715485
0.926392 0.669647 0.701965
0.996063 0.654846 0.679688
0.000000 0.868530 0.947845
0.000000 0.868195 0.947144
0.240967 0.865875 0.945404
0.531097 0.842438 0.901184
0.882477 0.838196 0.846893
0.996063 0.852631 0.859924
0.000000 0.996063 0.996063
0.000000 0.996063 0.996063
0.244995 0.996063 0.996063
0.534668 0.996063 0.996063
0.875977 0.996063 0.996063
0.996063 0.996063 0.996063
0.036316 0.021851 0.351654
0.131226 0.007629 0.162659
0.362488 0.060822 0.179443
0.649933 0.126434 0.183014
0.953033 0.207428 0.170258
0.996063 0.270264 0.183807
0.021515 0.115540 0.602844
0.059662 0.099274 0.448517
0.256134 0.092987 0.262115
0.566467 0.155334 0.278748
0.936584 0.209045 0.280365
0.996063 0.254791 0.289520
0.000000 0.267273 0.786285
0.013550 0.267548 0.785095
0.235291 0.234070 0.593842
0.518280 0.259491 0.438629
0.926331 0.314209 0.457336
0.996063 0.353943 0.471466
0.000000 0.556854 0.902435
0.000000 0.600372 0.910828
0.356537 0.621643 0.914063
0.575439 0.617249 0.799316
0.914673 0.624756 0.741028
0.996063 0.622253 0.731262
0.000000 0.861633 0.981720
0.000000 0.861359 0.981232
0.242004 0.858673 0.979767
0.534637 0.833893 0.953339
0.874023 0.827759 0.909698
0.996063 0.841400 0.913422
0.000000 0.996063 0.996063
0.000000 0.996063 0.996063
0.244995 0.996063 0.996063
0.535126 0.996063 0.996063
0.876129 0.996063 0.996063
0.996063 0.996063 0.996063
