Color Lookup Presets Effects/z1 (99).CUBE
#Created by: Adobe Photoshop Export Color Lookup Plugin
#Copyright: (C) Copyright 2014 www.zafizack.com
TITLE "zamrood"
#LUT size
LUT_3D_SIZE 6
#data domain
DOMAIN_MIN 0.0 0.0 0.0
DOMAIN_MAX 1.0 1.0 1.0
#LUT data points
0.000000 0.000000 0.000000
0.188538 0.000000 0.014313
0.503326 0.000000 0.035767
0.762604 0.000000 0.035767
0.916321 0.000000 0.014313
1.000000 0.000000 0.000000
0.000000 0.170471 0.014313
0.113251 0.170471 0.014313
0.415314 0.157745 0.035767
0.718018 0.142792 0.035767
0.899780 0.126068 0.014313
1.000000 0.109619 0.000000
0.000000 0.445679 0.035767
0.114929 0.445679 0.035767
0.334015 0.445679 0.035767
0.670502 0.430664 0.035767
0.882538 0.413910 0.014313
1.000000 0.397247 0.000000
0.000000 0.721344 0.035767
0.114929 0.721344 0.035767
0.334015 0.721344 0.035767
0.619873 0.721344 0.035767
0.864624 0.712769 0.014313
1.000000 0.704041 0.000000
0.000000 0.912109 0.014313
0.113251 0.912109 0.014313
0.332092 0.912109 0.014313
0.618622 0.912109 0.014313
0.846069 0.912109 0.014313
1.000000 0.909271 0.000000
0.000000 1.000000 0.000000
0.111633 1.000000 0.000000
0.330261 1.000000 0.000000
0.617310 1.000000 0.000000
0.845642 1.000000 0.000000
1.000000 1.000000 0.000000
0.000000 0.000000 0.141632
0.113251 0.000000 0.141632
0.415314 0.000000 0.136566
0.718018 0.000000 0.104736
0.899780 0.000000 0.053192
1.000000 0.000000 0.013245
0.000000 0.170471 0.141632
0.114929 0.172668 0.172089
0.417358 0.159882 0.166229
0.719177 0.144989 0.131348
0.900208 0.128143 0.075653
1.000000 0.111694 0.029755
0.000000 0.445679 0.172089
0.116577 0.447571 0.205017
0.335876 0.447571 0.205017
0.671722 0.432800 0.166199
0.882965 0.415894 0.104736
1.000000 0.399109 0.053192
0.000000 0.721344 0.172089
0.116577 0.722198 0.205017
0.335876 0.722198 0.205017
0.621063 0.722198 0.205017
0.865051 0.713989 0.136566
1.000000 0.705292 0.079987
0.000000 0.912109 0.141632
0.114929 0.912537 0.172089
0.334015 0.912537 0.172089
0.619873 0.912537 0.172089
0.846527 0.912537 0.172089
1.000000 0.909576 0.109375
0.000000 1.000000 0.114014
0.113251 1.000000 0.141632
0.332092 1.000000 0.141632
0.618622 1.000000 0.141632
0.846069 1.000000 0.141632
1.000000 1.000000 0.141632
0.000000 0.000000 0.383179
0.114929 0.000000 0.383179
0.334015 0.000000 0.383179
0.670502 0.000000 0.326599
0.882538 0.000000 0.245667
1.000000 0.000000 0.175751
0.000000 0.172668 0.383179
0.116577 0.175049 0.418823
0.335876 0.175049 0.418823
0.671722 0.159882 0.359589
0.882965 0.142792 0.274445
1.000000 0.126068 0.200500
0.000000 0.445679 0.383179
0.116577 0.447571 0.418823
0.337769 0.449921 0.455963
0.672882 0.435028 0.394196
0.883331 0.418091 0.304840
1.000000 0.401398 0.226746
0.000000 0.721344 0.383179
0.116577 0.722198 0.418823
0.337769 0.723450 0.455963
0.622345 0.723450 0.455963
0.865509 0.714935 0.359589
1.000000 0.706299 0.274445
0.000000 0.912109 0.349060
0.114929 0.912537 0.383179
0.335876 0.912872 0.418823
0.621063 0.912872 0.418823
0.846985 0.912872 0.418823
1.000000 0.909943 0.326599
0.000000 1.000000 0.316589
0.113251 1.000000 0.349060
0.334015 1.000000 0.383179
0.619873 1.000000 0.383179
0.846527 1.000000 0.383179
1.000000 1.000000 0.383179
0.000000 0.000000 0.648499
0.114929 0.000000 0.648499
0.334015 0.000000 0.648499
0.619873 0.000000 0.648499
0.864624 0.000000 0.586090
1.000000 0.000000 0.519287
0.000000 0.172668 0.648499
0.116577 0.175049 0.670837
0.335876 0.175049 0.670837
0.621063 0.175049 0.670837
0.865051 0.157745 0.609955
1.000000 0.140717 0.544800
0.000000 0.445679 0.648499
0.116577 0.447571 0.670837
0.337769 0.449921 0.692566
0.622345 0.449921 0.692566
0.865509 0.432800 0.633209
1.000000 0.415894 0.569733
0.000000 0.721344 0.648499
0.116577 0.722198 0.670837
0.337769 0.723450 0.692566
0.622345 0.723450 0.692566
0.865509 0.714935 0.633209
1.000000 0.706299 0.569733
0.000000 0.912109 0.625641
0.114929 0.912537 0.648499
0.335876 0.912872 0.670837
0.621063 0.912872 0.670837
0.846985 0.912872 0.670837
1.000000 0.909943 0.609924
0.000000 1.000000 0.602539
0.113251 1.000000 0.625641
0.334015 1.000000 0.648499
0.619873 1.000000 0.648499
0.846527 1.000000 0.648499
1.000000 1.000000 0.648499
0.000000 0.000000 0.852631
0.113251 0.000000 0.852631
0.332092 0.000000 0.852631
0.618622 0.000000 0.852631
0.846069 0.000000 0.852631
1.000000 0.000000 0.829071
0.000000 0.170471 0.852631
0.114929 0.172668 0.861053
0.334015 0.172668 0.861053
0.619873 0.172668 0.861053
0.846527 0.172668 0.861053
1.000000 0.155548 0.837891
0.000000 0.443390 0.852631
0.114929 0.445679 0.861053
0.335876 0.447571 0.869415
0.621063 0.447571 0.869415
0.846985 0.447571 0.869415
1.000000 0.430664 0.846497
0.000000 0.720093 0.852631
0.114929 0.721344 0.861053
0.335876 0.722198 0.869415
0.621063 0.722198 0.869415
0.846985 0.722198 0.869415
1.000000 0.713989 0.846497
0.000000 0.912109 0.852631
0.114929 0.912537 0.861053
0.335876 0.912872 0.869415
0.621063 0.912872 0.869415
0.846527 0.912537 0.861053
1.000000 0.909576 0.837891
0.000000 1.000000 0.843811
0.113251 1.000000 0.852631
0.334015 1.000000 0.861053
0.619873 1.000000 0.861053
0.846069 1.000000 0.852631
1.000000 1.000000 0.852631
0.000000 0.000000 1.000000
0.111633 0.000000 1.000000
0.330261 0.000000 1.000000
0.617310 0.000000 1.000000
0.845642 0.000000 1.000000
1.000000 0.000000 1.000000
0.000000 0.168274 1.000000
0.113251 0.170471 1.000000
0.332092 0.170471 1.000000
0.618622 0.170471 1.000000
0.846069 0.170471 1.000000
1.000000 0.170471 1.000000
0.000000 0.441162 1.000000
0.113251 0.443390 1.000000
0.334015 0.445679 1.000000
0.619873 0.445679 1.000000
0.846527 0.445679 1.000000
1.000000 0.445679 1.000000
0.000000 0.719177 1.000000
0.113251 0.720093 1.000000
0.334015 0.721344 1.000000
0.619873 0.721344 1.000000
0.846527 0.721344 1.000000
1.000000 0.721344 1.000000
0.000000 0.911713 1.000000
0.113251 0.912109 1.000000
0.334015 0.912537 1.000000
0.619873 0.912537 1.000000
0.846069 0.912109 1.000000
1.000000 0.912109 1.000000
0.000000 1.000000 1.000000
0.113251 1.000000 1.000000
0.334015 1.000000 1.000000
0.619873 1.000000 1.000000
0.846069 1.000000 1.000000
1.000000 1.000000 1.000000
