Color Lookup Presets Effects/z1 (79).CUBE
#Created by: Adobe Photoshop Export Color Lookup Plugin
#Copyright: (C) Copyright 2014 www.zafizack.com
TITLE "zafizack"
#LUT size
LUT_3D_SIZE 16
#data domain
DOMAIN_MIN 0.0 0.0 0.0
DOMAIN_MAX 1.0 1.0 1.0
#LUT data points
0.000000 0.000000 0.000000
0.000000 0.000000 0.000000
0.076752 0.000000 0.000000
0.159760 0.000000 0.000000
0.252411 0.000000 0.000000
0.359406 0.000000 0.000000
0.475739 0.000000 0.000000
0.580780 0.003754 0.000000
0.666840 0.017761 0.000000
0.737915 0.031921 0.000000
0.797363 0.046021 0.000000
0.848083 0.059998 0.000000
0.892120 0.073944 0.000000
0.931274 0.088074 0.000000
0.966888 0.102081 0.000000
1.000000 0.116272 0.000000
0.000000 0.012512 0.000000
0.024750 0.000000 0.000000
0.108490 0.000000 0.000000
0.186279 0.007294 0.000000
0.273376 0.019623 0.000000
0.381805 0.032623 0.000000
0.496796 0.045563 0.000000
0.597412 0.058258 0.000000
0.679657 0.071259 0.004852
0.747742 0.085297 0.000854
0.804840 0.099243 0.000000
0.853577 0.113281 0.000000
0.896057 0.127411 0.000000
0.933838 0.141815 0.000000
0.968140 0.156525 0.000000
1.000000 0.171204 0.000000
0.042542 0.114960 0.000000
0.074249 0.087555 0.000000
0.117249 0.073456 0.000000
0.213776 0.054779 0.003754
0.295410 0.065430 0.013519
0.404846 0.077850 0.025360
0.517700 0.090332 0.037659
0.613770 0.102844 0.050262
0.692322 0.115509 0.060822
0.757507 0.129700 0.056305
0.812225 0.143921 0.051849
0.859100 0.158325 0.047424
0.899963 0.172974 0.043091
0.936371 0.187866 0.038757
0.969421 0.202911 0.034485
1.000000 0.218231 0.030212
0.107239 0.224213 0.047913
0.129700 0.192963 0.030762
0.164917 0.170746 0.018616
0.198273 0.151184 0.008240
0.300964 0.123413 0.046509
0.428284 0.114960 0.077026
0.538147 0.127380 0.091034
0.629791 0.139771 0.105560
0.704803 0.149078 0.117493
0.767151 0.166534 0.115967
0.819641 0.181091 0.110779
0.864624 0.195679 0.105621
0.903961 0.210632 0.100555
0.938965 0.225708 0.095551
0.970703 0.241119 0.090607
1.000000 0.256470 0.085724
0.175720 0.349670 0.112518
0.189178 0.317200 0.088348
0.208679 0.281097 0.071045
0.230133 0.248413 0.055817
0.269379 0.237305 0.042480
0.419403 0.191101 0.097198
0.557831 0.149658 0.136963
0.645294 0.153442 0.144897
0.716949 0.156799 0.152954
0.776550 0.179321 0.161133
0.826874 0.207520 0.169403
0.870087 0.229340 0.170319
0.907867 0.244385 0.164154
0.941528 0.259491 0.158173
0.971985 0.274872 0.152252
1.000000 0.290344 0.146454
0.252197 0.484528 0.186829
0.254974 0.458435 0.153046
0.265350 0.425079 0.128784
0.276245 0.391907 0.107361
0.287689 0.359497 0.088409
0.386200 0.337616 0.092621
0.543060 0.284302 0.158966
0.660309 0.216675 0.210693
0.728790 0.219025 0.220459
0.785828 0.237061 0.227509
0.834045 0.267273 0.236115
0.875519 0.298462 0.244049
0.911804 0.314331 0.236542
0.944092 0.330566 0.229218
0.973267 0.346863 0.221985
1.000000 0.363159 0.214935
0.338440 0.598938 0.264954
0.328369 0.582825 0.221802
0.328217 0.560028 0.191467
0.328461 0.536407 0.165070
0.329010 0.512085 0.139099
0.392303 0.467651 0.137909
0.516754 0.446075 0.154114
0.645599 0.390564 0.234802
0.739624 0.303833 0.301941
0.794830 0.313721 0.309204
0.841064 0.347076 0.318268
0.880859 0.381927 0.327454
0.915680 0.400055 0.319519
0.946655 0.416504 0.310516
0.974548 0.432892 0.301666
1.000000 0.448761 0.293030
0.434021 0.687134 0.347748
0.409485 0.677704 0.289093
0.396118 0.663055 0.247162
0.383850 0.648254 0.210663
0.372345 0.633179 0.178650
0.424500 0.604126 0.173035
0.508911 0.564697 0.185455
0.627563 0.549927 0.217285
0.728058 0.502533 0.314789
0.802582 0.428986 0.412781
0.847839 0.448883 0.418365
0.886078 0.479523 0.423615
0.919495 0.495117 0.413055
0.949188 0.509918 0.402496
0.975830 0.524323 0.392059
1.000000 0.537994 0.381775
0.528778 0.756256 0.445496
0.493103 0.750916 0.371338
0.467804 0.741516 0.315155
0.442963 0.732147 0.266144
0.419067 0.722809 0.223328
0.458313 0.703979 0.208740
0.528076 0.678497 0.212402
0.610535 0.646057 0.234619
0.715698 0.638611 0.281067
0.794678 0.602295 0.396149
0.854248 0.561798 0.525574
0.891174 0.574127 0.517212
0.923248 0.586700 0.506653
0.951660 0.598663 0.496063
0.977112 0.609833 0.485352
1.000000 0.620667 0.474670
0.611694 0.811615 0.533081
0.571564 0.808655 0.460968
0.537933 0.802795 0.397919
0.503235 0.796936 0.334229
0.468231 0.791168 0.278290
0.493927 0.778900 0.253082
0.549286 0.762238 0.247070
0.618896 0.741241 0.259247
0.700745 0.721954 0.293823
0.786285 0.713043 0.359558
0.848969 0.685303 0.488007
0.896088 0.658691 0.598511
0.926880 0.668518 0.588989
0.954102 0.677887 0.579315
0.978333 0.686707 0.569580
1.000000 0.695068 0.559662
0.683746 0.856995 0.615784
0.643158 0.854675 0.548279
0.601990 0.851807 0.480835
0.561554 0.848145 0.416992
0.518280 0.844666 0.346283
0.530945 0.836700 0.308167
0.572266 0.825806 0.290924
0.629669 0.812103 0.292236
0.695374 0.795197 0.315002
0.775208 0.787750 0.365540
0.843292 0.776642 0.452332
0.893555 0.755524 0.579163
0.930450 0.740936 0.657990
0.956482 0.748230 0.649200
0.979523 0.755096 0.640320
1.000000 0.761597 0.631348
0.747162 0.894928 0.693359
0.706512 0.893127 0.631714
0.662659 0.891449 0.565125
0.615387 0.889801 0.494415
0.567413 0.887787 0.427429
0.568390 0.882660 0.376831
0.596985 0.875610 0.346191
0.642822 0.866791 0.335327
0.699127 0.855865 0.345673
0.759766 0.842743 0.381531
0.833374 0.842010 0.448883
0.889801 0.832062 0.548737
0.930176 0.816071 0.662628
0.958740 0.810486 0.707947
0.980713 0.815887 0.699860
1.000000 0.820862 0.691681
0.803497 0.927185 0.765228
0.763092 0.925812 0.709290
0.719330 0.924561 0.648712
0.671661 0.923401 0.583282
0.619659 0.922363 0.512848
0.605591 0.920135 0.452332
0.623108 0.915741 0.414520
0.658020 0.910217 0.390045
0.705231 0.903442 0.386810
0.758972 0.895325 0.407654
0.813843 0.885620 0.456696
0.878326 0.887085 0.535858
0.927917 0.881470 0.637665
0.959991 0.869446 0.738220
0.981812 0.870239 0.750031
1.000000 0.874146 0.742523
0.854370 0.955017 0.831696
0.814178 0.954071 0.780762
0.770599 0.953217 0.725952
0.723175 0.952423 0.666656
0.671021 0.951660 0.602570
0.644928 0.951050 0.530273
0.649872 0.948853 0.483002
0.675354 0.945709 0.456055
0.713806 0.941864 0.438782
0.760406 0.937195 0.444244
0.810303 0.931702 0.475433
0.859528 0.925262 0.534424
0.911591 0.924622 0.617493
0.958710 0.926758 0.717743
0.982910 0.919739 0.792633
1.000000 0.922699 0.785645
0.901184 0.979095 0.893616
0.860809 0.978638 0.846558
0.817383 0.978180 0.796600
0.770111 0.977783 0.742920
0.718231 0.977356 0.685059
0.689514 0.977020 0.620117
0.677490 0.976563 0.551941
0.693695 0.975220 0.516113
0.724335 0.973511 0.499084
0.763977 0.971497 0.490540
0.808746 0.969055 0.504578
0.854492 0.966248 0.544067
0.897949 0.963013 0.608002
0.937378 0.959290 0.692078
0.982758 0.969635 0.789520
1.000000 0.967987 0.822510
0.949493 1.000000 0.956970
0.907990 1.000000 0.911652
0.861694 1.000000 0.862671
0.813538 1.000000 0.812683
0.761932 1.000000 0.760315
0.731049 1.000000 0.702179
0.713287 1.000000 0.637360
0.713806 1.000000 0.580414
0.736176 1.000000 0.550476
0.769653 1.000000 0.539673
0.809174 1.000000 0.542969
0.851166 1.000000 0.564240
0.892303 1.000000 0.609131
0.930328 1.000000 0.675903
0.963135 1.000000 0.759521
0.988525 1.000000 0.854126
0.000000 0.000000 0.000000
0.000000 0.000000 0.000000
0.062012 0.000000 0.000000
0.144775 0.000000 0.000000
0.236267 0.000000 0.000000
0.341919 0.000000 0.000000
0.459381 0.000000 0.000000
0.568115 0.000000 0.000000
0.657471 0.000000 0.000000
0.731018 0.012177 0.000000
0.792328 0.032745 0.000000
0.844513 0.046631 0.000000
0.889709 0.060638 0.000000
0.929779 0.074402 0.000000
0.966187 0.088318 0.000000
1.000000 0.102295 0.000000
0.000000 0.000000 0.000000
0.000000 0.000000 0.000000
0.062012 0.000000 0.000000
0.144775 0.000000 0.000000
0.236267 0.012207 0.000000
0.341919 0.025604 0.000000
0.459381 0.038696 0.000000
0.568115 0.051544 0.000000
0.657471 0.064819 0.000000
0.731018 0.078857 0.000000
0.792328 0.092682 0.000000
0.844513 0.106720 0.000000
0.889709 0.120880 0.000000
0.929779 0.135284 0.000000
0.966187 0.149811 0.000000
1.000000 0.164459 0.000000
0.000000 0.073059 0.000000
0.039551 0.073059 0.000000
0.082336 0.054596 0.000000
0.170471 0.052429 0.000000
0.256409 0.064423 0.008453
0.363495 0.077148 0.019379
0.480316 0.089966 0.030609
0.584930 0.102631 0.042145
0.670380 0.115753 0.048859
0.740845 0.130096 0.044800
0.799805 0.144379 0.040802
0.849945 0.158966 0.036835
0.893585 0.173706 0.032867
0.932312 0.188782 0.028961
0.967407 0.204193 0.025055
1.000000 0.219727 0.021179
0.042725 0.180603 0.034943
0.101166 0.180603 0.040863
0.128876 0.150269 0.027893
0.170074 0.134613 0.018463
0.277435 0.107788 0.057495
0.385925 0.120514 0.069550
0.501343 0.133331 0.082245
0.601440 0.146118 0.095367
0.683167 0.159210 0.106384
0.750641 0.173859 0.101685
0.807190 0.188721 0.097015
0.855499 0.203979 0.092407
0.897491 0.219208 0.087891
0.934814 0.234772 0.083374
0.968658 0.250427 0.078979
1.000000 0.266663 0.074615
0.107819 0.302521 0.095215
0.165558 0.302521 0.101105
0.184967 0.268829 0.081940
0.208740 0.233490 0.067841
0.248932 0.219208 0.055664
0.395203 0.175110 0.108398
0.521942 0.169495 0.138000
0.617584 0.182404 0.153442
0.695740 0.187805 0.161987
0.760315 0.210175 0.164551
0.814606 0.225281 0.158997
0.860992 0.240662 0.153503
0.901428 0.256042 0.148102
0.937408 0.271820 0.142792
0.969971 0.287506 0.137543
1.000000 0.303741 0.132385
0.176849 0.440521 0.163177
0.236633 0.440521 0.169250
0.246216 0.410339 0.141937
0.261414 0.375031 0.121735
0.277008 0.340881 0.103973
0.363190 0.317749 0.104950
0.520935 0.266815 0.168335
0.633301 0.243408 0.216858
0.707947 0.246399 0.225311
0.769836 0.271851 0.233856
0.821869 0.290283 0.229370
0.866455 0.306671 0.222687
0.905334 0.323120 0.216095
0.939911 0.339691 0.209625
0.971191 0.356537 0.203278
1.000000 0.373383 0.197021
0.253326 0.566925 0.238922
0.316010 0.566925 0.245148
0.314270 0.547028 0.210236
0.319427 0.521027 0.182526
0.324890 0.494202 0.157623
0.380646 0.450562 0.153229
0.494446 0.427277 0.164825
0.627960 0.373169 0.241608
0.719879 0.328156 0.304810
0.779114 0.350433 0.313812
0.829010 0.372040 0.309845
0.871826 0.389435 0.301605
0.909241 0.406647 0.293610
0.942474 0.423431 0.285706
0.972473 0.440155 0.277924
1.000000 0.456421 0.270386
0.339020 0.664612 0.310699
0.403687 0.664612 0.316833
0.388092 0.652802 0.268890
0.381622 0.636353 0.233856
0.375488 0.619507 0.203125
0.420563 0.590820 0.194489
0.497040 0.551849 0.202820
0.609711 0.535248 0.229370
0.713928 0.487640 0.322205
0.788147 0.450226 0.410706
0.836060 0.467194 0.400940
0.877167 0.483551 0.391235
0.913116 0.499268 0.381683
0.945038 0.514313 0.372253
0.973785 0.528839 0.362885
1.000000 0.542572 0.353699
0.434662 0.740173 0.397034
0.494049 0.740173 0.402771
0.466034 0.733429 0.339691
0.447144 0.722992 0.292511
0.428894 0.712463 0.251068
0.461121 0.694000 0.233429
0.523193 0.668915 0.233276
0.600281 0.636810 0.250763
0.701569 0.628143 0.290710
0.783478 0.591705 0.399139
0.842865 0.562469 0.493988
0.882416 0.575928 0.483978
0.916901 0.588684 0.474030
0.947510 0.600830 0.464020
0.975037 0.612274 0.454041
1.000000 0.623352 0.443970
0.529419 0.800079 0.492249
0.576477 0.800079 0.489960
0.541290 0.796387 0.423920
0.512573 0.789795 0.363647
0.483612 0.783264 0.309296
0.502777 0.771301 0.281067
0.550293 0.755066 0.271271
0.613953 0.734375 0.279236
0.688599 0.712036 0.308258
0.775177 0.705688 0.365479
0.840118 0.678162 0.485382
0.887482 0.659241 0.568054
0.920624 0.669250 0.558807
0.949982 0.678741 0.549469
0.976257 0.687897 0.540009
1.000000 0.696442 0.530426
0.612274 0.848633 0.572296
0.648041 0.848633 0.569000
0.609924 0.846283 0.502991
0.574127 0.842651 0.444092
0.537628 0.838684 0.380157
0.544342 0.830933 0.339355
0.578278 0.820404 0.318359
0.629425 0.806976 0.315826
0.690704 0.790375 0.333710
0.764557 0.779694 0.377228
0.834564 0.771637 0.452972
0.886627 0.750854 0.571594
0.924225 0.740997 0.630585
0.952393 0.748413 0.622070
0.977509 0.755493 0.613495
1.000000 0.762207 0.604828
0.684143 0.888977 0.646637
0.711212 0.888977 0.644470
0.672302 0.887207 0.583527
0.630493 0.885498 0.517975
0.588501 0.883270 0.455414
0.585022 0.878357 0.409912
0.606934 0.871613 0.376556
0.646545 0.862976 0.362122
0.698151 0.852356 0.368134
0.755493 0.839447 0.397919
0.824280 0.835541 0.456116
0.883057 0.828888 0.543823
0.925018 0.813324 0.651154
0.954773 0.810547 0.683319
0.978668 0.816010 0.675476
1.000000 0.821228 0.667542
0.747253 0.923096 0.716736
0.767334 0.923096 0.715393
0.728241 0.921753 0.659454
0.685913 0.920502 0.599274
0.639954 0.919342 0.534729
0.624115 0.917053 0.478729
0.635986 0.912872 0.445374
0.665161 0.907532 0.418793
0.707581 0.900940 0.411896
0.757568 0.892914 0.427612
0.810089 0.883392 0.468994
0.870453 0.881958 0.537628
0.922821 0.879639 0.628296
0.956482 0.868103 0.723907
0.979828 0.870392 0.727844
1.000000 0.874420 0.720581
0.803345 0.952423 0.782135
0.817871 0.952423 0.781372
0.778656 0.951508 0.730316
0.736084 0.950653 0.675323
0.689758 0.949890 0.616241
0.663208 0.949188 0.550323
0.664764 0.946960 0.506836
0.685059 0.943939 0.481781
0.718689 0.940216 0.464722
0.761475 0.935669 0.466187
0.808655 0.930267 0.491272
0.856232 0.923950 0.541534
0.905212 0.920776 0.614624
0.955261 0.926086 0.705109
0.980988 0.920013 0.772430
1.000000 0.923126 0.765686
0.853912 0.977844 0.843109
0.863983 0.977844 0.842712
0.824615 0.977386 0.795868
0.781921 0.976929 0.745667
0.735474 0.976563 0.691864
0.706573 0.976166 0.632141
0.693909 0.975616 0.572174
0.705383 0.974335 0.536957
0.731415 0.972687 0.518097
0.767426 0.970734 0.512634
0.809174 0.968353 0.522308
0.852875 0.965607 0.554962
0.895355 0.962372 0.610382
0.934387 0.958710 0.685425
0.980988 0.969818 0.774536
1.000000 0.968719 0.804199
0.900543 1.000000 0.900574
0.906952 1.000000 0.900360
0.867065 1.000000 0.856720
0.824249 1.000000 0.810669
0.777649 1.000000 0.761566
0.746887 1.000000 0.707642
0.727905 1.000000 0.647919
0.727173 1.000000 0.597748
0.745209 1.000000 0.568207
0.774719 1.000000 0.555481
0.811462 1.000000 0.560699
0.851074 1.000000 0.577240
0.890869 1.000000 0.615570
0.928345 1.000000 0.674408
0.961182 1.000000 0.750031
0.987366 1.000000 0.837372
0.000000 0.000000 0.000000
0.000000 0.000000 0.000000
0.047333 0.000000 0.000000
0.130188 0.000000 0.000000
0.220612 0.000000 0.000000
0.324829 0.000000 0.000000
0.442841 0.000000 0.000000
0.555206 0.000000 0.000000
0.647919 0.000000 0.000000
0.723999 0.000000 0.000000
0.787262 0.000000 0.000000
0.840881 0.005585 0.000000
0.887238 0.031342 0.000000
0.928253 0.057312 0.006470
0.965424 0.074432 0.006683
1.000000 0.088348 0.003235
0.000000 0.000000 0.000000
0.000000 0.000000 0.000000
0.047333 0.000000 0.000000
0.130188 0.000000 0.000000
0.220612 0.000000 0.000000
0.324829 0.000000 0.000000
0.442841 0.007416 0.001129
0.555206 0.018860 0.010040
0.647919 0.036987 0.018890
0.723999 0.062256 0.027679
0.787262 0.079346 0.027618
0.840881 0.093140 0.024048
0.887238 0.107178 0.020477
0.928253 0.121155 0.016968
0.965424 0.135376 0.013458
1.000000 0.149719 0.009979
0.000000 0.029358 0.000000
0.000000 0.029358 0.000000
0.047333 0.034332 0.000000
0.130188 0.048126 0.000000
0.220612 0.061493 0.007507
0.324829 0.074554 0.017670
0.442841 0.087524 0.027954
0.555206 0.100372 0.038483
0.647919 0.113953 0.041962
0.723999 0.128235 0.038300
0.787262 0.142670 0.034637
0.840881 0.157257 0.031036
0.887238 0.172211 0.027435
0.928253 0.187195 0.023865
0.965424 0.202515 0.020294
1.000000 0.218170 0.016785
0.000000 0.137085 0.040588
0.039337 0.137085 0.034515
0.102478 0.137085 0.040771
0.142639 0.117340 0.031403
0.239899 0.111206 0.055298
0.345673 0.124359 0.066467
0.463715 0.137543 0.078033
0.572205 0.150757 0.089966
0.660919 0.164459 0.097015
0.733887 0.179504 0.092804
0.794708 0.194702 0.088623
0.846375 0.210052 0.084473
0.891113 0.225616 0.080414
0.930725 0.241669 0.076324
0.966675 0.257782 0.072327
1.000000 0.274200 0.068359
0.054443 0.255585 0.099823
0.101501 0.255585 0.091278
0.163727 0.255585 0.097534
0.188782 0.221222 0.082642
0.228882 0.203156 0.071442
0.367310 0.167175 0.118469
0.484650 0.180664 0.131927
0.588867 0.194183 0.145905
0.673828 0.207947 0.157654
0.743713 0.223450 0.152618
0.802124 0.239166 0.147675
0.851837 0.255066 0.142731
0.894989 0.271240 0.137909
0.933258 0.287659 0.133118
0.967926 0.304108 0.128448
1.000000 0.321014 0.123779
0.123383 0.392914 0.166534
0.166443 0.392914 0.154633
0.230438 0.392914 0.161072
0.246429 0.359467 0.139008
0.266510 0.323761 0.122345
0.340424 0.299103 0.120056
0.497864 0.250580 0.180878
0.605225 0.252106 0.208130
0.686432 0.266296 0.225677
0.753418 0.282684 0.220184
0.809509 0.299316 0.214172
0.857330 0.316162 0.208191
0.898895 0.333191 0.202362
0.935791 0.350220 0.196594
0.969177 0.367493 0.190948
1.000000 0.384857 0.185425
0.196869 0.530426 0.243988
0.237823 0.530426 0.227661
0.304626 0.530426 0.234344
0.309967 0.506104 0.202942
0.320526 0.476654 0.179230
0.368713 0.434296 0.171478
0.471405 0.409271 0.178650
0.609467 0.356689 0.251862
0.698792 0.344208 0.299164
0.762939 0.361450 0.297180
0.816803 0.379333 0.289856
0.862823 0.396881 0.282593
0.902771 0.414459 0.275482
0.938293 0.431549 0.268494
0.970428 0.448517 0.261658
1.000000 0.464966 0.254883
0.278748 0.639252 0.314453
0.316284 0.639252 0.293518
0.385681 0.639252 0.300110
0.378540 0.624695 0.260559
0.378113 0.606018 0.231049
0.416199 0.577728 0.219147
0.484802 0.539520 0.223328
0.591034 0.520569 0.244690
0.699219 0.473175 0.333191
0.772278 0.454651 0.384491
0.823975 0.471710 0.375763
0.868195 0.488281 0.367004
0.906677 0.504333 0.358459
0.940857 0.519501 0.350006
0.971680 0.534180 0.341736
1.000000 0.548248 0.333588
0.362885 0.722351 0.386749
0.404205 0.722351 0.369202
0.470612 0.722351 0.375610
0.450439 0.713928 0.322571
0.438110 0.702271 0.282471
0.463531 0.684204 0.261597
0.517853 0.659668 0.257355
0.589447 0.628082 0.270172
0.686829 0.617767 0.303802
0.771820 0.581573 0.405945
0.830994 0.564758 0.466553
0.873474 0.578278 0.457336
0.910492 0.591248 0.448029
0.943359 0.603577 0.438782
0.972961 0.615295 0.429596
1.000000 0.626434 0.420410
0.449921 0.787506 0.464081
0.494812 0.787506 0.455414
0.550537 0.787506 0.459106
0.521179 0.782745 0.396454
0.498260 0.775391 0.344299
0.510956 0.763885 0.312714
0.550934 0.748108 0.298950
0.608612 0.727844 0.302490
0.676147 0.702301 0.326050
0.763550 0.698517 0.375244
0.830933 0.671295 0.486542
0.878693 0.660187 0.542267
0.914276 0.670410 0.533417
0.945862 0.680145 0.524445
0.974243 0.689453 0.515442
1.000000 0.698212 0.506287
0.538788 0.839691 0.547058
0.577209 0.839691 0.536713
0.620239 0.839691 0.532593
0.585297 0.837219 0.469849
0.555573 0.832672 0.417236
0.556732 0.825287 0.374268
0.583649 0.815094 0.349609
0.628876 0.802063 0.342804
0.685730 0.785797 0.355743
0.753174 0.771301 0.392303
0.825500 0.766754 0.457336
0.879547 0.746399 0.567200
0.917999 0.741302 0.606964
0.948303 0.748901 0.598846
0.975433 0.756165 0.590607
1.000000 0.763092 0.582336
0.613068 0.882690 0.610291
0.648651 0.882690 0.607361
0.681915 0.882690 0.604523
0.645630 0.880859 0.545166
0.608002 0.878784 0.484924
0.600403 0.874146 0.444794
0.616058 0.867676 0.410187
0.649994 0.859344 0.392273
0.696960 0.848938 0.393738
0.750916 0.836243 0.417175
0.814392 0.828796 0.466400
0.876068 0.825684 0.542236
0.919739 0.810547 0.642517
0.950714 0.810608 0.661682
0.976654 0.816315 0.654236
1.000000 0.821594 0.646637
0.684662 0.918823 0.676666
0.711578 0.918823 0.674774
0.737030 0.918823 0.672821
0.699768 0.917480 0.617920
0.659698 0.916199 0.559357
0.641205 0.914001 0.506592
0.647766 0.910034 0.473694
0.671844 0.904907 0.449921
0.709412 0.898468 0.439636
0.755920 0.890656 0.450012
0.806183 0.881317 0.483887
0.862244 0.876678 0.542358
0.917572 0.877808 0.621826
0.952881 0.866730 0.711823
0.977875 0.870544 0.708221
1.000000 0.874695 0.701263
0.747498 0.949738 0.739624
0.767487 0.949738 0.738434
0.786591 0.949738 0.737213
0.748840 0.948883 0.686737
0.708008 0.948029 0.632721
0.681061 0.947235 0.573242
0.678467 0.945129 0.531891
0.693848 0.942230 0.505188
0.723389 0.938599 0.492432
0.762482 0.934174 0.490173
0.806976 0.928894 0.509277
0.852966 0.922699 0.551178
0.898529 0.916748 0.614227
0.951752 0.925232 0.694885
0.979004 0.920288 0.754242
1.000000 0.923523 0.747772
0.803253 0.976563 0.798798
0.817749 0.976563 0.798157
0.831696 0.976563 0.797394
0.793549 0.976135 0.751038
0.752197 0.975677 0.701355
0.723206 0.975281 0.646973
0.709137 0.974731 0.593414
0.716248 0.973480 0.558868
0.737885 0.971924 0.538483
0.770538 0.970001 0.535919
0.809387 0.967682 0.541687
0.851196 0.964935 0.567871
0.892670 0.961792 0.614960
0.931366 0.958160 0.680908
0.979156 0.970001 0.761353
1.000000 0.969330 0.787628
0.854553 1.000000 0.855499
0.863617 1.000000 0.854218
0.873413 1.000000 0.853851
0.834778 1.000000 0.810883
0.792969 1.000000 0.765289
0.762238 1.000000 0.715668
0.742157 1.000000 0.661194
0.739441 1.000000 0.616364
0.753510 1.000000 0.587219
0.779297 1.000000 0.572540
0.813202 1.000000 0.575958
0.850922 1.000000 0.591888
0.889435 1.000000 0.623810
0.926300 1.000000 0.674805
0.959290 1.000000 0.742279
0.986328 1.000000 0.821930
0.000000 0.000000 0.027893
0.000000 0.000000 0.027893
0.047333 0.000000 0.014618
0.115845 0.000000 0.009308
0.205353 0.000000 0.014252
0.308258 0.000000 0.019562
0.426239 0.000000 0.025238
0.541962 0.000000 0.031342
0.638184 0.000000 0.030884
0.716858 0.000000 0.024048
0.782135 0.000000 0.017303
0.837250 0.000000 0.010895
0.884766 0.000000 0.004639
0.926697 0.000000 0.000000
0.964722 0.020203 0.006470
1.000000 0.045166 0.015930
0.000000 0.000000 0.027893
0.000000 0.000000 0.034424
0.047333 0.000000 0.027466
0.115845 0.000000 0.022156
0.205353 0.000000 0.026794
0.308258 0.000000 0.031952
0.426239 0.000000 0.037537
0.541962 0.001129 0.043579
0.638184 0.010040 0.043091
0.716858 0.018890 0.035980
0.782135 0.027679 0.029144
0.837250 0.050598 0.036469
0.884766 0.075317 0.045258
0.926697 0.100861 0.054077
0.964722 0.121124 0.056976
1.000000 0.135101 0.053436
0.000000 0.018982 0.029358
0.000000 0.024597 0.034424
0.047333 0.029358 0.039520
0.115845 0.029358 0.034119
0.205353 0.037476 0.038727
0.308258 0.047424 0.045654
0.426239 0.058136 0.053833
0.541962 0.068481 0.062042
0.638184 0.085968 0.070313
0.716858 0.111206 0.078644
0.782135 0.128784 0.078400
0.837250 0.143005 0.074738
0.884766 0.157440 0.071106
0.926697 0.172180 0.067505
0.964722 0.187134 0.063873
1.000000 0.202301 0.060333
0.000000 0.093323 0.045013
0.000000 0.093323 0.043976
0.043091 0.093323 0.041016
0.115845 0.099121 0.047699
0.205353 0.112793 0.057800
0.308258 0.126404 0.068176
0.426239 0.139862 0.078766
0.541962 0.153412 0.089691
0.638184 0.167786 0.093353
0.716858 0.183014 0.089508
0.782135 0.198273 0.085754
0.837250 0.214020 0.082001
0.884766 0.229858 0.078278
0.926697 0.246094 0.074585
0.964722 0.262695 0.070953
1.000000 0.279388 0.067322
0.000000 0.209015 0.100250
0.047668 0.209015 0.100952
0.102478 0.209015 0.095062
0.170258 0.209015 0.101715
0.209412 0.186523 0.090546
0.328156 0.176422 0.118835
0.446869 0.190430 0.131165
0.559113 0.204498 0.143890
0.651276 0.219177 0.151459
0.726837 0.235229 0.146942
0.789551 0.251404 0.142426
0.842712 0.267883 0.138031
0.888611 0.284637 0.133667
0.929169 0.301666 0.129333
0.965942 0.318970 0.125061
1.000000 0.336426 0.120880
0.055176 0.342834 0.163391
0.114044 0.342834 0.164551
0.164215 0.342834 0.154968
0.233734 0.342834 0.161865
0.256042 0.307983 0.144287
0.318207 0.281677 0.138794
0.467743 0.246033 0.188904
0.575958 0.260742 0.204071
0.664246 0.275818 0.216858
0.736664 0.292725 0.211395
0.796997 0.309845 0.205994
0.848145 0.327148 0.200684
0.892456 0.344818 0.195404
0.931671 0.362488 0.190247
0.967133 0.380249 0.185150
1.000000 0.398132 0.180145
0.124512 0.488586 0.236237
0.183716 0.488586 0.237518
0.231384 0.488586 0.223358
0.303741 0.488586 0.230560
0.315979 0.459808 0.204742
0.357025 0.418976 0.193604
0.447693 0.391968 0.196320
0.590057 0.341125 0.266357
0.676941 0.351318 0.290344
0.746429 0.369507 0.284424
0.804382 0.387634 0.277863
0.853638 0.405670 0.271454
0.896362 0.423431 0.265106
0.934204 0.441010 0.258850
0.968414 0.458221 0.252716
1.000000 0.474762 0.246674
