Color Lookup Presets Effects/z1 (65).CUBE
#Created by: Adobe Photoshop Export Color Lookup Plugin
#Copyright: (C) Copyright 2014 www.zafizack.com
TITLE "zafizack"
#LUT size
LUT_3D_SIZE 6
#data domain
DOMAIN_MIN 0.0 0.0 0.0
DOMAIN_MAX 1.0 1.0 1.0
#LUT data points
0.036896 0.032227 0.040222
0.204437 0.032227 0.109863
0.809113 0.032227 0.387634
1.000000 0.032227 0.562897
1.000000 0.032227 0.562897
1.000000 0.032227 0.562897
0.000000 0.085876 0.000000
0.019775 0.089294 0.000000
0.596649 0.175476 0.178864
1.000000 0.212250 0.358246
0.977997 0.249298 0.315399
0.993530 0.256256 0.358551
0.000000 0.422852 0.000000
0.000000 0.422852 0.000000
0.144806 0.429565 0.000000
0.574097 0.550079 0.000000
0.715942 0.580597 0.014221
0.701111 0.610931 0.008179
0.000000 0.712769 0.000000
0.000000 0.712982 0.000000
0.000000 0.713196 0.000000
0.234863 0.721252 0.000000
0.558624 0.839691 0.000000
0.579834 0.858765 0.000000
0.000000 0.910461 0.000000
0.000000 0.910553 0.000000
0.000000 0.910614 0.000000
0.011993 0.910706 0.000000
0.357361 0.916290 0.000000
0.514679 0.991974 0.000000
0.000000 1.000000 0.000000
0.000000 1.000000 0.000000
0.000000 1.000000 0.000000
0.000000 1.000000 0.000000
0.189026 1.000000 0.000000
0.459229 1.000000 0.000000
0.090149 0.032227 0.156494
0.455414 0.032227 0.435150
0.922791 0.032227 0.636658
1.000000 0.032227 0.870422
1.000000 0.032227 0.973877
1.000000 0.032227 1.000000
0.000000 0.127869 0.000000
0.081268 0.127869 0.033081
0.729858 0.127869 0.385590
1.000000 0.127869 0.643555
1.000000 0.127869 0.715424
1.000000 0.127869 0.802094
0.000000 0.462311 0.000000
0.000000 0.462311 0.000000
0.156860 0.462311 0.000000
0.589752 0.539459 0.003479
0.783661 0.570099 0.163544
0.855408 0.600372 0.361176
0.000000 0.744904 0.000000
0.000000 0.745117 0.000000
0.000000 0.745331 0.000000
0.239807 0.745544 0.000000
0.565063 0.834808 0.000000
0.582489 0.853333 0.000000
0.000000 0.928223 0.000000
0.000000 0.927246 0.000000
0.000000 0.927277 0.000000
0.008942 0.927338 0.000000
0.357880 0.927399 0.000000
0.515381 0.990509 0.000000
0.000000 1.000000 0.000000
0.000000 1.000000 0.000000
0.000000 1.000000 0.000000
0.000000 1.000000 0.000000
0.198334 1.000000 0.000000
0.465363 1.000000 0.000000
0.441711 0.032227 0.909210
0.894043 0.032227 1.000000
1.000000 0.032227 1.000000
1.000000 0.032227 1.000000
1.000000 0.032227 1.000000
1.000000 0.032227 1.000000
0.220184 0.082214 0.538818
0.435822 0.115814 0.774414
1.000000 0.171600 1.000000
1.000000 0.171600 1.000000
1.000000 0.171600 1.000000
1.000000 0.171600 1.000000
0.000000 0.499512 0.000000
0.000000 0.499512 0.069000
0.417236 0.499512 0.417877
0.949066 0.514130 0.742920
1.000000 0.499512 0.909760
1.000000 0.499512 1.000000
0.000000 0.774841 0.000000
0.000000 0.775024 0.000000
0.000000 0.775177 0.000000
0.341705 0.775391 0.061523
0.781708 0.829163 0.430176
0.867371 0.847900 0.624878
0.000000 0.944397 0.000000
0.000000 0.943207 0.000000
0.000000 0.942657 0.000000
0.051727 0.942688 0.000000
0.392609 0.942749 0.000000
0.624542 0.987122 0.186157
0.000000 1.000000 0.000000
0.000000 1.000000 0.000000
0.000000 1.000000 0.000000
0.000000 1.000000 0.000000
0.253998 1.000000 0.000000
0.502502 1.000000 0.000000
0.598480 0.032227 1.000000
0.993011 0.032227 1.000000
1.000000 0.032227 1.000000
1.000000 0.032227 1.000000
1.000000 0.032227 1.000000
1.000000 0.032227 1.000000
0.546143 0.070953 1.000000
0.660034 0.103973 1.000000
1.000000 0.216827 1.000000
1.000000 0.216827 1.000000
1.000000 0.216827 1.000000
1.000000 0.216827 1.000000
0.112732 0.427094 0.671722
0.169464 0.458984 0.835358
0.752441 0.489197 1.000000
1.000000 0.536133 1.000000
1.000000 0.536133 1.000000
1.000000 0.536133 1.000000
0.000000 0.802673 0.333374
0.000000 0.802795 0.425415
0.254120 0.803040 0.613647
0.767914 0.803223 0.892487
1.000000 0.823425 1.000000
1.000000 0.804382 1.000000
0.000000 0.958923 0.079559
0.000000 0.957825 0.160248
0.008179 0.956970 0.292023
0.327484 0.956940 0.397003
0.764374 0.956970 0.705780
0.912689 0.983795 0.860779
0.000000 1.000000 0.000000
0.000000 1.000000 0.000000
0.000000 1.000000 0.000000
0.022980 1.000000 0.000000
0.516998 1.000000 0.359619
0.808594 1.000000 0.631348
0.616577 0.032227 1.000000
1.000000 0.032227 1.000000
1.000000 0.032227 1.000000
1.000000 0.032227 1.000000
1.000000 0.032227 1.000000
1.000000 0.032227 1.000000
0.580688 0.059662 1.000000
0.689789 0.092438 1.000000
1.000000 0.263062 1.000000
1.000000 0.263062 1.000000
1.000000 0.263062 1.000000
1.000000 0.263062 1.000000
0.306458 0.415558 1.000000
0.290619 0.448029 1.000000
0.792572 0.478882 1.000000
1.000000 0.573975 1.000000
1.000000 0.573975 1.000000
1.000000 0.573975 1.000000
0.093475 0.780426 0.810516
0.124176 0.752441 0.853699
0.478577 0.775360 1.000000
0.895142 0.797241 1.000000
1.000000 0.829102 1.000000
1.000000 0.829193 1.000000
0.099182 0.972015 0.639893
0.084106 0.971130 0.671112
0.212799 0.970490 0.756256
0.659668 0.970276 0.968384
0.974640 0.970306 1.000000
1.000000 0.980408 1.000000
0.000000 1.000000 0.419037
0.000000 1.000000 0.475891
0.081390 1.000000 0.561859
0.541992 1.000000 0.795410
0.803558 1.000000 0.901703
0.988007 1.000000 1.000000
0.619476 0.032227 1.000000
1.000000 0.032227 1.000000
1.000000 0.032227 1.000000
1.000000 0.032227 1.000000
1.000000 0.032227 1.000000
1.000000 0.032227 1.000000
0.594543 0.055176 1.000000
0.684082 0.101776 1.000000
1.000000 0.309326 1.000000
1.000000 0.309326 1.000000
1.000000 0.309326 1.000000
1.000000 0.309326 1.000000
0.312134 0.403931 1.000000
0.295380 0.438324 1.000000
0.792816 0.482483 1.000000
1.000000 0.611359 1.000000
1.000000 0.611359 1.000000
1.000000 0.611359 1.000000
0.232635 0.720917 1.000000
0.221619 0.745636 1.000000
0.526031 0.769012 1.000000
0.902496 0.797699 1.000000
1.000000 0.852783 1.000000
1.000000 0.852936 1.000000
0.232147 0.983856 0.933594
0.212036 0.970032 0.945953
0.357971 0.954224 1.000000
0.742798 0.956116 1.000000
0.990967 0.968414 1.000000
1.000000 0.982819 1.000000
0.102936 1.000000 0.783478
0.120117 1.000000 0.823883
0.237183 1.000000 0.898560
0.663544 1.000000 1.000000
0.949768 1.000000 1.000000
1.000000 1.000000 1.000000
