Color Lookup Presets Effects/z1 (71).CUBE
#Created by: Adobe Photoshop Export Color Lookup Plugin
#Copyright: (C) Copyright 2016 www.zafizack.com
TITLE "zafizack pastel color preset"
#LUT size
LUT_3D_SIZE 16
#data domain
DOMAIN_MIN 0.0 0.0 0.0
DOMAIN_MAX 1.0 1.0 1.0
#LUT data points
0.000000 0.000000 0.000000
0.104309 0.009338 0.008698
0.194611 0.017273 0.016235
0.281311 0.024536 0.022766
0.397125 0.036316 0.033325
0.470367 0.047668 0.044281
0.540741 0.057861 0.054779
0.609894 0.066833 0.068268
0.678467 0.075745 0.082397
0.746429 0.084106 0.094849
0.797211 0.100128 0.123596
0.840515 0.119720 0.156128
0.883545 0.138397 0.182098
0.926971 0.158630 0.205139
0.965149 0.178772 0.222168
1.000000 0.194580 0.235870
0.000031 0.070313 0.000031
0.083130 0.071869 0.001221
0.179352 0.086761 0.007538
0.260895 0.098846 0.013580
0.374939 0.110413 0.020905
0.457489 0.120209 0.030548
0.527618 0.129120 0.040253
0.596497 0.136505 0.050110
0.664642 0.142700 0.062653
0.732300 0.148010 0.074249
0.796539 0.154358 0.086914
0.839630 0.171326 0.118713
0.882935 0.196075 0.151886
0.926361 0.219696 0.180176
0.965149 0.237152 0.200958
1.000000 0.251526 0.216614
0.000031 0.153046 0.000031
0.081970 0.153595 0.000763
0.166077 0.155426 0.002075
0.249237 0.165894 0.007202
0.355896 0.175415 0.013092
0.445984 0.183533 0.019897
0.515900 0.195099 0.028168
0.584412 0.205261 0.036804
0.652435 0.213989 0.047211
0.719910 0.221802 0.058838
0.787140 0.228912 0.069336
0.839050 0.244293 0.092346
0.882355 0.264557 0.128235
0.925812 0.284485 0.161591
0.965149 0.300415 0.185730
1.000000 0.313171 0.203186
0.000031 0.244598 0.000031
0.078003 0.243195 0.000000
0.162018 0.244873 0.000916
0.238861 0.248352 0.002625
0.337646 0.260834 0.007111
0.435638 0.272461 0.012848
0.505249 0.282257 0.018860
0.573608 0.291107 0.026093
0.641235 0.299072 0.033722
0.708588 0.306122 0.044495
0.775360 0.312714 0.054474
0.838409 0.320831 0.067535
0.881714 0.339417 0.099060
0.925018 0.357666 0.138763
0.965118 0.373260 0.167816
1.000000 0.385193 0.187744
0.000031 0.342102 0.000031
0.077209 0.339203 0.000000
0.158325 0.340149 0.000122
0.234558 0.341919 0.001221
0.322815 0.346436 0.003326
0.426239 0.357117 0.007477
0.496246 0.367737 0.012848
0.564301 0.376678 0.018127
0.631561 0.384521 0.024353
0.698151 0.391663 0.032288
0.764435 0.398438 0.041412
0.830658 0.404694 0.049683
0.881134 0.418457 0.077637
0.924347 0.435455 0.113983
0.965118 0.445679 0.149567
1.000000 0.451599 0.172546
0.000153 0.438568 0.000122
0.075531 0.435211 0.000000
0.156464 0.435394 0.000000
0.232178 0.436768 0.000763
0.316437 0.438934 0.002075
0.418640 0.443756 0.004242
0.487610 0.453461 0.008026
0.556335 0.460541 0.012970
0.623077 0.464905 0.017639
0.689575 0.468689 0.022980
0.755463 0.472290 0.030945
0.821198 0.475555 0.038452
0.880463 0.480103 0.055023
0.923737 0.488342 0.093109
0.965118 0.495667 0.132294
1.000000 0.501068 0.159058
0.000153 0.507172 0.000122
0.074890 0.505371 0.000000
0.154419 0.505310 0.000000
0.230011 0.505646 0.000397
0.312195 0.506378 0.001434
0.413269 0.507904 0.003021
0.481018 0.510651 0.005157
0.548523 0.515289 0.008636
0.615967 0.520111 0.013153
0.682281 0.524139 0.017365
0.747833 0.527588 0.022980
0.813141 0.530548 0.029510
0.877991 0.533813 0.035004
0.923126 0.540375 0.076874
0.965057 0.546844 0.116455
1.000000 0.551697 0.147705
0.000153 0.567322 0.000122
0.073456 0.565277 0.000000
0.152832 0.564941 0.000000
0.228119 0.565216 0.000153
0.308655 0.565613 0.000946
0.408722 0.566925 0.002258
0.477722 0.568787 0.004028
0.542755 0.571411 0.006104
0.609131 0.575531 0.009277
0.675934 0.580200 0.013519
0.741302 0.583588 0.017456
0.806396 0.586761 0.022766
0.870819 0.589508 0.027374
0.922546 0.593872 0.060791
0.965057 0.599426 0.102875
1.000000 0.603516 0.139313
0.000214 0.627319 0.000153
0.072449 0.625214 0.000000
0.150848 0.624786 0.000000
0.226379 0.624908 0.000000
0.305664 0.625183 0.000671
0.404846 0.626099 0.001709
0.474823 0.627594 0.003174
0.539581 0.629883 0.005066
0.604218 0.632751 0.007141
0.669769 0.636200 0.010071
0.735687 0.640564 0.013824
0.800690 0.643555 0.018066
0.865173 0.646484 0.021851
0.921967 0.649170 0.045044
0.965057 0.653381 0.095856
1.000000 0.656647 0.135101
0.000214 0.687683 0.000153
0.071533 0.685516 0.000000
0.149109 0.684998 0.000000
0.224792 0.684998 0.000000
0.302643 0.685120 0.000427
0.401611 0.685669 0.001312
0.472504 0.687012 0.002502
0.536652 0.688995 0.004150
0.601166 0.691589 0.006104
0.665619 0.694580 0.008240
0.730286 0.697632 0.010864
0.795868 0.701599 0.014771
0.860260 0.704346 0.018005
0.921417 0.706573 0.029724
0.964935 0.708893 0.092224
1.000000 0.711182 0.136749
0.000244 0.748322 0.000153
0.070068 0.746185 0.000000
0.147156 0.745392 0.000000
0.223328 0.745361 0.000000
0.300140 0.745422 0.000214
0.398407 0.745819 0.000916
0.470276 0.746765 0.001953
0.534180 0.748627 0.003326
0.598083 0.751007 0.005157
0.662811 0.754120 0.007202
0.727020 0.757050 0.009430
0.791412 0.759705 0.011993
0.856140 0.763367 0.015350
0.920288 0.765564 0.017853
0.964233 0.765594 0.091766
1.000000 0.766846 0.145691
0.000244 0.809235 0.000153
0.069336 0.807343 0.000000
0.145386 0.806519 0.000000
0.221832 0.806335 0.000000
0.297424 0.806458 0.000031
0.395691 0.806671 0.000580
0.468384 0.807434 0.001495
0.531952 0.808868 0.002747
0.595551 0.811249 0.004242
0.659607 0.814087 0.006134
0.724091 0.817291 0.008423
0.788513 0.820496 0.010742
0.852478 0.822906 0.013214
0.916809 0.825867 0.015961
0.963562 0.823456 0.096680
1.000000 0.823456 0.164398
0.000244 0.860352 0.000214
0.067474 0.859039 0.000000
0.143280 0.858643 0.000000
0.220245 0.858887 0.000000
0.295227 0.859497 0.000000
0.393036 0.860260 0.000397
0.466766 0.861542 0.001129
0.529785 0.863495 0.002228
0.593292 0.865967 0.003632
0.657074 0.869415 0.005341
0.721344 0.873169 0.007416
0.786102 0.877289 0.009796
0.850372 0.880798 0.012329
0.914124 0.883789 0.014435
0.962952 0.879486 0.113678
1.000000 0.878418 0.194916
0.000244 0.906891 0.000214
0.067169 0.905334 0.000000
0.141357 0.904877 0.000000
0.218689 0.905090 0.000000
0.292847 0.905609 0.000000
0.390594 0.906616 0.000214
0.465149 0.907715 0.000854
0.528137 0.909424 0.001892
0.591125 0.911743 0.003174
0.654968 0.915070 0.004791
0.719055 0.918732 0.006683
0.783783 0.923096 0.009033
0.848267 0.927185 0.011627
0.912048 0.929596 0.018280
0.962463 0.923248 0.136017
1.000000 0.920837 0.227753
0.000305 0.953552 0.000214
0.064728 0.952271 0.000000
0.139038 0.951721 0.000000
0.217194 0.951843 0.000000
0.290741 0.952362 0.000000
0.388123 0.953064 0.000122
0.463654 0.954163 0.000671
0.526581 0.955750 0.001587
0.589386 0.958038 0.002747
0.652679 0.961121 0.004181
0.716583 0.964600 0.006104
0.782104 0.964600 0.023895
0.845612 0.964661 0.062256
0.905731 0.964661 0.113525
0.960938 0.964722 0.182678
1.000000 0.961731 0.275177
0.000793 1.000000 0.000671
0.064728 0.999176 0.000000
0.137146 0.998657 0.000000
0.215485 0.998749 0.000000
0.288574 0.999176 0.000000
0.385925 1.000000 0.000000
0.463165 1.000000 0.001678
0.527161 1.000000 0.004456
0.591125 1.000000 0.009155
0.655731 1.000000 0.018433
0.720154 1.000000 0.042114
0.783905 1.000000 0.078278
0.845551 1.000000 0.132202
0.904236 1.000000 0.201324
0.957916 1.000000 0.276001
1.000000 1.000000 0.353485
0.000000 0.000000 0.047638
0.099701 0.007080 0.088440
0.191406 0.014801 0.101074
0.276855 0.021515 0.111572
0.392578 0.032562 0.127136
0.467987 0.043823 0.149048
0.538116 0.054169 0.168915
0.607300 0.063873 0.185883
0.675812 0.073029 0.201080
0.744049 0.081482 0.214417
0.797058 0.096741 0.232117
0.840302 0.116821 0.252899
0.883392 0.136017 0.271118
0.926819 0.155609 0.289490
0.965149 0.176453 0.303131
1.000000 0.192627 0.315399
0.000000 0.065002 0.069000
0.078125 0.067657 0.072327
0.176453 0.081848 0.084259
0.259186 0.090118 0.091461
0.372284 0.098877 0.099762
0.455994 0.107422 0.110687
0.525787 0.115417 0.127441
0.594788 0.122467 0.146149
0.662659 0.129059 0.162659
0.730377 0.134949 0.177124
0.796661 0.141052 0.190125
0.839722 0.158966 0.216187
0.882935 0.181854 0.238647
0.926331 0.208130 0.259918
0.965149 0.227295 0.276581
1.000000 0.242554 0.290375
0.000000 0.147919 0.071259
0.072327 0.151062 0.068176
0.162994 0.153046 0.070129
0.247437 0.161987 0.079315
0.353210 0.169434 0.086975
0.444489 0.176605 0.095215
0.514343 0.182465 0.107574
0.582916 0.190155 0.119324
0.650543 0.197693 0.135681
0.718170 0.204712 0.150116
0.785248 0.211029 0.162384
0.839142 0.226288 0.185883
0.882446 0.248962 0.213623
0.925812 0.270294 0.238800
0.965149 0.287659 0.257782
1.000000 0.300842 0.272919
0.000000 0.237854 0.070435
0.060852 0.240723 0.059570
0.155243 0.242584 0.059296
0.236847 0.246246 0.062195
0.335388 0.256348 0.072205
0.434143 0.266632 0.081940
0.503693 0.275116 0.092072
0.572052 0.282684 0.103363
0.639587 0.289551 0.113892
0.706604 0.295776 0.126678
0.773346 0.301636 0.139465
0.838501 0.307953 0.152496
0.881744 0.327209 0.188019
0.925110 0.346313 0.217865
0.965149 0.362762 0.240112
1.000000 0.375031 0.256989
0.000000 0.335846 0.070465
0.055328 0.337189 0.055420
0.148346 0.337799 0.053619
0.230499 0.339569 0.055237
0.319763 0.344025 0.059967
0.424774 0.353210 0.069061
0.494446 0.362701 0.080017
0.562714 0.370453 0.091309
0.629639 0.377533 0.101624
0.696442 0.383850 0.110870
0.762604 0.389832 0.119537
0.828796 0.395477 0.130859
0.881165 0.408600 0.160797
0.924286 0.425873 0.197784
0.965149 0.440765 0.224091
1.000000 0.447052 0.243073
0.000000 0.432220 0.069275
0.053253 0.433044 0.053528
0.145386 0.433014 0.051239
0.227051 0.433929 0.052277
0.311462 0.436340 0.055054
0.416351 0.440887 0.059265
0.486145 0.449707 0.067444
0.554474 0.457977 0.079254
0.621521 0.461914 0.089874
0.687897 0.465454 0.098907
0.753693 0.468506 0.106720
0.819336 0.471649 0.113617
0.880524 0.475861 0.128448
0.923676 0.484009 0.175690
0.965149 0.491577 0.208252
1.000000 0.497131 0.229706
0.000000 0.503906 0.068817
0.052368 0.504120 0.052673
0.142456 0.503906 0.050140
0.224274 0.504120 0.050598
0.306152 0.504822 0.052795
0.408783 0.506348 0.055573
0.479279 0.509125 0.060272
0.546875 0.513275 0.067810
0.614319 0.517883 0.079865
0.680298 0.521545 0.089600
0.746002 0.524567 0.097168
0.811005 0.527527 0.103821
0.876007 0.530365 0.108307
0.923126 0.536530 0.153870
0.965149 0.543304 0.194458
1.000000 0.548187 0.219025
0.000000 0.563873 0.067657
0.051239 0.563934 0.051514
0.140381 0.563568 0.048798
0.222290 0.563568 0.048981
0.301971 0.563995 0.050537
0.403595 0.565033 0.052673
0.475159 0.567139 0.056244
0.540985 0.569763 0.060638
0.607483 0.573700 0.069641
0.673981 0.577850 0.080109
0.739563 0.581207 0.088409
0.804474 0.583923 0.094940
0.868958 0.586700 0.099060
0.922546 0.590820 0.129761
0.965118 0.596283 0.181671
1.000000 0.600464 0.210480
0.000000 0.623901 0.066711
0.050232 0.623779 0.050537
0.138062 0.623352 0.047821
0.220276 0.623199 0.047699
0.298492 0.623383 0.049042
0.399292 0.624176 0.050537
0.472260 0.625824 0.053436
0.537415 0.628143 0.057068
0.602325 0.630829 0.063385
0.668060 0.634430 0.071625
0.733978 0.638458 0.080322
0.798920 0.641296 0.087433
0.863007 0.643799 0.091675
0.921906 0.646484 0.109375
0.965118 0.650879 0.171722
1.000000 0.654083 0.205566
0.000000 0.684235 0.065918
0.049377 0.684113 0.049591
0.136108 0.683472 0.046875
0.218475 0.683258 0.046631
0.295502 0.683319 0.047638
0.395782 0.683838 0.048798
0.469574 0.685059 0.051147
0.534302 0.687225 0.054077
0.599121 0.689850 0.059570
0.663727 0.692810 0.066406
0.728516 0.695770 0.073151
0.794037 0.699554 0.080658
0.858398 0.702087 0.085205
0.921326 0.704041 0.092133
0.964813 0.706726 0.164917
1.000000 0.709015 0.205261
0.000000 0.744934 0.064545
0.048187 0.744659 0.048676
0.134094 0.743927 0.045776
0.216827 0.743713 0.045441
0.292725 0.743622 0.046082
0.392578 0.744019 0.046936
0.467468 0.744934 0.048889
0.531647 0.746613 0.051331
0.595886 0.749207 0.055634
0.660492 0.752136 0.062592
0.725189 0.755310 0.068665
0.789368 0.757935 0.074524
0.854218 0.761383 0.079254
0.918396 0.763367 0.083313
0.964111 0.763824 0.161072
1.000000 0.765106 0.210938
0.000000 0.806152 0.063965
0.047607 0.805756 0.048126
0.132019 0.805054 0.045227
0.215088 0.804688 0.044678
0.290100 0.804504 0.045288
0.389709 0.804779 0.045746
0.465485 0.805542 0.047302
0.529114 0.806946 0.049255
0.593170 0.809143 0.052795
0.657471 0.812195 0.059174
0.722046 0.815430 0.065552
0.786591 0.818634 0.071381
0.850586 0.821075 0.074982
0.914978 0.823639 0.079193
0.963470 0.822083 0.164429
1.000000 0.822083 0.224823
0.000000 0.857513 0.062347
0.046387 0.857605 0.046783
0.129913 0.857391 0.043884
0.213623 0.857513 0.043335
0.287567 0.857849 0.043701
0.387054 0.858521 0.043945
0.463715 0.859680 0.045288
0.527191 0.861725 0.046844
0.590668 0.864258 0.049408
0.654846 0.867523 0.055176
0.719269 0.871490 0.061493
0.784058 0.875763 0.067719
0.848297 0.879242 0.071655
0.912354 0.881836 0.075195
0.962952 0.878784 0.176208
1.000000 0.877625 0.249146
0.000000 0.903778 0.062073
0.046051 0.903870 0.046448
0.127838 0.903595 0.043579
0.211731 0.903687 0.042999
0.285217 0.904022 0.043304
0.384735 0.904663 0.043457
0.462158 0.905792 0.044403
0.525543 0.907684 0.045868
0.588776 0.910065 0.048126
0.652466 0.913361 0.053406
0.716675 0.917084 0.059265
0.781494 0.921387 0.065460
0.846313 0.925354 0.070038
0.910675 0.928650 0.073914
0.962372 0.922913 0.192749
1.000000 0.920197 0.279480
0.000000 0.950470 0.060089
0.044464 0.950531 0.044952
0.125732 0.950195 0.042145
0.210480 0.950317 0.041534
0.283203 0.950531 0.041687
0.382416 0.951447 0.041687
0.460785 0.952454 0.042480
0.523804 0.954010 0.043549
0.587006 0.956238 0.045593
0.650452 0.959442 0.049927
0.714508 0.963043 0.055389
0.779755 0.964661 0.076111
0.844025 0.964661 0.112457
0.904846 0.964722 0.172485
0.960754 0.964752 0.231659
1.000000 0.961517 0.325439
0.000000 0.997711 0.060089
0.044403 0.997681 0.044952
0.123260 0.997375 0.042145
0.208527 0.997437 0.041412
0.280548 0.997681 0.041595
0.379974 0.998199 0.041412
0.459320 0.999176 0.042084
0.522827 1.000000 0.044678
0.587494 1.000000 0.053619
0.652313 1.000000 0.071655
0.717072 1.000000 0.096680
0.781403 1.000000 0.135376
0.843933 1.000000 0.190826
0.903229 1.000000 0.252289
0.957489 1.000000 0.325623
1.000000 1.000000 0.405273
0.000000 0.000000 0.107269
0.094574 0.004852 0.190521
0.187775 0.011871 0.208801
0.272003 0.018829 0.226532
0.387970 0.029114 0.244049
0.465240 0.040283 0.260406
0.535645 0.050964 0.275269
0.604828 0.061035 0.289276
0.673370 0.070282 0.302155
0.741394 0.078766 0.314117
0.796936 0.093262 0.327087
0.840088 0.113770 0.342590
0.883362 0.133636 0.357422
0.926697 0.152710 0.372559
0.965149 0.174286 0.384491
1.000000 0.190765 0.394562
0.000000 0.061401 0.149170
0.068268 0.059814 0.167572
0.172455 0.073944 0.186554
0.256531 0.084045 0.203339
0.367981 0.094147 0.219025
0.453308 0.103333 0.234314
0.523376 0.111877 0.248413
0.592194 0.119171 0.261780
0.660278 0.126007 0.273804
0.727783 0.132019 0.284821
0.795227 0.137604 0.294678
0.839569 0.155701 0.311859
0.882904 0.177795 0.328857
0.926208 0.204895 0.346313
0.965149 0.224823 0.360657
1.000000 0.240509 0.372009
0.000000 0.143677 0.156555
0.067627 0.147308 0.163788
0.157501 0.148438 0.166016
0.244690 0.157532 0.181549
0.350037 0.163239 0.195221
0.442871 0.168488 0.208252
0.512543 0.173370 0.220917
0.580963 0.178162 0.233185
0.648804 0.182709 0.244568
0.716278 0.189392 0.255432
0.783295 0.196594 0.264923
0.839142 0.212524 0.279755
0.882416 0.237823 0.300323
0.925720 0.261047 0.320526
0.965240 0.279572 0.337158
1.000000 0.293762 0.350067
0.000000 0.231506 0.158325
0.057343 0.235962 0.155701
0.144867 0.239380 0.150055
0.233856 0.243103 0.151123
0.331970 0.251434 0.174438
0.432648 0.259338 0.187500
0.502380 0.265686 0.199341
0.570648 0.271454 0.210754
0.638123 0.276825 0.220978
0.704987 0.281860 0.230591
0.771515 0.286774 0.238892
0.837952 0.291626 0.246490
0.881866 0.311981 0.271179
0.925110 0.332733 0.294678
0.965240 0.350647 0.314117
1.000000 0.363739 0.328705
0.000000 0.329926 0.157776
0.051758 0.332947 0.148163
0.133667 0.335388 0.134674
0.223816 0.337769 0.132050
0.316742 0.342316 0.139954
0.423370 0.348755 0.161713
0.493134 0.356812 0.180939
0.561127 0.362976 0.192627
0.628174 0.368622 0.202972
0.694824 0.373840 0.212463
0.760895 0.378967 0.220703
0.826935 0.383911 0.228058
0.881287 0.396118 0.246552
0.924347 0.414703 0.274384
0.965240 0.431091 0.296875
1.000000 0.441956 0.312897
0.000000 0.426025 0.156555
0.049713 0.428650 0.144135
0.129547 0.430176 0.130524
0.218689 0.431946 0.126801
0.304688 0.434204 0.130157
0.413635 0.439087 0.138336
0.485077 0.445862 0.154297
0.553131 0.453613 0.176544
0.620026 0.458527 0.187347
0.686127 0.461273 0.196960
0.751740 0.464081 0.205017
0.817230 0.466614 0.211945
0.880554 0.470184 0.220184
0.923767 0.478760 0.254669
0.965149 0.486938 0.281281
1.000000 0.492798 0.299438
0.000000 0.500427 0.154480
0.048981 0.501648 0.140472
0.126282 0.502136 0.127319
0.215118 0.502625 0.122803
0.297577 0.503571 0.124817
0.403442 0.505188 0.130096
0.477722 0.507813 0.137970
0.545776 0.511505 0.152130
0.612885 0.515411 0.170715
0.678864 0.518341 0.182465
0.744110 0.521149 0.190521
0.809265 0.523468 0.197296
0.874146 0.526093 0.202026
0.923126 0.532288 0.234467
0.965149 0.539398 0.267181
1.000000 0.544495 0.287750
0.000000 0.560455 0.152588
0.047699 0.561707 0.137451
0.123810 0.561829 0.124817
0.212616 0.562103 0.119873
0.292389 0.562531 0.121033
0.396881 0.563690 0.125244
0.472595 0.565552 0.130829
0.539337 0.568542 0.139221
0.606110 0.571777 0.151672
0.672546 0.575531 0.166962
0.737640 0.578369 0.178009
0.802521 0.580811 0.184875
0.867065 0.583099 0.189056
0.922546 0.586945 0.214081
0.965149 0.592896 0.254913
1.000000 0.597290 0.278748
0.000000 0.620636 0.149994
0.047028 0.621613 0.134186
0.121460 0.621613 0.122498
0.210358 0.621613 0.117249
0.288666 0.621857 0.117706
0.391937 0.622620 0.121124
0.468872 0.624176 0.125946
0.534851 0.626740 0.132019
0.600708 0.629456 0.140381
0.666382 0.632690 0.151154
0.732361 0.636017 0.163147
0.797028 0.638702 0.172729
0.861145 0.640900 0.177551
0.921906 0.643097 0.191498
0.965149 0.647766 0.244507
1.000000 0.651337 0.272369
0.000000 0.680939 0.147583
0.046234 0.681885 0.132477
0.119537 0.681671 0.120422
0.208496 0.681549 0.114990
0.285187 0.681610 0.115265
0.387939 0.682190 0.117737
0.466064 0.683380 0.121857
0.531372 0.685394 0.127319
0.596588 0.688293 0.133301
0.662018 0.691071 0.141907
0.726990 0.694092 0.150757
0.792297 0.697144 0.160370
0.856323 0.699677 0.166779
0.920288 0.701416 0.171082
0.964783 0.704010 0.236481
1.000000 0.706696 0.270660
0.000000 0.741608 0.144623
0.045319 0.742493 0.130371
0.117340 0.742096 0.118195
0.206818 0.741882 0.112701
0.282562 0.741852 0.112610
0.384735 0.742218 0.114441
0.463593 0.743195 0.118073
0.528381 0.744934 0.122864
0.593231 0.747314 0.128296
0.658356 0.750580 0.134308
0.723083 0.753418 0.142578
0.787659 0.756165 0.149597
0.852509 0.758972 0.155914
0.916199 0.760956 0.160950
0.963959 0.761688 0.230835
1.000000 0.763153 0.274109
0.000000 0.802551 0.142120
0.044861 0.803375 0.128510
0.115387 0.802856 0.116394
0.205078 0.802551 0.110779
0.279785 0.802429 0.110413
0.381653 0.802704 0.111572
0.461517 0.803467 0.114807
0.525848 0.805145 0.118958
0.590088 0.807312 0.123993
0.654968 0.810181 0.129730
0.719910 0.813721 0.135773
0.784668 0.816620 0.143188
0.848633 0.819214 0.147583
0.913177 0.821503 0.152618
0.963379 0.820435 0.229462
1.000000 0.820465 0.283936
0.000000 0.854095 0.138885
0.043579 0.855682 0.126556
0.113342 0.855591 0.114349
0.203674 0.855743 0.108582
0.278534 0.856110 0.108154
0.379211 0.856781 0.108582
0.459869 0.858032 0.111450
0.523651 0.859802 0.115387
0.587738 0.862610 0.119873
0.651947 0.865814 0.125122
0.716644 0.869904 0.130524
0.781647 0.873871 0.136505
0.846313 0.877563 0.141876
0.910522 0.880188 0.145660
0.962860 0.877869 0.235931
1.000000 0.876617 0.304688
0.000000 0.900696 0.136261
0.043304 0.901978 0.124542
0.111511 0.901825 0.112518
0.202148 0.901855 0.106659
0.277161 0.902252 0.106171
0.376801 0.902893 0.106171
0.458221 0.904022 0.108795
0.522003 0.905701 0.112335
0.585815 0.908325 0.116638
0.649780 0.911438 0.121490
0.714233 0.915405 0.126801
0.779297 0.919495 0.132050
0.844269 0.923706 0.136780
0.908569 0.926727 0.141266
0.962280 0.922546 0.247040
1.000000 0.919434 0.333099
0.000000 0.947388 0.133392
0.041870 0.948669 0.122559
0.109314 0.948364 0.110382
0.200775 0.948486 0.104553
0.276031 0.948792 0.103943
0.374725 0.949341 0.103790
0.456879 0.950409 0.105774
0.520538 0.952301 0.109161
0.583832 0.954498 0.112976
0.647522 0.957397 0.117645
0.711914 0.961273 0.122559
0.777008 0.964661 0.131561
0.841766 0.964722 0.177643
0.903778 0.964752 0.228882
0.960571 0.964844 0.281860
1.000000 0.961273 0.378540
0.000000 0.994385 0.131561
0.041962 0.995605 0.120514
0.107422 0.995300 0.108795
0.199066 0.995331 0.102783
0.274811 0.995636 0.101959
0.372589 0.996368 0.101746
0.455597 0.997375 0.103119
0.519012 0.998871 0.106232
0.582916 1.000000 0.113342
0.648499 1.000000 0.129181
0.713837 1.000000 0.159241
0.778839 1.000000 0.200104
0.841827 1.000000 0.246613
0.901855 1.000000 0.303406
0.957001 1.000000 0.377258
1.000000 1.000000 0.445587
0.000000 0.000000 0.170563
0.089447 0.002899 0.293243
0.183624 0.008545 0.309082
0.266479 0.015961 0.326538
0.383484 0.026001 0.344177
0.462738 0.037140 0.360352
0.533203 0.048035 0.375702
0.602417 0.058075 0.390106
0.670868 0.067352 0.403442
0.738953 0.075989 0.415741
0.796814 0.089569 0.426178
0.839874 0.110443 0.436951
0.883179 0.130981 0.448212
0.926605 0.149597 0.454712
0.965149 0.171539 0.459900
1.000000 0.188660 0.464264
0.000000 0.058472 0.241394
0.055969 0.049957 0.275269
0.164795 0.062561 0.290894
0.252655 0.075073 0.308075
0.363647 0.088165 0.323486
0.450958 0.098724 0.337677
0.520996 0.107727 0.351257
0.589783 0.115509 0.364502
0.657959 0.122345 0.376923
0.725372 0.128662 0.388123
0.792572 0.134399 0.398407
0.839447 0.152008 0.410095
0.882751 0.172852 0.423187
0.926086 0.201294 0.436981
0.965149 0.221863 0.449066
1.000000 0.237823 0.453949
0.000000 0.140045 0.255493
0.055420 0.140900 0.271729
0.143280 0.136414 0.275726
0.240143 0.144684 0.291870
0.346527 0.155426 0.304565
0.440430 0.163055 0.316010
0.510254 0.168976 0.328033
0.578644 0.174194 0.339600
0.646454 0.179108 0.350708
0.713654 0.183990 0.361237
0.780914 0.191437 0.370941
0.839081 0.206085 0.382477
0.882294 0.232910 0.398224
0.925629 0.257233 0.414215
0.965240 0.276276 0.428253
1.000000 0.290833 0.439178
0.000000 0.225861 0.260803
0.052063 0.230713 0.267548
0.139618 0.233215 0.270538
0.226196 0.233673 0.275177
0.327637 0.244202 0.286224
0.430481 0.251892 0.297424
0.500275 0.257050 0.306946
0.568542 0.261658 0.316223
0.635956 0.266205 0.325317
0.703033 0.270752 0.334106
0.769409 0.275360 0.342041
0.835754 0.280121 0.349060
0.881927 0.300781 0.367126
0.925110 0.322998 0.386322
0.965271 0.341949 0.403290
1.000000 0.356110 0.415741
0.000000 0.324371 0.262360
0.047699 0.328613 0.261841
0.129852 0.331085 0.260223
0.214020 0.334534 0.257446
0.310059 0.338837 0.260193
0.420715 0.344299 0.282013
0.491302 0.350769 0.291229
0.559418 0.354950 0.298859
0.626617 0.358734 0.306152
0.692902 0.362305 0.312805
0.758881 0.365723 0.319214
0.824646 0.369537 0.324646
0.881378 0.380493 0.337311
0.924377 0.400970 0.361053
0.965271 0.418671 0.381134
1.000000 0.431946 0.395599
0.000000 0.420227 0.262482
0.045959 0.424225 0.258209
0.125824 0.425934 0.253662
0.207001 0.429169 0.245911
0.291931 0.432312 0.244415
0.409515 0.437164 0.252563
0.483643 0.440887 0.268463
0.551514 0.447876 0.285065
0.618439 0.452057 0.292053
0.684418 0.456024 0.298370
0.749939 0.458527 0.304199
0.815338 0.460449 0.309082
0.880402 0.462769 0.312714
0.923798 0.472321 0.341125
0.965271 0.481140 0.365356
1.000000 0.487427 0.381866
0.000000 0.497040 0.261627
0.045319 0.499420 0.254761
0.122528 0.499786 0.248596
0.202362 0.501221 0.238068
0.281281 0.502502 0.234283
0.395020 0.504242 0.240601
0.475708 0.506866 0.248627
0.544708 0.509247 0.258270
0.611145 0.512329 0.278687
0.677155 0.514740 0.285797
0.742310 0.516693 0.291138
0.807312 0.518524 0.295685
0.872040 0.520813 0.298798
0.923157 0.526581 0.321320
0.965271 0.534210 0.350708
