Color Lookup Presets Effects/z1 (78).CUBE
#Created by: Adobe Photoshop Export Color Lookup Plugin
#Copyright: (C) Copyright 2014 www.zafizack.com
TITLE "zafizack"
#LUT size
LUT_3D_SIZE 16
#data domain
DOMAIN_MIN 0.0 0.0 0.0
DOMAIN_MAX 1.0 1.0 1.0
#LUT data points
0.000000 0.000000 0.000000
0.094666 0.000000 0.000000
0.164886 0.000000 0.000000
0.235260 0.000641 0.000977
0.313660 0.003479 0.006134
0.395233 0.005157 0.010956
0.478455 0.006012 0.015228
0.558350 0.006165 0.018768
0.635590 0.005829 0.022827
0.708069 0.005249 0.027130
0.773315 0.004608 0.032104
0.831421 0.003845 0.037262
0.882629 0.003143 0.042511
0.927521 0.002472 0.047699
0.966461 0.001862 0.053131
1.000000 0.001343 0.058228
0.000000 0.082031 0.000000
0.155792 0.149872 0.102753
0.222656 0.118439 0.089386
0.287476 0.093262 0.079681
0.354889 0.074982 0.073151
0.427155 0.059052 0.067535
0.501984 0.044800 0.062439
0.574921 0.032501 0.057678
0.647491 0.023956 0.056915
0.717041 0.017578 0.059601
0.780640 0.015106 0.066986
0.837158 0.012909 0.075043
0.886841 0.010895 0.082886
0.930206 0.009705 0.088196
0.967712 0.008698 0.092865
1.000000 0.007690 0.097229
0.000000 0.165405 0.000000
0.124603 0.238770 0.096558
0.316040 0.309082 0.192657
0.361298 0.268250 0.181427
0.419434 0.241272 0.170258
0.482910 0.215973 0.160828
0.548737 0.191986 0.152557
0.613312 0.169464 0.145172
0.678986 0.157135 0.143188
0.742615 0.154236 0.145813
0.800049 0.152863 0.148956
0.851257 0.152344 0.152222
0.896423 0.152069 0.155273
0.935944 0.152802 0.158630
0.970367 0.154449 0.162140
1.000000 0.155731 0.165314
0.000000 0.239929 0.000000
0.108765 0.304565 0.084686
0.288239 0.386169 0.193756
0.441467 0.434113 0.267914
0.481842 0.398010 0.259308
0.538116 0.374054 0.249054
0.596252 0.351868 0.240021
0.653534 0.331116 0.232025
0.711823 0.318512 0.228638
0.768311 0.312958 0.229065
0.819580 0.309082 0.230133
0.865448 0.305786 0.231293
0.906128 0.303741 0.232910
0.941833 0.302185 0.234558
0.972992 0.301727 0.236633
1.000000 0.301270 0.238556
0.000000 0.311340 0.000000
0.096680 0.367310 0.076721
0.273254 0.443390 0.184052
0.420624 0.505005 0.272339
0.547546 0.539520 0.333435
0.588776 0.508209 0.324585
0.638000 0.486176 0.317047
0.688843 0.466949 0.308533
0.740540 0.453979 0.303864
0.790985 0.447388 0.302856
0.836945 0.442596 0.302734
0.878143 0.438232 0.302704
0.914886 0.435425 0.303375
0.947144 0.432770 0.304016
0.975494 0.431244 0.305145
1.000000 0.429932 0.306274
0.000000 0.383728 0.000000
0.085541 0.431458 0.069550
0.261230 0.502014 0.176361
0.406891 0.558472 0.263489
0.531616 0.606293 0.339447
0.641235 0.632355 0.393311
0.679932 0.606598 0.384521
0.721252 0.586426 0.379395
0.767181 0.573822 0.373871
0.812073 0.566650 0.371704
0.853058 0.561005 0.370422
0.890015 0.555969 0.369385
0.923004 0.552277 0.369080
0.952179 0.548828 0.368835
0.977783 0.546204 0.368958
1.000000 0.544495 0.369507
0.000000 0.457458 0.000000
0.075317 0.497650 0.062805
0.250671 0.561737 0.169769
0.395813 0.611969 0.256409
0.519226 0.653748 0.331390
0.629791 0.691223 0.400787
0.718475 0.709320 0.445648
0.754089 0.689453 0.437531
0.791138 0.675110 0.435791
0.830688 0.667877 0.433990
0.867401 0.661865 0.431793
0.900635 0.656647 0.430023
0.930328 0.652588 0.428955
0.956696 0.648865 0.428101
0.979767 0.645691 0.427490
1.000000 0.643433 0.427368
0.000000 0.532501 0.000000
0.065247 0.564362 0.056274
0.241028 0.620178 0.163757
0.386108 0.663696 0.250305
0.508759 0.699707 0.324646
0.618958 0.731995 0.393555
0.710236 0.759491 0.453888
0.780609 0.771484 0.490601
0.814697 0.758423 0.484436
0.847290 0.748627 0.484863
0.879272 0.741943 0.484589
0.909393 0.736877 0.482391
0.936462 0.732574 0.480621
0.960449 0.729004 0.479431
0.981567 0.725769 0.478363
1.000000 0.723022 0.477631
0.000000 0.606903 0.000000
0.065094 0.633453 0.056091
0.239685 0.680084 0.162811
0.383270 0.716309 0.248413
0.504486 0.746429 0.321777
0.613281 0.773376 0.389709
0.704071 0.796417 0.449493
0.776398 0.815460 0.500366
0.831909 0.823029 0.530182
0.862976 0.814453 0.525665
0.890503 0.806396 0.525940
0.916962 0.800751 0.526093
0.941437 0.796448 0.525391
0.963531 0.793091 0.523895
0.982971 0.789917 0.522491
1.000000 0.787170 0.521454
0.000000 0.678467 0.000000
0.074524 0.702118 0.062103
0.246368 0.739258 0.166656
0.386932 0.768280 0.250397
0.505768 0.792419 0.322357
0.612396 0.814117 0.388916
0.701660 0.832733 0.447693
0.773071 0.848145 0.497864
0.829956 0.860870 0.540527
0.873718 0.865479 0.564941
0.900360 0.858856 0.561218
0.924042 0.852478 0.560730
0.946014 0.847656 0.561249
0.966125 0.844086 0.561432
0.984192 0.841278 0.560913
1.000000 0.838715 0.559631
0.000000 0.745117 0.000000
0.083862 0.765167 0.068024
0.253113 0.793854 0.170593
0.390778 0.816315 0.252563
0.507660 0.835114 0.323364
0.612457 0.852020 0.388855
0.700134 0.866608 0.446564
0.770508 0.878723 0.495941
0.826813 0.888702 0.538086
0.871918 0.896912 0.574188
0.906982 0.899719 0.594940
0.929810 0.894318 0.591644
0.950195 0.889496 0.590485
0.968567 0.885468 0.591370
0.985199 0.882446 0.591888
1.000000 0.880127 0.592224
0.000000 0.806335 0.000000
0.093567 0.822540 0.074066
0.259796 0.843689 0.174500
0.395081 0.860321 0.255035
0.510040 0.874359 0.324677
0.613068 0.887024 0.389099
0.699310 0.897888 0.445892
0.768616 0.906952 0.494537
0.824249 0.914551 0.536072
0.869049 0.920776 0.571838
0.905243 0.925934 0.602783
0.933624 0.927490 0.621185
0.953217 0.923218 0.618378
0.970764 0.919495 0.616272
0.986176 0.916199 0.617584
1.000000 0.913757 0.618469
0.000000 0.862274 0.000000
0.102997 0.874420 0.079834
0.266632 0.889008 0.178467
0.399445 0.900513 0.257538
0.512634 0.910278 0.326202
0.614227 0.919159 0.389740
0.699097 0.926788 0.445618
0.767426 0.933197 0.493561
0.822357 0.938477 0.534607
0.866638 0.942902 0.569946
0.902527 0.946533 0.600555
0.931854 0.949554 0.627533
0.955322 0.950470 0.644806
0.972107 0.946991 0.642365
0.986969 0.944031 0.640350
1.000000 0.941498 0.640717
0.000000 0.912964 0.000000
0.112793 0.921021 0.085938
0.273376 0.929871 0.182434
0.403931 0.936981 0.260162
0.515625 0.943054 0.327942
0.615601 0.948578 0.390503
0.699249 0.953308 0.445648
0.766602 0.957306 0.492920
0.820831 0.960602 0.533447
0.864594 0.963348 0.568329
0.900299 0.965668 0.598724
0.929443 0.967560 0.625427
0.953491 0.969147 0.649475
0.973053 0.969635 0.666656
0.987427 0.966827 0.664520
1.000000 0.964539 0.662811
0.000000 0.958862 0.000000
0.122101 0.962799 0.091614
0.280121 0.966858 0.186371
0.408569 0.970093 0.262878
0.518677 0.972931 0.329742
0.617279 0.975494 0.391541
0.699646 0.977692 0.445892
0.766113 0.979553 0.492523
0.819672 0.981079 0.532562
0.863068 0.982422 0.567078
0.898315 0.983459 0.597107
0.927277 0.984375 0.623596
0.951202 0.985138 0.647461
0.971222 0.985779 0.669434
0.987762 0.985992 0.687378
1.000000 0.983765 0.685486
0.000000 1.000000 0.000000
0.131287 1.000000 0.097260
0.286743 1.000000 0.190277
0.413208 1.000000 0.265594
0.521912 1.000000 0.331665
0.619537 1.000000 0.392914
0.700684 1.000000 0.446533
0.766144 1.000000 0.492523
0.818848 1.000000 0.531921
0.861694 1.000000 0.566010
0.896667 1.000000 0.595734
0.925385 1.000000 0.622009
0.949188 1.000000 0.645660
0.969025 1.000000 0.667480
0.985840 1.000000 0.687897
1.000000 1.000000 0.707245
0.000000 0.000000 0.106903
0.090027 0.000000 0.106903
0.173218 0.000000 0.100586
0.239990 0.000000 0.094238
0.312653 0.000397 0.087555
0.389984 0.001953 0.079956
0.470886 0.002655 0.072327
0.550171 0.002777 0.064789
0.627533 0.002563 0.057343
0.701233 0.002472 0.052216
0.768524 0.002716 0.052216
0.828430 0.002655 0.052612
0.880951 0.002380 0.053223
0.926758 0.001984 0.054352
0.966187 0.001556 0.055603
1.000000 0.001160 0.057312
0.000000 0.082031 0.106903
0.082153 0.073090 0.113525
0.173309 0.056183 0.104553
0.240845 0.041016 0.096069
0.314301 0.032898 0.091187
0.392456 0.026611 0.087402
0.474304 0.021393 0.084290
0.554199 0.017090 0.081329
0.632599 0.015198 0.081299
0.706818 0.014404 0.083923
0.773438 0.013123 0.086792
0.832428 0.011627 0.090057
0.884033 0.010071 0.093689
0.928833 0.008820 0.096802
0.967255 0.008026 0.098083
1.000000 0.007141 0.099274
0.000000 0.165405 0.106903
0.066498 0.182037 0.129608
0.226807 0.220703 0.180878
0.285675 0.186066 0.168427
0.352386 0.159515 0.154510
0.424347 0.135864 0.143402
0.500153 0.114685 0.134399
0.574402 0.095673 0.126923
0.649261 0.088806 0.125610
0.721161 0.093353 0.129852
0.785187 0.099365 0.134552
0.841583 0.105286 0.139008
0.890656 0.112823 0.143982
0.933136 0.120453 0.148895
0.969360 0.127991 0.153595
1.000000 0.136108 0.158478
0.000000 0.239929 0.106903
0.051575 0.254059 0.119568
0.181641 0.306183 0.170349
0.371246 0.366882 0.255554
0.417542 0.330505 0.247833
0.482422 0.308563 0.235962
0.550171 0.288574 0.226044
0.616486 0.270538 0.217712
0.683167 0.261414 0.214294
0.747284 0.261414 0.215759
0.804688 0.262268 0.217499
0.855560 0.264618 0.219910
0.900116 0.267487 0.222443
0.938690 0.271729 0.225525
0.971832 0.275818 0.228455
1.000000 0.281036 0.231873
0.000000 0.311340 0.106903
0.044434 0.321564 0.114410
0.163696 0.370972 0.157196
0.336578 0.440338 0.252319
0.488373 0.484100 0.321075
0.533295 0.450531 0.314423
0.593140 0.431244 0.304993
0.652679 0.414124 0.295990
0.712555 0.404449 0.291504
0.770111 0.401550 0.290863
0.822052 0.400818 0.291382
0.868103 0.400574 0.292114
0.908600 0.401459 0.293396
0.943848 0.403473 0.295197
0.974152 0.405853 0.297058
1.000000 0.409241 0.299469
0.000000 0.383728 0.106903
0.038086 0.390747 0.110413
0.149658 0.436615 0.147552
0.320068 0.500366 0.241089
0.461884 0.553650 0.320831
0.592499 0.587830 0.381989
0.636444 0.559357 0.374146
0.686249 0.541351 0.368683
0.739716 0.530914 0.363007
0.791412 0.526367 0.360870
0.838196 0.523773 0.359955
0.879852 0.521973 0.359497
0.916565 0.521271 0.359650
0.948669 0.521667 0.360413
0.976349 0.522491 0.361328
1.000000 0.524261 0.362762
0.000000 0.457458 0.106903
0.032288 0.461304 0.106812
0.139557 0.504059 0.141846
0.307007 0.560913 0.232483
0.447021 0.607941 0.311005
0.572357 0.650208 0.383667
0.680481 0.675201 0.436340
0.721283 0.653351 0.428467
0.764587 0.640320 0.427979
0.810791 0.634766 0.425049
0.852997 0.631134 0.423065
0.890625 0.628265 0.421631
0.923920 0.626251 0.420776
0.953094 0.625397 0.420624
0.978394 0.624847 0.420624
1.000000 0.625000 0.421051
0.000000 0.532501 0.106903
0.026886 0.533600 0.103424
0.132568 0.571625 0.139191
0.295837 0.619904 0.225281
0.434845 0.660461 0.303101
0.559082 0.696777 0.374878
0.666077 0.728699 0.439758
0.751556 0.745819 0.483307
0.790619 0.731720 0.477020
0.828156 0.722382 0.478424
0.865417 0.717743 0.477997
0.899750 0.714172 0.475800
0.930176 0.711487 0.474213
0.956879 0.709808 0.473328
0.980072 0.708496 0.472656
1.000000 0.707611 0.472351
0.000000 0.606903 0.106903
0.026825 0.607758 0.103271
0.131348 0.639343 0.137909
0.292542 0.679718 0.222748
0.429688 0.713593 0.299438
0.552185 0.743896 0.370087
0.658386 0.770630 0.434265
0.743256 0.792938 0.489227
0.810089 0.804169 0.524780
0.845886 0.795349 0.519623
0.877167 0.787476 0.521149
0.907410 0.782928 0.521790
0.935364 0.779877 0.520538
0.960022 0.777496 0.518921
0.981506 0.775818 0.517883
1.000000 0.774475 0.517120
0.000000 0.678467 0.106903
0.031952 0.680664 0.106079
0.135376 0.705658 0.137604
0.296844 0.738678 0.224548
0.430939 0.765869 0.299530
0.550964 0.790253 0.368805
0.655243 0.811798 0.431763
0.739014 0.829865 0.485901
0.805603 0.844818 0.531982
0.857697 0.851837 0.561066
0.888245 0.845184 0.556915
0.915039 0.838959 0.557251
0.939972 0.834839 0.558105
0.962585 0.832123 0.558502
0.982635 0.830048 0.557220
1.000000 0.828583 0.556213
0.000000 0.745117 0.106903
0.037323 0.747742 0.108856
0.141510 0.767120 0.139496
0.301361 0.792969 0.226624
0.433014 0.814148 0.300232
0.550842 0.833191 0.368225
0.653442 0.850037 0.430206
0.735931 0.864197 0.483459
0.801758 0.875946 0.528931
0.854218 0.885681 0.567810
0.895477 0.890045 0.592194
0.921478 0.884674 0.588562
0.944397 0.879883 0.587952
0.965118 0.876404 0.589172
0.983704 0.873993 0.589813
1.000000 0.872284 0.590149
0.000000 0.806335 0.106903
0.042786 0.809174 0.111359
0.149628 0.823761 0.143616
0.306091 0.842834 0.228882
0.435547 0.858643 0.301300
0.551422 0.872833 0.368225
0.652283 0.885498 0.429169
0.733673 0.896088 0.481659
0.798767 0.904938 0.526550
0.850769 0.912292 0.565002
0.892548 0.918365 0.598083
0.925659 0.921021 0.619324
0.947845 0.916687 0.616211
0.967438 0.912964 0.614471
0.984680 0.910004 0.615997
1.000000 0.907990 0.616943
0.000000 0.862274 0.106873
0.048187 0.864624 0.113708
0.157867 0.874878 0.147827
0.311157 0.888123 0.231415
0.438538 0.899139 0.302704
0.552582 0.909088 0.368622
0.651886 0.917908 0.428619
0.732147 0.925385 0.480377
0.796417 0.931610 0.524689
0.847992 0.936829 0.562744
0.889496 0.941132 0.595520
0.923096 0.944672 0.624084
0.950012 0.946228 0.643280
0.968933 0.942810 0.640656
0.985535 0.939819 0.638428
1.000000 0.937439 0.639496
0.000000 0.912964 0.106873
0.053589 0.914856 0.115875
0.165863 0.921234 0.152008
0.316284 0.929321 0.234009
0.441772 0.936157 0.304321
0.554260 0.942322 0.369354
0.652039 0.947815 0.428467
0.731201 0.952484 0.479523
0.794678 0.956360 0.523285
0.845764 0.959595 0.560913
0.886871 0.962280 0.593353
0.920288 0.964539 0.621643
0.947723 0.966431 0.646790
0.969940 0.967224 0.665131
0.985992 0.964355 0.662750
1.000000 0.962036 0.660889
0.000000 0.958862 0.106873
0.059296 0.959900 0.117950
0.173920 0.962860 0.156158
0.321442 0.966583 0.236694
0.445313 0.969696 0.306122
0.556122 0.972565 0.370270
0.652649 0.975128 0.428650
0.730652 0.977325 0.478973
0.793335 0.979126 0.522156
0.843872 0.980652 0.559357
0.884674 0.981873 0.591522
0.917938 0.982971 0.619629
0.945160 0.983826 0.644501
0.967682 0.984589 0.667023
0.986359 0.984894 0.685364
1.000000 0.982544 0.683319
0.000000 1.000000 0.106873
0.064575 1.000000 0.119873
0.181854 1.000000 0.160309
0.326752 1.000000 0.239471
0.448975 1.000000 0.308044
0.558411 1.000000 0.371399
0.653412 1.000000 0.428986
0.730438 1.000000 0.478668
0.792389 1.000000 0.521393
0.842377 1.000000 0.558167
0.882843 1.000000 0.589966
0.915802 1.000000 0.617798
0.942932 1.000000 0.642517
0.965424 1.000000 0.664886
0.984192 1.000000 0.685394
1.000000 1.000000 0.704437
0.000000 0.000000 0.193298
0.069885 0.000000 0.193298
0.171112 0.000000 0.193298
0.243408 0.000000 0.182526
0.312439 0.000000 0.171478
0.386841 0.000397 0.160217
0.466278 0.001923 0.148193
0.545441 0.002594 0.136017
0.623169 0.002686 0.123535
0.697205 0.002411 0.110901
0.764343 0.001984 0.098175
0.824493 0.001434 0.085144
0.877960 0.001038 0.072845
0.925140 0.001190 0.069458
0.965607 0.001160 0.066406
1.000000 0.000946 0.063660
0.000000 0.076691 0.193298
0.049500 0.057739 0.196472
0.166656 0.050476 0.196533
0.242004 0.038727 0.181000
0.310059 0.029724 0.167328
0.384155 0.022522 0.155090
0.463531 0.016754 0.143280
0.543030 0.012299 0.131531
0.621185 0.009460 0.119263
0.697266 0.009247 0.114594
0.766327 0.009491 0.113678
0.827545 0.009186 0.113007
0.881012 0.008514 0.112457
0.927216 0.007538 0.112213
0.966644 0.007172 0.110535
1.000000 0.006683 0.108215
0.000000 0.165405 0.193298
0.049500 0.161621 0.196472
0.151489 0.145172 0.208649
0.246307 0.132263 0.194275
0.316101 0.111877 0.180847
0.391479 0.093323 0.170044
0.471924 0.077179 0.161255
0.551727 0.063202 0.153778
0.630524 0.056641 0.148193
0.705353 0.057190 0.143890
0.772461 0.058685 0.139374
0.832001 0.061310 0.134888
0.884155 0.066162 0.131561
0.929749 0.081940 0.137909
0.968140 0.098389 0.144653
1.000000 0.114471 0.151306
0.000000 0.239929 0.193298
0.041107 0.239655 0.193420
0.136078 0.264740 0.225586
0.284424 0.282928 0.252960
0.348206 0.257599 0.243286
0.421875 0.236542 0.228851
0.499268 0.217499 0.216309
0.575378 0.201721 0.206207
0.651245 0.196411 0.201935
0.723724 0.201996 0.203308
0.788055 0.208740 0.205444
0.844543 0.217285 0.208649
0.893372 0.226318 0.212036
0.935181 0.236755 0.216095
0.970490 0.247009 0.220184
1.000000 0.258270 0.224792
0.000000 0.311340 0.193298
0.035919 0.310425 0.190643
0.123627 0.333832 0.212891
0.236511 0.367371 0.242584
0.421356 0.421204 0.316833
0.473816 0.389069 0.310791
0.544189 0.371735 0.298401
0.612885 0.356079 0.287628
0.681366 0.348755 0.281738
0.747009 0.350189 0.280792
0.805389 0.353027 0.280884
0.856964 0.358063 0.282227
0.901642 0.363403 0.283875
0.940063 0.370514 0.286438
0.972687 0.377716 0.289154
1.000000 0.385925 0.292419
0.000000 0.383728 0.193298
0.031921 0.382721 0.189545
0.114899 0.402924 0.205566
0.220764 0.437225 0.230621
0.381104 0.493988 0.308258
0.537933 0.537354 0.376434
0.587128 0.506683 0.370697
0.647675 0.491547 0.362122
0.709564 0.483643 0.355438
0.768738 0.481812 0.352570
0.821686 0.481964 0.351074
0.868622 0.484009 0.350800
0.909515 0.486755 0.351044
0.944702 0.491058 0.352264
0.974731 0.495667 0.353729
1.000000 0.501007 0.355652
0.000000 0.457458 0.193298
0.028259 0.456177 0.189270
0.107788 0.473633 0.200653
0.209412 0.506989 0.222839
0.363281 0.556488 0.295593
0.507477 0.604279 0.371826
0.638367 0.637146 0.431763
0.684174 0.612457 0.424347
0.735596 0.601624 0.422974
0.788940 0.598083 0.418915
0.836945 0.596527 0.416290
0.879547 0.596008 0.414520
0.916840 0.596649 0.413635
0.949097 0.598663 0.413635
0.976715 0.601044 0.413971
1.000000 0.604126 0.414795
0.000000 0.532501 0.193298
0.024963 0.531219 0.189270
0.101715 0.545074 0.197113
0.200653 0.574921 0.217651
0.349274 0.616699 0.285919
0.491699 0.657745 0.361115
0.616028 0.694275 0.429840
0.719452 0.717377 0.479919
0.763641 0.701477 0.473297
0.806946 0.693573 0.475677
0.850159 0.690552 0.473633
0.889069 0.688629 0.470917
0.923248 0.687744 0.469055
0.952911 0.687653 0.467834
0.978394 0.688721 0.467438
1.000000 0.689941 0.467285
0.000000 0.606903 0.193298
0.024933 0.605713 0.188995
0.100922 0.617249 0.195709
0.197571 0.642334 0.214325
0.343414 0.677246 0.281067
0.483459 0.711456 0.354980
0.606232 0.742004 0.422729
0.706116 0.767975 0.481628
0.786163 0.783325 0.522614
0.826874 0.773621 0.516541
0.862366 0.766083 0.519073
0.897003 0.763062 0.519775
0.928558 0.761169 0.517212
0.956116 0.760101 0.515289
0.979858 0.759888 0.514099
1.000000 0.760010 0.513245
0.000000 0.678467 0.193298
0.027954 0.677582 0.188202
0.104919 0.687836 0.195923
0.199371 0.707886 0.212250
0.344910 0.736633 0.280487
0.481873 0.764099 0.352814
0.602142 0.788666 0.419189
0.700623 0.809662 0.477203
0.778412 0.827087 0.526520
0.840240 0.836945 0.560089
0.875000 0.829651 0.554596
0.905121 0.823669 0.556091
0.933319 0.820465 0.557068
0.958740 0.818665 0.556641
0.981018 0.817566 0.554810
1.000000 0.817078 0.553558
0.000000 0.745117 0.193298
0.031311 0.744232 0.187439
0.109222 0.752930 0.196320
0.201691 0.768372 0.210785
0.347412 0.791260 0.280731
0.481598 0.812653 0.351624
0.599731 0.831879 0.416840
0.696716 0.848297 0.473938
0.773682 0.862030 0.522675
0.834595 0.873322 0.564209
0.882965 0.879547 0.592133
0.912384 0.873993 0.587646
0.938141 0.869202 0.587555
0.961365 0.866241 0.588837
0.982056 0.864502 0.589294
1.000000 0.863464 0.588898
0.000000 0.806335 0.193298
0.034637 0.805756 0.186646
0.113434 0.812622 0.196716
0.204285 0.823914 0.209564
0.350464 0.841370 0.281494
0.482300 0.857391 0.351196
0.598419 0.871796 0.415344
0.694061 0.884094 0.471619
0.770050 0.894379 0.519684
0.830475 0.902924 0.560760
0.878632 0.910004 0.596008
0.916992 0.913849 0.619965
0.941956 0.909393 0.616058
0.963837 0.905640 0.614624
0.983093 0.903046 0.616211
1.000000 0.901428 0.616943
0.000000 0.862274 0.193298
0.038055 0.861725 0.185822
0.117676 0.866913 0.197174
0.207031 0.874634 0.208649
0.353973 0.887085 0.282654
0.483643 0.898285 0.351288
0.597839 0.908295 0.414429
0.692139 0.916962 0.469910
0.767273 0.924225 0.517395
0.827179 0.930267 0.558014
0.875061 0.935272 0.592926
0.913544 0.939423 0.623169
0.944336 0.941681 0.644379
0.965515 0.938049 0.641022
0.984039 0.935120 0.638275
1.000000 0.932861 0.639984
0.000000 0.912964 0.193298
0.041565 0.912750 0.184967
0.121826 0.916138 0.197632
0.212097 0.920929 0.209869
0.357819 0.928680 0.284119
0.485504 0.935577 0.351776
0.597931 0.941803 0.413940
0.690918 0.947205 0.468658
0.765198 0.951752 0.515564
0.824554 0.955505 0.555817
0.872070 0.958679 0.590393
0.910339 0.961304 0.620361
0.941376 0.963440 0.646637
0.966614 0.964630 0.666321
0.984497 0.961609 0.663330
1.000000 0.959137 0.660889
0.000000 0.958862 0.193298
0.045013 0.958801 0.184021
0.126099 0.960419 0.198059
0.218353 0.962646 0.212616
0.361938 0.966217 0.285828
0.487762 0.969452 0.352539
0.598541 0.972321 0.413849
0.690216 0.974823 0.467865
0.763641 0.976959 0.514221
0.822418 0.978699 0.554016
0.869568 0.980194 0.588257
0.907623 0.981415 0.617981
0.938599 0.982452 0.644104
0.964020 0.983337 0.667328
0.984894 0.983826 0.686310
1.000000 0.981293 0.683685
0.000000 1.000000 0.193298
0.048401 1.000000 0.183105
0.130341 1.000000 0.198486
0.224792 1.000000 0.215485
0.366272 1.000000 0.287689
0.490234 1.000000 0.353516
0.599640 1.000000 0.414124
0.690063 1.000000 0.467438
0.762543 1.000000 0.513153
0.820679 1.000000 0.552521
0.867462 1.000000 0.586456
0.905304 1.000000 0.615967
0.936066 1.000000 0.641846
0.961426 1.000000 0.664948
0.982452 1.000000 0.685760
1.000000 1.000000 0.704773
0.000000 0.000000 0.269684
0.065247 0.000000 0.269684
0.145447 0.000000 0.269684
0.242004 0.000000 0.269684
0.313385 0.000000 0.254852
0.384674 0.000000 0.239929
0.461700 0.000366 0.224640
0.540344 0.001892 0.208679
0.618317 0.002472 0.192413
0.692902 0.002533 0.175903
0.760864 0.002258 0.158936
0.821991 0.001801 0.141418
0.876099 0.001282 0.123535
0.923584 0.000824 0.105133
0.964691 0.000397 0.086304
1.000000 0.000519 0.078278
0.000000 0.071594 0.269684
0.040070 0.047394 0.272552
0.133942 0.044617 0.272858
0.238922 0.039917 0.272552
0.312012 0.033478 0.254669
0.382599 0.026062 0.237671
0.459412 0.019775 0.221558
0.538269 0.014771 0.205658
0.616455 0.011749 0.189331
0.691376 0.009613 0.172668
0.759735 0.007416 0.155640
0.821503 0.005798 0.140991
0.877014 0.005951 0.137024
0.924896 0.005859 0.133331
0.965759 0.005768 0.129364
1.000000 0.005920 0.123840
0.000000 0.161377 0.269684
0.040070 0.152924 0.272552
0.109070 0.131775 0.276581
0.233124 0.114746 0.276764
0.311646 0.100922 0.253296
0.381317 0.079498 0.232422
0.457733 0.060394 0.214233
0.536560 0.046204 0.197723
0.617432 0.040985 0.189423
0.694580 0.038361 0.182404
0.764221 0.038757 0.175201
0.826050 0.042511 0.167877
0.880157 0.046753 0.160217
0.926788 0.052368 0.152435
0.966522 0.058502 0.144440
1.000000 0.067841 0.138672
0.000000 0.239929 0.269684
0.040070 0.237640 0.272552
0.109070 0.233032 0.276581
0.213562 0.214386 0.288300
0.316162 0.211029 0.270935
0.389130 0.192902 0.253448
0.467712 0.174164 0.237213
0.547485 0.157471 0.222687
0.626465 0.148743 0.210724
0.701721 0.146484 0.200500
0.770752 0.150787 0.194580
0.832977 0.165649 0.197723
0.886322 0.182343 0.202026
0.931427 0.198883 0.206635
0.969055 0.216400 0.211975
1.000000 0.233429 0.217316
0.000000 0.311340 0.269684
0.035919 0.310425 0.270599
0.103119 0.311523 0.271240
0.203369 0.337128 0.305634
0.336884 0.341980 0.318726
0.414551 0.327209 0.312286
0.493896 0.311371 0.297791
0.572235 0.296783 0.284241
0.649658 0.291718 0.276062
0.723175 0.296631 0.273590
0.788330 0.303711 0.272827
0.845398 0.313293 0.273743
0.894409 0.323700 0.275482
0.936127 0.335144 0.278015
0.971100 0.347961 0.281494
1.000000 0.360840 0.285248
0.000000 0.383728 0.269684
0.031921 0.382721 0.268646
0.096832 0.383484 0.264801
0.188873 0.408356 0.290131
0.298035 0.434570 0.313934
0.474274 0.478912 0.375763
0.536804 0.454712 0.373901
0.608246 0.441650 0.361145
0.678589 0.434998 0.352051
0.745483 0.436218 0.347778
0.804840 0.439148 0.345001
0.857086 0.444641 0.344055
0.902130 0.450928 0.343994
0.940704 0.458649 0.344910
0.973114 0.467743 0.346832
1.000000 0.476959 0.349121
0.000000 0.457458 0.269684
0.028259 0.456177 0.267792
0.091858 0.457062 0.261383
0.178741 0.479614 0.280548
0.281097 0.506500 0.300171
0.436127 0.554260 0.366882
0.590088 0.593353 0.430573
0.644318 0.569031 0.427032
0.705841 0.561798 0.421967
0.766479 0.560089 0.416199
0.820496 0.560120 0.412018
0.868195 0.562469 0.409576
0.909515 0.565735 0.408081
0.945007 0.570221 0.407623
0.974976 0.576080 0.408142
1.000000 0.582275 0.409119
