Color Lookup Presets Effects/z1 (80).CUBE
#Created by: Adobe Photoshop Export Color Lookup Plugin
#Copyright: (C) Copyright 2015 zafizack photography
TITLE "zafizack-wd-01"
#LUT size
LUT_3D_SIZE 6
#data domain
DOMAIN_MIN 0.0 0.0 0.0
DOMAIN_MAX 1.0 1.0 1.0
#LUT data points
0.043640 0.000000 0.029022
0.329956 0.042145 0.049133
0.609955 0.155792 0.142822
0.811127 0.220398 0.187378
0.934357 0.247650 0.214264
1.000000 0.268768 0.240753
0.000000 0.197968 0.074738
0.214539 0.228638 0.083038
0.547546 0.286865 0.154419
0.793427 0.329529 0.188660
0.923523 0.350372 0.210114
1.000000 0.367493 0.228333
0.000000 0.391266 0.132751
0.066589 0.406555 0.148285
0.374237 0.449524 0.173187
0.697968 0.507660 0.221344
0.901764 0.536957 0.219482
1.000000 0.560272 0.222565
0.009369 0.509918 0.187714
0.016632 0.532013 0.195007
0.261383 0.592865 0.169342
0.525818 0.656952 0.202911
0.859039 0.720825 0.236115
1.000000 0.741974 0.237061
0.064331 0.641296 0.199951
0.076691 0.669098 0.199341
0.208557 0.713318 0.184296
0.426666 0.799255 0.124176
0.714600 0.844025 0.224823
1.000000 0.907166 0.250153
0.120697 0.769165 0.192841
0.133606 0.797180 0.187927
0.152863 0.836853 0.176971
0.377655 0.902771 0.113831
0.613892 0.950623 0.152893
0.941711 0.993805 0.224457
0.033325 0.000000 0.167267
0.353302 0.046753 0.225128
0.613647 0.152618 0.273438
0.811584 0.213226 0.304626
0.934570 0.240387 0.329498
1.000000 0.262543 0.358276
0.000000 0.177490 0.210114
0.219452 0.226898 0.240387
0.562225 0.272736 0.262756
0.797455 0.305939 0.284210
0.925903 0.323761 0.301971
1.000000 0.342438 0.323700
0.000000 0.376099 0.232330
0.022308 0.391876 0.244293
0.377777 0.461548 0.251984
0.704071 0.504669 0.312988
0.902740 0.529388 0.321350
1.000000 0.550537 0.338409
0.000000 0.500275 0.262421
0.000000 0.523499 0.267395
0.246613 0.587158 0.249786
0.534790 0.667084 0.266357
0.861755 0.717255 0.321472
1.000000 0.736938 0.340942
0.030701 0.635376 0.267273
0.043640 0.663879 0.266296
0.181763 0.708435 0.254913
0.417664 0.802399 0.190002
0.721710 0.852081 0.290466
1.000000 0.904388 0.333130
0.086761 0.761566 0.261108
0.099762 0.790283 0.257416
0.119202 0.830902 0.248627
0.362579 0.900085 0.197144
0.619659 0.952972 0.207275
0.959015 0.995819 0.302002
0.044891 0.000000 0.335052
0.378693 0.051025 0.383423
0.667480 0.169525 0.442078
0.811554 0.211365 0.466095
0.934509 0.238831 0.495392
1.000000 0.260864 0.531616
0.000000 0.162323 0.345428
0.209991 0.191620 0.383972
0.589630 0.275482 0.426880
0.796875 0.306427 0.448486
0.925323 0.324615 0.473053
1.000000 0.343506 0.501526
0.000000 0.354797 0.384460
0.000000 0.369141 0.405792
0.379181 0.450623 0.461273
0.718842 0.500702 0.481750
0.905334 0.509735 0.483582
1.000000 0.524963 0.498413
0.000000 0.479797 0.401917
0.000000 0.502747 0.417969
0.219421 0.574371 0.418732
0.553192 0.679321 0.417572
0.868591 0.717255 0.527405
1.000000 0.734406 0.545959
0.000000 0.622314 0.395660
0.000000 0.651154 0.401794
0.139252 0.700500 0.389191
0.398956 0.797607 0.383698
0.742126 0.864258 0.456696
1.000000 0.899353 0.529297
0.021210 0.748260 0.383057
0.038361 0.778900 0.375610
0.057037 0.821014 0.379608
0.348450 0.900116 0.368042
0.644531 0.958466 0.327362
0.999176 0.999939 0.483307
0.057831 0.000000 0.436981
0.394226 0.060516 0.492279
0.672943 0.168579 0.566711
0.811432 0.208984 0.607788
0.934479 0.236938 0.644196
1.000000 0.259094 0.670990
0.000000 0.157928 0.455688
0.219543 0.182007 0.496185
0.606323 0.272736 0.567261
0.796021 0.306335 0.599609
0.924683 0.326080 0.623566
1.000000 0.345642 0.646881
0.000000 0.344299 0.490082
0.000061 0.360779 0.522339
0.372345 0.421051 0.599915
0.742279 0.492645 0.635223
0.904755 0.511902 0.641541
1.000000 0.528381 0.656189
0.000000 0.472534 0.569336
0.000000 0.495331 0.590546
0.215393 0.565887 0.645142
0.567383 0.666351 0.688324
0.872070 0.717834 0.704071
1.000000 0.730255 0.709656
0.000000 0.602448 0.620483
0.000000 0.630951 0.642181
0.129333 0.701660 0.678558
0.376740 0.791138 0.689545
0.765686 0.872437 0.699829
1.000000 0.903961 0.748810
0.000000 0.727173 0.635376
0.000000 0.757904 0.656921
0.072723 0.821899 0.683167
0.321930 0.898682 0.678253
0.672333 0.962280 0.644196
1.000000 1.000000 0.700134
0.064880 0.000000 0.525452
0.405487 0.071014 0.589722
0.674194 0.167969 0.667480
0.811218 0.208740 0.701813
0.934357 0.236969 0.736969
1.000000 0.259155 0.766296
0.000000 0.155121 0.551697
0.227051 0.176971 0.594971
0.607117 0.272858 0.680023
0.795227 0.305603 0.710724
0.924072 0.327454 0.732544
1.000000 0.347412 0.754761
0.000000 0.341858 0.599670
0.000061 0.357971 0.633270
0.370361 0.405853 0.715393
0.749512 0.482513 0.771240
0.904327 0.508942 0.774597
1.000000 0.528168 0.783691
0.000000 0.470428 0.685120
0.000000 0.489868 0.701904
0.220673 0.553223 0.760437
0.558807 0.641998 0.814270
0.877472 0.708557 0.838959
1.000000 0.726196 0.840210
0.000000 0.606781 0.759338
0.000000 0.635315 0.779938
0.118408 0.699036 0.820892
0.391388 0.787872 0.871216
0.793427 0.873322 0.891693
1.000000 0.907349 0.901459
0.000000 0.719025 0.806030
0.000000 0.749664 0.826996
0.031433 0.815704 0.862640
0.334473 0.906250 0.902557
0.693695 0.964539 0.868744
1.000000 1.000000 0.871246
0.065338 0.000000 0.596222
0.399170 0.078186 0.663300
0.666931 0.171051 0.745850
0.810791 0.209564 0.789307
0.934021 0.238068 0.825836
1.000000 0.260132 0.857300
0.000000 0.154633 0.633514
0.218842 0.175720 0.672882
0.589569 0.274414 0.760101
0.792664 0.304657 0.802856
0.923462 0.328369 0.825073
1.000000 0.348938 0.848236
0.000000 0.340393 0.701294
0.000061 0.355774 0.729401
0.363525 0.398987 0.804901
0.728973 0.479553 0.860748
0.903992 0.505432 0.875366
1.000000 0.527679 0.881592
0.000000 0.457916 0.778687
0.000000 0.483276 0.808228
0.222382 0.546265 0.867004
0.549469 0.627594 0.914032
0.866119 0.700989 0.942017
1.000000 0.723328 0.944366
0.000000 0.608704 0.881256
0.000000 0.634460 0.897369
0.126312 0.692139 0.932373
0.392181 0.772614 0.978912
0.784332 0.858795 0.999329
1.000000 0.903809 1.000000
0.000000 0.718964 0.933746
0.000000 0.749603 0.954681
0.036591 0.814575 0.992188
0.333893 0.896606 1.000000
0.726837 0.963776 1.000000
1.000000 1.000000 1.000000
