Color Lookup Presets Effects/z1 (67).CUBE
#Created by: Adobe Photoshop Export Color Lookup Plugin
#Copyright: (C) Copyright 2016 www.zafizack.com
TITLE "zafizack pastel color preset"
#LUT size
LUT_3D_SIZE 6
#data domain
DOMAIN_MIN 0.0 0.0 0.0
DOMAIN_MAX 1.0 1.0 1.0
#LUT data points
0.151703 0.103943 0.165497
0.243347 0.103088 0.166107
0.449554 0.101898 0.167023
0.652649 0.100464 0.168091
0.820526 0.099121 0.169067
0.992096 0.098053 0.169800
0.153503 0.274658 0.165497
0.243866 0.273315 0.166107
0.449554 0.269775 0.167023
0.652649 0.267426 0.168091
0.820526 0.267242 0.169067
0.992096 0.267273 0.169800
0.155151 0.469025 0.165497
0.246796 0.467926 0.166107
0.449982 0.466339 0.167023
0.652649 0.464691 0.168091
0.820526 0.464539 0.169067
0.992096 0.464539 0.169800
0.154968 0.628265 0.165497
0.246399 0.627686 0.166107
0.449615 0.626862 0.167023
0.652588 0.625885 0.168091
0.820526 0.625732 0.169067
0.992096 0.625702 0.169800
0.153320 0.781494 0.165497
0.243561 0.781158 0.166107
0.447083 0.780640 0.167023
0.651306 0.780151 0.168091
0.820526 0.779633 0.169067
0.992096 0.779602 0.169800
0.151703 0.984222 0.165497
0.240753 0.984222 0.166107
0.444519 0.984222 0.167023
0.650024 0.984222 0.168091
0.820007 0.984222 0.169067
0.992096 0.984222 0.169800
0.153473 0.103943 0.354919
0.243866 0.103088 0.356079
0.449554 0.101898 0.353882
0.652649 0.100464 0.355560
0.820526 0.099121 0.362213
0.992096 0.098053 0.367737
0.153503 0.274658 0.354919
0.246399 0.271729 0.352112
0.452423 0.267914 0.349152
0.654053 0.265503 0.350830
0.821106 0.265350 0.357544
0.992096 0.265381 0.363068
0.155151 0.469025 0.350342
0.249420 0.466705 0.347565
0.452789 0.464905 0.348511
0.654053 0.463226 0.350830
0.821106 0.463043 0.357544
0.992096 0.463043 0.363068
0.154968 0.628265 0.350952
0.248993 0.627075 0.348145
0.452423 0.626099 0.349091
0.654022 0.625153 0.351074
0.821106 0.625000 0.357544
0.992096 0.625000 0.363068
0.153320 0.781494 0.355347
0.246155 0.780792 0.352539
0.449860 0.780273 0.353485
0.652679 0.779694 0.355469
0.821106 0.779236 0.357544
0.992096 0.779205 0.363068
0.151703 0.984222 0.359650
0.243347 0.984222 0.356873
0.447357 0.984222 0.357819
0.651428 0.984222 0.359772
0.820618 0.984222 0.361633
0.992096 0.984222 0.363068
0.155396 0.103943 0.570435
0.247192 0.103088 0.571045
0.450409 0.101898 0.571991
0.652649 0.100464 0.573456
0.820526 0.099121 0.576935
0.992096 0.098053 0.579773
0.155396 0.272644 0.570435
0.249817 0.269714 0.569031
0.453125 0.267426 0.569550
0.654053 0.265442 0.571075
0.821106 0.265350 0.574524
0.992096 0.265381 0.577362
0.155396 0.468811 0.570435
0.249817 0.466522 0.569031
0.455414 0.463501 0.567566
0.655396 0.461792 0.568787
0.821655 0.461670 0.572235
0.992096 0.461700 0.575073
0.154968 0.628265 0.571075
0.248993 0.627075 0.569672
0.454742 0.625519 0.568207
0.655518 0.624359 0.568634
0.821747 0.624146 0.571960
0.992096 0.624115 0.574768
0.153320 0.781494 0.573273
0.246155 0.780792 0.571899
0.452179 0.779938 0.570435
0.654205 0.779266 0.570831
0.821747 0.778748 0.571960
0.992096 0.778717 0.574768
0.151703 0.984222 0.575439
0.243347 0.984222 0.574066
0.449554 0.984222 0.572632
0.652954 0.984222 0.573029
0.821167 0.984222 0.574036
0.992096 0.984222 0.574768
0.154449 0.103943 0.725098
0.245544 0.103088 0.725433
0.448883 0.101898 0.725983
0.652222 0.100464 0.726501
0.820526 0.099121 0.727875
0.992096 0.098053 0.729248
0.154449 0.273651 0.725098
0.248169 0.270660 0.724487
0.451721 0.268402 0.724792
0.653595 0.266174 0.725372
0.821106 0.265350 0.726715
0.992096 0.265381 0.728119
0.154449 0.469604 0.725098
0.248169 0.467255 0.724487
0.453949 0.464264 0.723877
0.654938 0.462280 0.724243
0.821655 0.461670 0.725616
0.992096 0.461700 0.727020
0.154449 0.628418 0.725098
0.248169 0.627289 0.724487
0.453949 0.625702 0.723877
0.644958 0.632324 0.715057
0.816895 0.632965 0.715302
0.992096 0.632965 0.716766
0.153320 0.781494 0.725891
0.246155 0.780792 0.725250
0.452179 0.779938 0.724609
0.644043 0.783539 0.715820
0.814362 0.786102 0.710205
0.992096 0.786102 0.711700
0.151703 0.984222 0.726959
0.243347 0.984222 0.726349
0.449554 0.984222 0.725677
0.642731 0.984222 0.716858
0.813843 0.984222 0.711212
0.992096 0.984222 0.711700
0.152618 0.103943 0.850037
0.242310 0.103088 0.850098
0.445923 0.101898 0.850281
0.650757 0.100464 0.850494
0.820313 0.099121 0.850647
0.992096 0.098053 0.850983
0.152618 0.275574 0.850037
0.244873 0.272644 0.849854
0.448730 0.270355 0.849976
0.652161 0.268127 0.850189
0.820923 0.265991 0.850311
0.992096 0.265381 0.850616
0.152618 0.471100 0.850037
0.244873 0.468811 0.849854
0.450989 0.465820 0.849701
0.653473 0.463867 0.849854
0.821442 0.462158 0.850037
0.992096 0.461700 0.850311
0.152618 0.629272 0.850037
0.244873 0.627991 0.849854
0.450989 0.626495 0.849701
0.643463 0.633118 0.847107
0.816681 0.633240 0.847015
0.992096 0.632965 0.847382
0.152618 0.781586 0.850037
0.244873 0.781006 0.849854
0.450989 0.780090 0.849701
0.643463 0.783661 0.847107
0.808014 0.792389 0.842010
0.992096 0.792175 0.842377
0.151703 0.984222 0.850220
0.243347 0.984222 0.850037
0.449554 0.984222 0.849854
0.642731 0.984222 0.847260
0.807220 0.984222 0.841949
0.992096 0.984222 0.840149
0.151703 0.103943 0.911926
0.240753 0.103088 0.911926
0.444519 0.101898 0.911926
0.650024 0.100464 0.911926
0.820007 0.099121 0.911926
0.992096 0.098053 0.911926
0.151703 0.276489 0.911926
0.243347 0.273651 0.911926
0.447357 0.271301 0.911926
0.651428 0.269073 0.911926
0.820618 0.266998 0.911926
0.992096 0.265381 0.911926
0.151703 0.471863 0.911926
0.243347 0.469574 0.911926
0.449554 0.466553 0.911926
0.652771 0.464569 0.911926
0.821136 0.462952 0.911926
0.992096 0.461700 0.911926
0.151703 0.629639 0.911926
0.243347 0.628387 0.911926
0.449554 0.626892 0.911926
0.642731 0.633484 0.911926
0.816406 0.633636 0.911926
0.992096 0.632965 0.911926
0.151703 0.781830 0.911926
0.243347 0.781189 0.911926
0.449554 0.780304 0.911926
0.642731 0.783844 0.911926
0.807648 0.792542 0.911926
0.992096 0.792175 0.911926
0.151703 0.984222 0.911926
0.243347 0.984222 0.911926
0.449554 0.984222 0.911926
0.642731 0.984222 0.911926
0.807220 0.984222 0.911926
0.992096 0.984222 0.911926
