Color Lookup Presets Effects/z1 (77).CUBE
#Created by: Adobe Photoshop Export Color Lookup Plugin
#Copyright: (C) Copyright 2014 www.zafizack.com
TITLE "zafizack"
#LUT size
LUT_3D_SIZE 6
#data domain
DOMAIN_MIN 0.0 0.0 0.0
DOMAIN_MAX 1.0 1.0 1.0
#LUT data points
0.079590 0.154144 0.262756
0.240784 0.153900 0.262421
0.495270 0.153900 0.262421
0.849945 0.153595 0.262085
1.000000 0.153595 0.262085
1.000000 0.153595 0.262085
0.030304 0.272552 0.262421
0.197876 0.284973 0.262756
0.459686 0.271301 0.262421
0.820313 0.256897 0.262421
1.000000 0.249023 0.262085
1.000000 0.249054 0.262085
0.027435 0.466034 0.262421
0.119904 0.484009 0.262421
0.391510 0.464539 0.262421
0.752838 0.442810 0.262421
0.963654 0.430695 0.262085
1.000000 0.430695 0.262085
0.027435 0.721954 0.262421
0.027435 0.733154 0.262421
0.294037 0.720978 0.262421
0.649902 0.704834 0.262085
0.859039 0.697357 0.262085
1.000000 0.697266 0.262085
0.027435 0.868469 0.262085
0.027435 0.874634 0.262421
0.233612 0.868011 0.262085
0.587372 0.862061 0.262085
0.792694 0.857513 0.261780
0.976776 0.857513 0.261780
0.027435 1.000000 0.261780
0.027435 1.000000 0.262085
0.176422 1.000000 0.261780
0.528564 1.000000 0.261780
0.734802 1.000000 0.261780
0.918518 1.000000 0.261475
0.096771 0.154144 0.367065
0.256989 0.153900 0.367523
0.506195 0.153900 0.341553
0.862915 0.153900 0.338318
1.000000 0.153595 0.337738
1.000000 0.153595 0.337738
0.048676 0.272308 0.368286
0.214508 0.285278 0.370331
0.470795 0.271118 0.341248
0.831543 0.256989 0.337708
1.000000 0.249023 0.337128
1.000000 0.249054 0.337036
0.027435 0.466309 0.370972
0.137634 0.484436 0.372131
0.403107 0.464539 0.340942
0.763977 0.442902 0.337067
0.974548 0.430725 0.336456
1.000000 0.430725 0.336456
0.027435 0.722137 0.373749
0.030945 0.733917 0.375244
0.305725 0.720978 0.340942
0.660675 0.704834 0.336090
0.869751 0.697357 0.336090
1.000000 0.697327 0.336151
0.027435 0.868469 0.374420
0.027435 0.873260 0.375763
0.245392 0.868011 0.340607
0.598419 0.862091 0.336151
0.803375 0.857513 0.335571
0.987427 0.857513 0.335571
0.027435 1.000000 0.374664
0.027435 1.000000 0.376831
0.187836 1.000000 0.340271
0.539673 1.000000 0.335754
0.743073 1.000000 0.335144
0.929169 1.000000 0.335144
0.124817 0.154144 0.538025
0.282349 0.153900 0.537903
0.530182 0.153900 0.502686
0.885895 0.153900 0.494446
1.000000 0.153595 0.493134
1.000000 0.153595 0.493225
0.077881 0.272736 0.539948
0.241302 0.285583 0.542877
0.495850 0.271515 0.502228
0.854126 0.256897 0.493256
1.000000 0.249054 0.491852
1.000000 0.249054 0.491852
0.027435 0.466614 0.543274
0.165405 0.484863 0.544952
0.427612 0.464813 0.501770
0.787140 0.443054 0.491882
0.997375 0.430756 0.490662
1.000000 0.430725 0.490753
0.027435 0.722351 0.547058
0.061157 0.733917 0.548859
0.329926 0.720978 0.501770
0.683411 0.704834 0.489807
0.892639 0.697388 0.489716
1.000000 0.697388 0.489807
0.027435 0.868530 0.547516
0.027435 0.873352 0.549347
0.269653 0.868011 0.500885
0.620880 0.862061 0.489777
0.825928 0.857513 0.488525
1.000000 0.857513 0.488525
0.027435 1.000000 0.547058
0.027435 1.000000 0.548920
0.212494 1.000000 0.499969
0.561737 1.000000 0.488708
0.765533 1.000000 0.487457
0.951569 1.000000 0.487335
0.159943 0.154144 0.756012
0.315399 0.153900 0.754791
0.565430 0.153900 0.733887
0.920929 0.153900 0.726166
1.000000 0.153595 0.724579
1.000000 0.153595 0.724579
0.113892 0.272980 0.756165
0.274597 0.285919 0.758575
0.530548 0.271515 0.733612
0.889069 0.257111 0.725189
1.000000 0.249115 0.723358
1.000000 0.249115 0.723358
0.027435 0.466949 0.758057
0.199341 0.485321 0.758972
0.462982 0.465088 0.733368
0.821625 0.443054 0.724152
1.000000 0.430756 0.722504
1.000000 0.430847 0.722382
0.027435 0.722137 0.759796
0.097198 0.733917 0.760986
0.366058 0.721313 0.733307
0.718536 0.705048 0.721527
0.927277 0.697418 0.721466
1.000000 0.697388 0.721527
0.027435 0.868530 0.759460
0.032745 0.873352 0.760498
0.304871 0.868011 0.731873
0.655487 0.862061 0.721497
0.860046 0.857483 0.719971
1.000000 0.857513 0.719879
0.027435 1.000000 0.758392
0.027435 1.000000 0.759460
0.247894 1.000000 0.730499
0.596924 1.000000 0.719849
0.799805 1.000000 0.718231
0.985779 1.000000 0.718231
0.180298 0.154144 0.884460
0.335785 0.153900 0.883301
0.587769 0.153900 0.874756
0.942902 0.153900 0.870972
1.000000 0.153595 0.869537
1.000000 0.153595 0.869446
0.134552 0.273682 0.883911
0.294281 0.286285 0.885529
0.552765 0.271942 0.874603
0.911102 0.257172 0.870483
1.000000 0.249115 0.869049
1.000000 0.249115 0.869049
0.049805 0.466949 0.884491
0.218964 0.485321 0.884857
0.484802 0.465332 0.874481
0.843933 0.443298 0.869965
1.000000 0.430847 0.868561
1.000000 0.430878 0.868530
0.027435 0.722351 0.885284
0.118256 0.734192 0.885773
0.387482 0.721313 0.874481
0.740448 0.705048 0.868134
0.949219 0.697449 0.868073
1.000000 0.697388 0.868134
0.027435 0.868378 0.884186
0.054108 0.873260 0.884705
0.325836 0.867950 0.873138
0.676727 0.862030 0.868164
0.881897 0.857483 0.866699
1.000000 0.857483 0.866699
0.027435 1.000000 0.883209
0.027435 1.000000 0.883698
0.269562 1.000000 0.871826
0.618652 1.000000 0.866638
0.821747 1.000000 0.865204
1.000000 1.000000 0.865204
0.198456 0.154144 1.000000
0.354553 0.153900 1.000000
0.606628 0.153900 1.000000
0.962128 0.153900 1.000000
1.000000 0.153595 1.000000
1.000000 0.153595 1.000000
0.153442 0.273438 1.000000
0.311523 0.285919 1.000000
0.572144 0.272125 1.000000
0.931000 0.257355 1.000000
1.000000 0.249115 1.000000
1.000000 0.249115 1.000000
0.069611 0.467529 1.000000
0.237244 0.486267 1.000000
0.504730 0.465942 1.000000
0.864288 0.443695 1.000000
1.000000 0.430908 1.000000
1.000000 0.430908 1.000000
0.027435 0.722351 1.000000
0.136597 0.733917 1.000000
0.406006 0.721130 1.000000
0.759918 0.704926 1.000000
0.968475 0.697388 1.000000
1.000000 0.697388 1.000000
0.027435 0.868530 1.000000
0.074554 0.873352 1.000000
0.345734 0.868011 1.000000
0.697174 0.862061 1.000000
0.902039 0.857513 1.000000
1.000000 0.857513 1.000000
0.027435 1.000000 1.000000
0.027435 1.000000 1.000000
0.289185 1.000000 1.000000
0.638672 1.000000 1.000000
0.841766 1.000000 1.000000
1.000000 1.000000 1.000000
