Color Lookup Presets Effects/z1 (78).CUBE
#Created by: Adobe Photoshop Export Color Lookup Plugin
#Copyright: (C) Copyright 2014 www.zafizack.com
TITLE "zafizack"
#LUT size
LUT_3D_SIZE 6
#data domain
DOMAIN_MIN 0.0 0.0 0.0
DOMAIN_MAX 1.0 1.0 1.0
#LUT data points
0.000000 0.000000 0.000000
0.235260 0.000641 0.000977
0.478455 0.006012 0.015228
0.708069 0.005249 0.027130
0.882629 0.003143 0.042511
1.000000 0.001343 0.058228
0.000000 0.239929 0.000000
0.441467 0.434113 0.267914
0.596252 0.351868 0.240021
0.768311 0.312958 0.229065
0.906128 0.303741 0.232910
1.000000 0.301270 0.238556
0.000000 0.457458 0.000000
0.395813 0.611969 0.256409
0.718475 0.709320 0.445648
0.830688 0.667877 0.433990
0.930328 0.652588 0.428955
1.000000 0.643433 0.427368
0.000000 0.678467 0.000000
0.386932 0.768280 0.250397
0.701660 0.832733 0.447693
0.873718 0.865479 0.564941
0.946014 0.847656 0.561249
1.000000 0.838715 0.559631
0.000000 0.862274 0.000000
0.399445 0.900513 0.257538
0.699097 0.926788 0.445618
0.866638 0.942902 0.569946
0.955322 0.950470 0.644806
1.000000 0.941498 0.640717
0.000000 1.000000 0.000000
0.413208 1.000000 0.265594
0.700684 1.000000 0.446533
0.861694 1.000000 0.566010
0.949188 1.000000 0.645660
1.000000 1.000000 0.707245
0.000000 0.000000 0.269684
0.242004 0.000000 0.269684
0.461700 0.000366 0.224640
0.692902 0.002533 0.175903
0.876099 0.001282 0.123535
1.000000 0.000519 0.078278
0.000000 0.239929 0.269684
0.213562 0.214386 0.288300
0.467712 0.174164 0.237213
0.701721 0.146484 0.200500
0.886322 0.182343 0.202026
1.000000 0.233429 0.217316
0.000000 0.457458 0.269684
0.178741 0.479614 0.280548
0.590088 0.593353 0.430573
0.766479 0.560089 0.416199
0.909515 0.565735 0.408081
1.000000 0.582275 0.409119
0.000000 0.678467 0.269684
0.170654 0.691833 0.268341
0.544128 0.764282 0.411194
0.822052 0.821259 0.562378
0.926514 0.805603 0.558441
1.000000 0.804871 0.551880
0.000000 0.862274 0.269684
0.179016 0.868225 0.264984
0.538971 0.898346 0.404144
0.805176 0.923462 0.556335
0.938599 0.936920 0.647858
1.000000 0.928131 0.642242
0.000000 1.000000 0.269684
0.188446 1.000000 0.263428
0.540985 1.000000 0.402863
0.797607 1.000000 0.549683
0.929016 1.000000 0.643555
1.000000 1.000000 0.707672
0.000000 0.000000 0.490417
0.206543 0.000000 0.490417
0.446716 0.000000 0.490417
0.676636 0.000397 0.443665
0.866028 0.003113 0.396698
1.000000 0.002319 0.350342
0.000000 0.229431 0.490417
0.153778 0.183685 0.498535
0.439453 0.165222 0.499115
0.674866 0.128235 0.434235
0.864899 0.100372 0.379578
1.000000 0.081512 0.328552
0.000000 0.457458 0.490417
0.153778 0.453003 0.498535
0.408173 0.429474 0.508728
0.679596 0.412659 0.453979
0.871979 0.403412 0.413696
1.000000 0.422119 0.398743
0.000000 0.678467 0.490417
0.148895 0.678711 0.483673
0.377808 0.694275 0.486938
0.746094 0.755768 0.594330
0.898193 0.741730 0.584930
1.000000 0.740692 0.564117
0.000000 0.862274 0.490417
0.154297 0.862091 0.474640
0.368866 0.869568 0.463409
0.718384 0.897949 0.576477
0.916962 0.918945 0.676300
1.000000 0.908081 0.668457
0.000000 1.000000 0.490417
0.160614 1.000000 0.469086
0.368347 1.000000 0.451416
0.706451 1.000000 0.563171
0.902283 1.000000 0.666016
1.000000 1.000000 0.731476
0.000000 0.000000 0.698456
0.206543 0.000000 0.698456
0.423492 0.000000 0.698456
0.663330 0.000000 0.698456
0.858582 0.000427 0.671600
1.000000 0.004395 0.643768
0.000000 0.229431 0.698456
0.148468 0.177460 0.702728
0.398956 0.167542 0.703461
0.660492 0.160400 0.703217
0.858185 0.141602 0.666534
1.000000 0.124603 0.633514
0.000000 0.457458 0.698456
0.148468 0.438354 0.702728
0.347961 0.392700 0.708710
0.654144 0.376984 0.709106
0.858673 0.361572 0.656891
1.000000 0.337524 0.613525
0.000000 0.678467 0.698456
0.148468 0.677094 0.702728
0.347931 0.674835 0.708710
0.642059 0.667175 0.709625
0.860443 0.659149 0.674805
1.000000 0.647034 0.641876
0.000000 0.862274 0.698456
0.154266 0.862091 0.694489
0.341461 0.863403 0.684113
0.616455 0.869934 0.682861
0.886810 0.893738 0.748749
1.000000 0.882507 0.740265
0.000000 1.000000 0.698456
0.160614 1.000000 0.688843
0.339783 1.000000 0.667999
0.598969 1.000000 0.658051
0.866547 1.000000 0.730835
1.000000 1.000000 0.786957
0.000000 0.000000 0.868469
0.216125 0.000000 0.868469
0.431152 0.000000 0.868469
0.655731 0.000000 0.868469
0.851959 0.000000 0.868469
1.000000 0.000458 0.857880
0.000000 0.239929 0.868469
0.154175 0.183594 0.870178
0.398773 0.173187 0.870453
0.642944 0.173187 0.870453
0.851135 0.169037 0.870422
1.000000 0.157196 0.854187
0.000000 0.465302 0.868469
0.154175 0.439362 0.870178
0.340759 0.383606 0.873047
0.618378 0.373932 0.873474
0.850525 0.369904 0.873413
1.000000 0.360352 0.847382
0.000000 0.683228 0.868469
0.154175 0.673218 0.870178
0.340759 0.654572 0.873047
0.596100 0.633484 0.874786
0.850128 0.627960 0.874725
1.000000 0.619049 0.843567
0.000000 0.862274 0.868469
0.154175 0.861725 0.870178
0.340759 0.862122 0.873047
0.596100 0.863007 0.874786
0.848175 0.861298 0.871735
1.000000 0.854584 0.855408
0.000000 1.000000 0.868469
0.160614 1.000000 0.865204
0.339783 1.000000 0.858246
0.579437 1.000000 0.849701
0.830688 1.000000 0.853210
1.000000 1.000000 0.882385
0.000000 0.000000 1.000000
0.225647 0.000000 1.000000
0.439240 0.000000 1.000000
0.660522 0.000000 1.000000
0.850830 0.000000 1.000000
1.000000 0.000000 1.000000
0.000000 0.250305 1.000000
0.160614 0.190979 1.000000
0.401093 0.180054 1.000000
0.641754 0.180054 1.000000
0.844177 0.180054 1.000000
1.000000 0.180054 1.000000
0.000000 0.473236 1.000000
0.160614 0.442474 1.000000
0.339783 0.382080 1.000000
0.607910 0.371735 1.000000
0.832886 0.371704 1.000000
1.000000 0.371704 1.000000
0.000000 0.687744 1.000000
0.160614 0.672943 1.000000
0.339783 0.644989 1.000000
0.579437 0.615601 1.000000
0.823120 0.612671 1.000000
1.000000 0.612671 1.000000
0.000000 0.864014 1.000000
0.160614 0.858826 1.000000
0.339783 0.849274 1.000000
0.579437 0.840057 1.000000
0.825623 0.841644 1.000000
1.000000 0.842377 1.000000
0.000000 1.000000 1.000000
0.160583 1.000000 1.000000
0.339783 1.000000 1.000000
0.579437 1.000000 1.000000
0.825623 1.000000 1.000000
1.000000 1.000000 1.000000
