Color Lookup Presets Effects/z1 (82).CUBE
#Created by: Adobe Photoshop Export Color Lookup Plugin
#Copyright: (C) Copyright 2015 www.zafizack.com
TITLE "zafizack-VG-08"
#LUT size
LUT_3D_SIZE 16
#data domain
DOMAIN_MIN 0.0 0.0 0.0
DOMAIN_MAX 1.0 1.0 1.0
#LUT data points
0.020416 0.020416 0.020416
0.020416 0.020416 0.029816
0.100830 0.020416 0.042114
0.177032 0.020416 0.055511
0.248993 0.020416 0.069733
0.326355 0.020416 0.084503
0.408295 0.020416 0.099670
0.490936 0.020416 0.115173
0.571686 0.020416 0.131042
0.649658 0.020416 0.147461
0.726440 0.020416 0.163116
0.801086 0.020416 0.179077
0.873993 0.020416 0.195435
0.945251 0.020416 0.212158
0.998138 0.020416 0.229309
0.998138 0.055908 0.249969
0.020416 0.020416 0.022247
0.020416 0.020416 0.031982
0.097839 0.020416 0.046417
0.174500 0.029358 0.057739
0.246338 0.046661 0.071838
0.323517 0.060944 0.086700
0.405304 0.073944 0.101990
0.488190 0.086060 0.117615
0.569061 0.097870 0.133514
0.647125 0.108826 0.149902
0.723511 0.109406 0.165955
0.798370 0.105408 0.182129
0.871185 0.101318 0.198608
0.942627 0.096893 0.215302
0.998138 0.093323 0.232056
0.998138 0.133728 0.254669
0.020416 0.084290 0.024658
0.020416 0.095306 0.030579
0.090942 0.107758 0.046997
0.173126 0.124878 0.063812
0.243958 0.134033 0.079376
0.320862 0.136627 0.088928
0.402557 0.146484 0.104248
0.485291 0.156189 0.119934
0.566254 0.165771 0.136047
0.644409 0.175537 0.152405
0.720642 0.179688 0.168915
0.795563 0.176147 0.185120
0.868561 0.172607 0.201508
0.939911 0.168854 0.218353
0.998138 0.165222 0.235138
0.998138 0.199249 0.259369
0.020416 0.155457 0.027405
0.020416 0.163879 0.029724
0.080658 0.174438 0.045319
0.165039 0.185150 0.063538
0.243744 0.203339 0.081268
0.319153 0.214172 0.099213
0.399719 0.221771 0.114868
0.482605 0.220703 0.122314
0.563690 0.230438 0.138428
0.641876 0.240265 0.155090
0.717682 0.248627 0.171875
0.792664 0.244965 0.188080
0.865814 0.241241 0.204712
0.937103 0.237305 0.221497
0.998138 0.233612 0.238129
0.998138 0.266235 0.263885
0.020416 0.220612 0.030243
0.020416 0.229858 0.031464
0.069641 0.239349 0.043640
0.157135 0.250549 0.061737
0.232544 0.261719 0.080719
0.319153 0.283722 0.099213
0.399384 0.295349 0.117828
0.480743 0.307129 0.137085
0.560822 0.314178 0.152679
0.639130 0.312775 0.160614
0.715057 0.319336 0.174713
0.789856 0.317688 0.191132
0.863007 0.313812 0.207642
0.934479 0.309570 0.224426
0.998138 0.305786 0.241302
0.998138 0.336884 0.268494
0.020416 0.288818 0.033264
0.020416 0.301727 0.033478
0.057648 0.307892 0.042114
0.149200 0.319427 0.059937
0.224579 0.331329 0.078888
0.303955 0.343323 0.098755
0.399384 0.369141 0.117828
0.480743 0.380768 0.137085
0.560394 0.392639 0.156799
0.637329 0.404175 0.177307
0.712433 0.410278 0.192810
0.787170 0.393311 0.194641
0.860168 0.388916 0.210815
0.931824 0.384705 0.227661
0.998138 0.380798 0.244263
0.998138 0.408722 0.273132
0.020416 0.360291 0.036469
0.020416 0.376709 0.035553
0.047180 0.378906 0.041687
0.141083 0.390594 0.058136
0.216614 0.402466 0.077179
0.295410 0.414093 0.096802
0.380432 0.425751 0.117126
0.480743 0.453552 0.137085
0.560394 0.464813 0.156799
0.637329 0.476044 0.177307
0.711914 0.487335 0.198456
0.784515 0.493927 0.219818
0.857635 0.469147 0.219421
0.929108 0.458496 0.230621
0.998138 0.454681 0.247375
0.998138 0.478455 0.277710
0.020416 0.431793 0.039764
0.020416 0.450745 0.037689
0.042297 0.448761 0.043640
0.132721 0.460388 0.056396
0.208740 0.471741 0.075287
0.286835 0.482849 0.094940
0.371521 0.494019 0.115295
0.458771 0.504883 0.136261
0.558228 0.531464 0.156799
0.637329 0.544189 0.177307
0.711914 0.554504 0.198456
0.784515 0.564728 0.219818
0.855316 0.560974 0.241486
0.926361 0.540924 0.244537
0.996613 0.525116 0.250458
0.998138 0.544586 0.282379
0.020416 0.500458 0.043182
0.020416 0.521423 0.039825
0.036407 0.518799 0.045929
0.124176 0.526764 0.054688
0.200867 0.537323 0.073456
0.278442 0.547943 0.092957
0.362457 0.558502 0.113312
0.449677 0.568726 0.134186
0.535980 0.578979 0.155975
0.630829 0.602081 0.177307
0.711914 0.617737 0.198456
0.784515 0.627563 0.219818
0.855316 0.627563 0.241486
0.924591 0.623932 0.262939
0.993866 0.607941 0.269318
0.998138 0.606720 0.286926
0.020416 0.565216 0.046692
0.020416 0.587646 0.042114
0.030518 0.585175 0.048126
0.118713 0.589203 0.055023
0.193115 0.599152 0.071564
0.270050 0.609222 0.091064
0.353455 0.618896 0.111298
0.440521 0.628784 0.132111
0.527069 0.638519 0.153900
0.610901 0.647980 0.176239
0.701599 0.668457 0.198456
0.784515 0.686615 0.219818
0.855316 0.690063 0.241486
0.924591 0.686829 0.262939
0.992462 0.683533 0.283905
0.998138 0.682861 0.308441
0.020416 0.626160 0.050171
0.020416 0.649170 0.044769
0.023865 0.647614 0.050446
0.115845 0.648010 0.057098
0.185333 0.657593 0.069733
0.261749 0.666962 0.089203
0.344482 0.676331 0.109314
0.431396 0.685730 0.130127
0.518250 0.694794 0.151764
0.602356 0.704071 0.173981
0.683289 0.713226 0.197205
0.770355 0.731201 0.219818
0.855316 0.749603 0.241486
0.924591 0.746521 0.262939
0.992462 0.743439 0.283905
0.998138 0.745941 0.318512
0.020416 0.683868 0.053619
0.020416 0.705811 0.048279
0.020416 0.706787 0.052765
0.113129 0.704620 0.059235
0.177521 0.713226 0.067932
0.253693 0.722137 0.087341
0.335602 0.731140 0.107361
0.422241 0.740082 0.128143
0.509277 0.748871 0.149628
0.593719 0.757751 0.171875
0.674988 0.766266 0.194946
0.753754 0.775085 0.218445
0.837585 0.791046 0.241486
0.924591 0.803741 0.262939
0.992462 0.800842 0.283905
0.998138 0.798615 0.318512
0.020416 0.738892 0.057251
0.020416 0.759918 0.051971
0.020416 0.763245 0.055176
0.109863 0.761078 0.061676
0.173645 0.766266 0.068939
0.245453 0.775085 0.085449
0.326721 0.783752 0.105408
0.413086 0.792206 0.126190
0.500275 0.800812 0.147522
0.585052 0.809265 0.169678
0.666656 0.817657 0.192749
0.745667 0.826141 0.216217
0.822723 0.834351 0.240021
0.912018 0.848663 0.262939
0.992462 0.856110 0.283905
0.998138 0.849548 0.318512
0.020416 0.791809 0.060944
0.020416 0.812103 0.055573
0.020416 0.817596 0.057587
0.106567 0.815521 0.064056
0.171112 0.817657 0.071259
0.237427 0.826172 0.083557
0.317932 0.834351 0.103424
0.403961 0.842773 0.124176
0.491425 0.851074 0.145416
0.576416 0.859253 0.167603
0.658203 0.867493 0.190430
0.737671 0.875793 0.213928
0.814789 0.883789 0.237701
0.891296 0.888306 0.261749
0.985931 0.904419 0.283905
0.998138 0.899109 0.318512
0.020416 0.842926 0.064697
0.020416 0.862640 0.059418
0.020416 0.870148 0.059967
0.103210 0.868164 0.066559
0.168793 0.867493 0.073395
0.229309 0.875793 0.081665
0.309204 0.883789 0.101532
0.394897 0.891968 0.122131
0.482422 0.899963 0.143341
0.567657 0.908051 0.165436
0.649841 0.916138 0.188202
0.729462 0.924011 0.211792
0.806854 0.932098 0.235443
0.882538 0.939240 0.259155
0.959808 0.937317 0.283447
0.998138 0.947205 0.318512
0.020416 0.892639 0.068420
0.020416 0.911896 0.063110
0.020416 0.921509 0.062439
0.100067 0.919525 0.068970
0.166107 0.917633 0.075714
0.226257 0.924042 0.083496
0.300537 0.932098 0.099670
0.385712 0.940063 0.120087
0.473297 0.947937 0.141388
0.558899 0.955933 0.163269
0.641327 0.963776 0.185944
0.721405 0.971710 0.209503
0.800476 0.973724 0.240204
0.875092 0.973724 0.273010
0.947021 0.973724 0.296906
0.998138 0.973724 0.318512
0.020416 0.020416 0.045929
0.020416 0.020416 0.061096
0.100830 0.020416 0.075592
0.177032 0.020416 0.090485
0.248993 0.020416 0.105865
0.326355 0.020416 0.121460
0.408295 0.020416 0.137573
0.490936 0.020416 0.154114
0.571686 0.020416 0.171173
0.649658 0.020416 0.188690
0.726440 0.020416 0.205170
0.801086 0.020416 0.221924
0.873993 0.020416 0.238831
0.945251 0.020416 0.255432
0.998138 0.020416 0.272064
0.998138 0.055908 0.290649
0.020416 0.020416 0.049469
0.020416 0.020416 0.063324
0.097839 0.020416 0.077759
0.174500 0.029358 0.092773
0.246338 0.046661 0.108185
0.323517 0.060944 0.123962
0.405304 0.073944 0.140045
0.488190 0.086060 0.156677
0.569061 0.097870 0.173737
0.647125 0.108826 0.191315
0.723511 0.109406 0.208313
0.798370 0.105408 0.224976
0.871185 0.101318 0.241730
0.942627 0.096893 0.258514
0.998138 0.093323 0.275085
0.998138 0.133728 0.295197
0.020416 0.084290 0.053040
0.020416 0.094055 0.065491
0.092529 0.106415 0.080383
0.172211 0.121246 0.098663
0.243958 0.126312 0.110474
0.320862 0.136627 0.126373
0.402557 0.146484 0.142578
0.485291 0.156189 0.159149
0.566254 0.165771 0.176331
0.644409 0.175537 0.193939
0.720642 0.179688 0.211334
0.795563 0.176147 0.228058
0.868561 0.172607 0.244904
0.939911 0.168854 0.261566
0.998138 0.165222 0.277954
0.998138 0.199249 0.299805
0.020416 0.155457 0.056519
0.020416 0.162659 0.067657
0.082336 0.173431 0.078522
0.166260 0.184174 0.098206
0.242615 0.199890 0.117126
0.317993 0.209778 0.135498
0.399719 0.210938 0.145081
0.482605 0.220673 0.161835
0.563690 0.230438 0.178894
0.641876 0.240265 0.196564
0.717682 0.248627 0.214478
0.792664 0.244965 0.231262
0.865814 0.241241 0.247864
0.937103 0.237305 0.264526
0.998138 0.233612 0.281036
0.998138 0.266235 0.304138
0.020416 0.220612 0.060211
0.020416 0.228851 0.069855
0.073364 0.238403 0.077576
0.158356 0.249298 0.096436
0.233826 0.260651 0.116760
0.317902 0.280029 0.136322
0.398041 0.291656 0.156189
0.479614 0.301208 0.174683
0.560822 0.299835 0.182922
0.639130 0.308838 0.199371
0.715057 0.319336 0.217224
0.789856 0.317688 0.234222
0.863007 0.313812 0.251038
0.934479 0.309570 0.267700
0.998138 0.305786 0.283844
0.998138 0.336884 0.308655
0.020416 0.288818 0.063934
0.020416 0.300629 0.072449
0.069702 0.306610 0.079742
0.150330 0.318359 0.094513
0.225861 0.330292 0.114746
0.305420 0.341949 0.135864
0.398041 0.365112 0.156189
0.479462 0.377014 0.176514
0.559174 0.388885 0.197662
0.636475 0.397278 0.215942
0.712433 0.396118 0.224487
0.787170 0.392822 0.237427
0.860168 0.388916 0.253998
0.931824 0.384705 0.270599
0.998138 0.380798 0.286987
0.998138 0.408722 0.313171
0.020416 0.360291 0.067657
0.020416 0.375641 0.074829
0.066254 0.377563 0.082153
0.142303 0.389526 0.092560
0.217896 0.401123 0.112732
0.296814 0.412933 0.133850
0.381805 0.424713 0.155396
0.479462 0.449890 0.176514
0.559174 0.461121 0.197662
0.636139 0.472534 0.219208
0.710815 0.483521 0.240631
0.784271 0.482971 0.254547
0.857635 0.462494 0.257141
0.929108 0.458496 0.273682
0.998138 0.454681 0.289856
0.998138 0.478455 0.317596
0.020416 0.431793 0.071472
0.020416 0.449738 0.077423
0.062408 0.447754 0.084381
0.136383 0.459320 0.092438
0.209991 0.470428 0.110840
0.288239 0.481781 0.131775
0.372711 0.492859 0.153259
0.460266 0.503906 0.175812
0.559174 0.530182 0.197662
0.636139 0.540619 0.219208
0.710815 0.551178 0.240631
0.783447 0.561401 0.262115
0.854767 0.553864 0.279053
0.926361 0.528656 0.276642
0.996613 0.525116 0.292938
0.998138 0.544586 0.322052
0.020416 0.500458 0.075287
0.020416 0.520386 0.079834
0.058136 0.517853 0.086792
0.133667 0.525574 0.094696
0.202118 0.536285 0.108856
0.279755 0.546997 0.129700
0.363770 0.557251 0.151184
0.451080 0.567719 0.173584
0.537415 0.577789 0.196564
0.632294 0.601227 0.219208
0.710815 0.614563 0.240631
0.783447 0.624268 0.262115
0.854309 0.624237 0.283356
0.923828 0.620209 0.303375
0.993866 0.595917 0.300201
0.998138 0.606720 0.326538
0.020416 0.565216 0.079132
0.020416 0.586670 0.082489
0.053650 0.584290 0.089447
0.131165 0.588074 0.096954
0.194336 0.598236 0.106964
0.271332 0.608063 0.127686
0.354858 0.618011 0.149109
0.442047 0.627869 0.171417
0.528534 0.637390 0.194336
0.612091 0.647125 0.218018
0.702972 0.667542 0.240631
0.783447 0.683685 0.262115
0.854309 0.687073 0.283356
0.923706 0.683868 0.304016
0.991638 0.680634 0.324585
0.998138 0.673370 0.338409
0.020416 0.626160 0.082916
0.020416 0.648987 0.084961
0.048492 0.646698 0.091949
0.128418 0.647125 0.099213
0.189728 0.656647 0.107422
0.263000 0.666046 0.125610
0.346008 0.675446 0.147095
0.432892 0.684662 0.169220
0.519562 0.693970 0.192139
0.603668 0.703217 0.215729
0.684662 0.712189 0.239380
0.771637 0.730225 0.262115
0.854309 0.746765 0.283356
0.923706 0.743652 0.304016
0.991638 0.740662 0.324585
0.998138 0.744232 0.356995
0.020416 0.683868 0.086853
0.020416 0.708099 0.087524
0.042938 0.705933 0.094604
0.125824 0.703735 0.101654
0.187317 0.712250 0.109863
0.254883 0.721313 0.123596
0.337067 0.730225 0.145020
0.423767 0.739105 0.167023
0.510681 0.748016 0.189972
0.595093 0.756653 0.213470
0.676331 0.765503 0.237152
0.755096 0.774231 0.260773
0.838867 0.790070 0.283356
0.923706 0.801025 0.304016
0.991638 0.798065 0.324585
0.998138 0.796967 0.356995
0.020416 0.738892 0.090759
0.020416 0.764557 0.090149
0.037140 0.762451 0.097076
0.122681 0.760315 0.104279
0.184906 0.765533 0.112274
0.246643 0.774231 0.121643
0.328186 0.782776 0.142914
0.414642 0.791412 0.164825
0.501648 0.799927 0.187775
0.586487 0.808350 0.211151
0.668030 0.816864 0.234985
0.746948 0.825165 0.258514
0.824036 0.833588 0.281708
0.913239 0.847748 0.304016
0.991638 0.853485 0.324585
0.998138 0.847931 0.356995
0.020416 0.791809 0.094727
0.020416 0.818787 0.092712
0.031158 0.816803 0.099792
0.119568 0.814758 0.107025
0.182495 0.816895 0.114624
0.242889 0.825165 0.123077
0.319336 0.833618 0.140839
0.405518 0.842041 0.162781
0.492645 0.850189 0.185516
0.577789 0.858459 0.208862
0.659637 0.866638 0.232697
0.738831 0.874817 0.256256
0.816101 0.883026 0.279663
0.892578 0.887604 0.302826
0.987213 0.903687 0.324585
0.998138 0.897552 0.356995
0.020416 0.842926 0.098755
0.020416 0.870789 0.095612
0.024506 0.869415 0.102356
0.116547 0.867432 0.109497
0.180084 0.866638 0.116943
0.240479 0.874817 0.125458
0.310669 0.883026 0.138733
0.396393 0.890991 0.160736
0.483643 0.899170 0.183289
0.569061 0.907288 0.206635
0.651154 0.915222 0.230377
0.730682 0.923309 0.253967
0.808167 0.931396 0.277405
0.883728 0.938538 0.300354
0.961029 0.936554 0.323944
0.998138 0.946167 0.356995
0.020416 0.892639 0.102753
0.020416 0.919891 0.099609
0.020416 0.920776 0.105042
0.113434 0.918762 0.112335
0.177429 0.916870 0.119568
0.237823 0.923309 0.127869
0.301910 0.931396 0.136658
0.387238 0.939240 0.158569
0.474670 0.947205 0.181091
0.560364 0.955048 0.204498
0.642700 0.963043 0.228088
0.722626 0.971008 0.251709
0.801819 0.973724 0.281097
0.876923 0.973724 0.312988
0.948822 0.973724 0.336121
0.998138 0.973724 0.356995
0.020416 0.020416 0.078400
0.020416 0.020416 0.099762
0.100830 0.020416 0.111938
0.177032 0.020416 0.127838
0.248993 0.020416 0.144135
0.326355 0.020416 0.160919
0.408295 0.020416 0.178101
0.490936 0.020416 0.195587
0.571686 0.020416 0.213562
0.649658 0.020416 0.231720
0.726440 0.020416 0.248505
0.801086 0.020416 0.265076
0.873993 0.020416 0.281372
0.945251 0.020416 0.297699
0.998138 0.020416 0.313873
0.998138 0.055908 0.330048
0.020416 0.020416 0.082275
0.020416 0.020416 0.097900
0.097839 0.020416 0.114410
0.174500 0.029358 0.130310
0.246338 0.046661 0.146576
0.323517 0.060944 0.163422
0.405304 0.073944 0.180756
0.488190 0.086060 0.198456
0.569061 0.097870 0.216309
0.647125 0.108826 0.234344
0.723511 0.109406 0.251495
0.798370 0.105408 0.268066
0.871185 0.101318 0.284546
0.942627 0.096893 0.300690
0.998138 0.093323 0.316711
0.998138 0.133728 0.334442
0.020416 0.084290 0.086182
0.020416 0.094055 0.101105
0.094818 0.105255 0.116760
0.172180 0.115936 0.132782
0.243958 0.126312 0.149139
0.320862 0.136627 0.165955
0.402557 0.146484 0.183319
0.485291 0.156189 0.201111
0.566254 0.165771 0.219147
0.644409 0.175537 0.237030
0.720642 0.179688 0.254669
0.795563 0.176147 0.271118
0.868561 0.172607 0.287384
0.939911 0.168854 0.303589
0.998138 0.165222 0.319672
0.998138 0.199249 0.338837
0.020416 0.155457 0.089935
0.020416 0.162659 0.103516
0.091736 0.172485 0.119080
0.167572 0.182953 0.135254
0.241455 0.196472 0.155365
0.317993 0.201050 0.168518
0.399719 0.210938 0.185944
0.482605 0.220673 0.203766
0.563690 0.230438 0.221771
0.641876 0.240265 0.239929
0.717682 0.248627 0.257599
0.792664 0.244965 0.274139
0.865814 0.241241 0.290497
0.937103 0.237305 0.306702
0.998138 0.233612 0.322388
0.998138 0.266235 0.343109
0.020416 0.220612 0.093903
0.020416 0.228851 0.106018
0.088623 0.237061 0.121460
0.159637 0.248291 0.133209
0.234924 0.259583 0.155029
0.316681 0.276398 0.175873
0.396942 0.287994 0.196777
0.479614 0.288055 0.206421
0.560822 0.298401 0.224487
0.639130 0.308838 0.242615
0.715057 0.319336 0.260529
0.789856 0.317688 0.277191
0.863007 0.313812 0.293365
0.934479 0.309570 0.309540
0.998138 0.305786 0.325470
0.998138 0.336884 0.347473
0.020416 0.288818 0.097900
0.020416 0.300629 0.108551
0.085327 0.305481 0.123993
0.153259 0.317291 0.132538
0.227081 0.328918 0.152863
0.306854 0.340851 0.175171
0.396942 0.361298 0.196777
0.478394 0.373230 0.218323
0.558197 0.384308 0.239288
0.636475 0.383118 0.247742
0.712433 0.390533 0.263184
0.787170 0.392822 0.280090
0.860168 0.388916 0.296417
0.931824 0.384705 0.312469
0.998138 0.380798 0.328278
0.998138 0.408722 0.351776
0.020416 0.360291 0.101990
0.020416 0.375641 0.111298
0.082245 0.376495 0.126373
0.150818 0.388245 0.135040
0.219086 0.399994 0.150696
0.298187 0.411865 0.172974
0.383240 0.423309 0.196167
0.478394 0.446045 0.218323
0.558136 0.457520 0.239960
0.635193 0.468933 0.261292
0.709961 0.478424 0.280853
0.784271 0.469391 0.285736
0.857635 0.462494 0.299286
0.929108 0.458496 0.315369
0.998138 0.454681 0.331207
0.998138 0.478455 0.356171
0.020416 0.431793 0.106018
0.020416 0.449738 0.113892
0.078827 0.446625 0.128754
0.148254 0.457947 0.137421
0.211212 0.469391 0.148621
0.289612 0.480499 0.170868
0.374237 0.491699 0.193848
0.461487 0.502869 0.217407
0.558136 0.526733 0.239960
0.635193 0.537231 0.261292
0.709839 0.547852 0.282471
0.782501 0.557831 0.303406
0.854767 0.541229 0.309753
0.926361 0.528656 0.318268
0.996613 0.525116 0.334045
0.998138 0.544586 0.360474
0.020416 0.500458 0.110077
0.020416 0.520386 0.116638
0.075287 0.516571 0.131439
0.145721 0.524536 0.139893
0.205811 0.535309 0.148682
0.281128 0.545776 0.168732
0.365204 0.556305 0.191620
0.452545 0.566681 0.215149
0.538818 0.576843 0.238922
0.633698 0.600128 0.261292
0.709839 0.611481 0.282471
0.782501 0.621094 0.303406
0.853302 0.621033 0.323730
0.923828 0.608093 0.333435
0.993866 0.591095 0.336975
0.998138 0.606720 0.364838
0.020416 0.565216 0.114044
0.020416 0.586670 0.119263
0.071289 0.583099 0.134186
0.143219 0.587189 0.142273
0.203522 0.597107 0.151184
0.272705 0.607178 0.166626
0.356201 0.617126 0.189392
0.443451 0.626740 0.212921
0.529968 0.636475 0.236633
0.613464 0.646240 0.260193
0.704193 0.666504 0.282471
0.782501 0.680695 0.303406
0.853302 0.684143 0.323730
0.922668 0.680939 0.343994
0.991364 0.671326 0.356537
0.998138 0.665436 0.369019
0.020416 0.626160 0.118103
0.020416 0.648987 0.122070
0.067169 0.645630 0.137024
0.140533 0.646240 0.144897
0.200989 0.655640 0.153778
0.264343 0.665192 0.164429
0.347198 0.674408 0.187103
0.434387 0.683807 0.210724
0.521027 0.693085 0.234314
0.604889 0.702179 0.257996
0.686066 0.711304 0.281281
0.772949 0.729309 0.303406
0.853302 0.743927 0.323730
0.922668 0.740906 0.343994
0.990540 0.737793 0.363800
0.998138 0.739532 0.390930
0.020416 0.683868 0.122253
0.020416 0.708099 0.124695
0.063019 0.704865 0.139740
0.138031 0.702820 0.147430
0.198669 0.711365 0.156342
0.259766 0.720459 0.165344
0.338379 0.729309 0.184937
0.425201 0.738342 0.208435
0.512177 0.746979 0.232056
0.596252 0.755890 0.255798
0.677734 0.764648 0.279022
0.756470 0.773254 0.301971
0.840210 0.789276 0.323730
0.922668 0.798309 0.343994
0.990540 0.795349 0.363800
0.998138 0.795502 0.394623
0.020416 0.738892 0.126465
0.020416 0.764557 0.127502
0.058868 0.761414 0.142609
0.135040 0.759521 0.150330
0.196167 0.764709 0.158844
0.257324 0.773285 0.167969
0.329529 0.781982 0.182892
0.416138 0.790649 0.206116
0.503143 0.799042 0.229767
0.587677 0.807617 0.253540
0.669342 0.815948 0.276764
0.748322 0.824371 0.299835
0.825104 0.832825 0.322327
0.914520 0.846954 0.343994
0.990540 0.850861 0.363800
0.998138 0.846558 0.394623
0.020416 0.791809 0.130707
0.020416 0.818787 0.130310
0.054138 0.815826 0.145355
0.132050 0.813965 0.153076
0.193848 0.815979 0.161285
0.254639 0.824402 0.170471
0.320770 0.832855 0.180634
0.406982 0.841034 0.203827
0.494080 0.849457 0.227661
0.579132 0.857758 0.251221
0.660980 0.865845 0.274536
0.740204 0.874084 0.297638
0.817169 0.882141 0.320190
0.893799 0.886658 0.342773
0.988342 0.902954 0.363800
0.998138 0.896179 0.394623
0.020416 0.842926 0.134949
0.020416 0.870789 0.133270
0.049042 0.868469 0.148285
0.129181 0.866516 0.156036
0.191315 0.865875 0.163879
0.252197 0.874084 0.173035
0.316895 0.882172 0.182343
0.397919 0.890289 0.201569
0.485077 0.898499 0.225342
0.570465 0.906372 0.248962
0.652557 0.914490 0.272491
0.732025 0.922546 0.295441
0.809235 0.930420 0.318024
0.885010 0.937592 0.340454
0.962128 0.935913 0.363129
0.998138 0.944824 0.394623
0.020416 0.892639 0.139130
0.020416 0.919891 0.137360
0.043793 0.919830 0.151031
0.126129 0.918060 0.158875
0.188599 0.916138 0.166718
0.249573 0.922546 0.175812
0.314270 0.930511 0.184998
0.388794 0.938538 0.199463
0.476013 0.946320 0.223083
0.561768 0.954315 0.246704
0.644073 0.962250 0.270233
0.723816 0.970123 0.293243
0.803040 0.973724 0.320862
0.878662 0.973724 0.351685
0.950592 0.973724 0.374176
0.998138 0.973724 0.394623
0.020416 0.020416 0.113373
0.020416 0.020416 0.136810
0.114105 0.020416 0.158630
0.177032 0.020416 0.167694
0.248993 0.020416 0.184998
0.326355 0.020416 0.202759
0.408295 0.020416 0.220795
0.490936 0.020416 0.238922
0.571686 0.020416 0.256927
0.649658 0.020416 0.274506
0.726440 0.020416 0.290955
0.801086 0.020416 0.307129
0.873993 0.020416 0.323090
0.945251 0.020416 0.338715
0.998138 0.020416 0.354065
0.998138 0.055908 0.368225
0.020416 0.020416 0.113373
0.020416 0.020416 0.134949
0.105042 0.020416 0.156494
0.174500 0.029358 0.170227
0.246338 0.046661 0.187744
0.323517 0.060944 0.205627
0.405304 0.073944 0.223511
0.488190 0.086060 0.241577
0.569061 0.097870 0.259583
0.647125 0.108826 0.277313
0.723511 0.109406 0.294037
0.798370 0.105408 0.310089
0.871185 0.101318 0.325897
0.942627 0.096893 0.341614
0.998138 0.093323 0.357086
0.998138 0.133728 0.372528
0.020416 0.084290 0.121490
0.020416 0.094055 0.139282
0.093964 0.101685 0.154633
0.172180 0.115936 0.172821
0.243958 0.126312 0.190369
0.320862 0.136627 0.208282
0.402557 0.146484 0.226349
0.485291 0.156189 0.244263
0.566254 0.165771 0.262238
0.644409 0.175537 0.279938
0.720642 0.179688 0.296906
0.795563 0.176147 0.312988
0.868561 0.172607 0.328827
0.939911 0.168854 0.344360
0.998138 0.165222 0.359863
0.998138 0.199249 0.376648
0.020416 0.155457 0.125610
0.020416 0.162659 0.141754
0.091736 0.172485 0.158417
0.169647 0.181976 0.175446
0.241302 0.191498 0.193024
0.317993 0.201050 0.210968
0.399719 0.210938 0.229065
0.482605 0.220673 0.247101
0.563690 0.230438 0.264862
0.641876 0.240265 0.282562
0.717682 0.248627 0.299927
0.792664 0.244965 0.315948
0.865814 0.241241 0.331635
0.937103 0.237305 0.347321
0.998138 0.233612 0.362732
0.998138 0.266235 0.380951
0.020416 0.220612 0.129883
0.020416 0.228851 0.144318
0.088623 0.237061 0.160919
0.167328 0.247253 0.178162
0.236298 0.258301 0.195496
0.315704 0.272827 0.217560
0.396881 0.277496 0.231750
0.479614 0.288055 0.249847
0.560822 0.298401 0.267700
0.639130 0.308838 0.285126
0.715057 0.319336 0.302643
0.789856 0.317688 0.318817
0.863007 0.313812 0.334625
0.934479 0.309570 0.350037
0.998138 0.305786 0.365448
0.998138 0.336884 0.385254
0.020416 0.288818 0.134064
0.020416 0.300629 0.147217
0.085327 0.305481 0.163483
0.164764 0.315887 0.180817
0.228271 0.327789 0.193359
0.308258 0.339752 0.216919
0.395721 0.357574 0.239136
0.477142 0.369415 0.260620
0.558197 0.370026 0.270813
0.636475 0.379974 0.287994
0.712433 0.390533 0.305267
0.787170 0.392822 0.321838
0.860168 0.388916 0.337402
0.931824 0.384705 0.352936
0.998138 0.380798 0.368347
0.998138 0.408722 0.389526
0.020416 0.360291 0.138367
0.020416 0.375641 0.149963
0.082245 0.376495 0.165985
0.162415 0.387085 0.183380
0.222137 0.398895 0.192810
0.299591 0.410522 0.214600
0.384796 0.422272 0.238373
0.477142 0.442322 0.260620
0.556976 0.453888 0.281647
0.633972 0.465240 0.302582
0.709961 0.464661 0.311584
0.784271 0.466309 0.324615
0.857635 0.462494 0.340332
0.929108 0.458496 0.355743
0.998138 0.454681 0.371002
0.998138 0.478455 0.393829
