Color Lookup Presets Effects/z1 (76).CUBE
#Created by: Adobe Photoshop Export Color Lookup Plugin
#Copyright: (C) Copyright 2014 www.zafizack.com
TITLE "zafizack"
#LUT size
LUT_3D_SIZE 16
#data domain
DOMAIN_MIN 0.0 0.0 0.0
DOMAIN_MAX 1.0 1.0 1.0
#LUT data points
0.047516 0.074768 0.112732
0.078918 0.074524 0.112366
0.121704 0.074524 0.112366
0.171143 0.074524 0.112366
0.225250 0.074524 0.112366
0.293640 0.074524 0.112366
0.377136 0.074524 0.112366
0.478180 0.074524 0.112366
0.583496 0.074524 0.112366
0.668396 0.074280 0.111969
0.738098 0.074280 0.111969
0.795868 0.074280 0.111969
0.844543 0.074280 0.111969
0.887848 0.074280 0.111969
0.929626 0.074280 0.111969
1.000000 0.074280 0.111969
0.047516 0.109314 0.112732
0.079407 0.111542 0.112732
0.122101 0.112671 0.112366
0.171814 0.113281 0.112366
0.226593 0.112793 0.112366
0.294647 0.110718 0.112366
0.378601 0.108582 0.112366
0.479614 0.106750 0.112366
0.584717 0.105011 0.112366
0.671265 0.103180 0.112366
0.740936 0.101563 0.112366
0.796387 0.100128 0.111969
0.845154 0.100159 0.111969
0.888184 0.100128 0.111969
0.929779 0.100128 0.111969
1.000000 0.100128 0.111969
0.047516 0.147949 0.112732
0.079956 0.152374 0.112732
0.124268 0.155670 0.112732
0.174622 0.156372 0.112366
0.229584 0.155182 0.112366
0.298553 0.151154 0.112366
0.381561 0.146545 0.112366
0.483154 0.143005 0.112366
0.587128 0.139496 0.112366
0.673218 0.135864 0.112366
0.742493 0.132690 0.112366
0.797546 0.130035 0.111969
0.845856 0.130035 0.111969
0.888733 0.130035 0.111969
0.930023 0.130035 0.111969
1.000000 0.130035 0.111969
0.047394 0.191376 0.112366
0.080109 0.198364 0.112732
0.124695 0.203064 0.112732
0.175629 0.204468 0.112732
0.229980 0.202087 0.112366
0.299072 0.196381 0.112366
0.382446 0.190094 0.112366
0.484558 0.185333 0.112366
0.588379 0.180328 0.112366
0.673828 0.175079 0.112366
0.743134 0.170654 0.112366
0.799927 0.167542 0.112366
0.846069 0.166931 0.111969
0.889008 0.166992 0.111969
0.930206 0.166992 0.111969
1.000000 0.166992 0.111969
0.047394 0.244659 0.112366
0.080383 0.253693 0.112732
0.125824 0.259918 0.112732
0.177460 0.261688 0.112732
0.232666 0.258972 0.112366
0.302002 0.251801 0.112366
0.384460 0.243317 0.112366
0.486511 0.237396 0.112366
0.589905 0.231201 0.112366
0.674988 0.224731 0.112366
0.743835 0.219177 0.112366
0.800415 0.215363 0.112366
0.846588 0.214600 0.111969
0.889282 0.214600 0.111969
0.930359 0.214600 0.111969
1.000000 0.214600 0.111969
0.047394 0.313538 0.112366
0.080383 0.321777 0.112366
0.126465 0.330078 0.112732
0.179321 0.333008 0.112732
0.233948 0.328888 0.112366
0.303009 0.320282 0.112366
0.386414 0.311462 0.112366
0.488434 0.304596 0.112366
0.591461 0.297455 0.112366
0.676483 0.290131 0.112366
0.744995 0.283661 0.112366
0.801086 0.279175 0.112366
0.846924 0.278107 0.111969
0.889496 0.278137 0.111969
0.930450 0.278107 0.111969
1.000000 0.278137 0.111969
0.047394 0.400208 0.112366
0.080750 0.410034 0.112366
0.126678 0.416748 0.112366
0.179688 0.419983 0.112366
0.235229 0.416809 0.112366
0.305481 0.408386 0.112366
0.388916 0.398560 0.112366
0.489960 0.390503 0.112366
0.592804 0.382751 0.112366
0.677521 0.374756 0.112366
0.745789 0.367767 0.112366
0.801849 0.362915 0.112366
0.847595 0.361481 0.111969
0.889862 0.361481 0.111969
0.930695 0.361481 0.111969
1.000000 0.361481 0.111969
0.047394 0.502991 0.112366
0.081238 0.513580 0.112366
0.128052 0.520477 0.112366
0.181519 0.523254 0.112366
0.238800 0.521423 0.112366
0.308472 0.511902 0.112366
0.390900 0.500916 0.112366
0.493408 0.493317 0.112366
0.595459 0.485046 0.112366
0.679260 0.476349 0.112366
0.747162 0.468872 0.112366
0.801392 0.461945 0.111969
0.848480 0.461914 0.111969
0.890381 0.461914 0.111969
0.930939 0.461914 0.111969
1.000000 0.461914 0.111969
0.047394 0.602783 0.112366
0.081390 0.610687 0.112366
0.128479 0.616211 0.112366
0.182617 0.618774 0.112366
0.238800 0.616272 0.112366
0.308960 0.609009 0.112366
0.391876 0.600586 0.112366
0.493866 0.594269 0.112366
0.596222 0.587738 0.112366
0.679901 0.580597 0.112366
0.745636 0.572327 0.111969
0.801392 0.567993 0.111969
0.848602 0.567993 0.111969
0.890503 0.567993 0.111969
0.931030 0.567993 0.111969
1.000000 0.568024 0.111969
0.047394 0.685059 0.112366
0.081635 0.691315 0.112366
0.129395 0.695953 0.112366
0.183777 0.697662 0.112366
0.241547 0.696533 0.112366
0.312012 0.690704 0.112366
0.394867 0.683960 0.112366
0.495819 0.678558 0.112366
0.597443 0.673279 0.112366
0.679382 0.665833 0.111969
0.746796 0.660889 0.111969
0.802063 0.657410 0.111969
0.849060 0.657410 0.111969
0.890808 0.657410 0.111969
0.931152 0.657379 0.111969
1.000000 0.657318 0.111969
0.047394 0.751373 0.112366
0.081940 0.756439 0.112366
0.130524 0.760284 0.112366
0.185242 0.761444 0.112366
0.242432 0.760132 0.112366
0.312531 0.755432 0.112366
0.395844 0.750366 0.112366
0.494843 0.744293 0.111969
0.595764 0.740173 0.111969
0.679718 0.735992 0.111969
0.747070 0.732239 0.111969
0.802399 0.729614 0.111969
0.849304 0.729614 0.111969
0.891083 0.729614 0.111969
0.931366 0.729614 0.111969
1.000000 0.729614 0.111969
0.047241 0.803955 0.111969
0.081940 0.809540 0.112366
0.130341 0.812256 0.112366
0.185333 0.813324 0.112366
0.242554 0.812286 0.112366
0.313049 0.808929 0.112366
0.394257 0.803162 0.111969
0.495178 0.800201 0.111969
0.596436 0.797089 0.111969
0.680145 0.793976 0.111969
0.747162 0.791107 0.111969
0.802460 0.789124 0.111969
0.849335 0.789124 0.111969
0.891113 0.789154 0.111969
0.930115 0.787262 0.111603
1.000000 0.787292 0.111603
0.047241 0.850494 0.111969
0.081848 0.853180 0.111969
0.130615 0.855286 0.111969
0.185730 0.857452 0.112366
0.243042 0.855286 0.111969
0.313385 0.852844 0.111969
0.395752 0.849976 0.111969
0.496674 0.847778 0.111969
0.597198 0.845520 0.111969
0.680756 0.843262 0.111969
0.747803 0.841248 0.111969
0.803131 0.839813 0.111969
0.848022 0.838074 0.111603
0.889832 0.838074 0.111603
0.930237 0.838074 0.111603
1.000000 0.838074 0.111603
0.047241 0.891754 0.111969
0.081909 0.893555 0.111969
0.130615 0.894867 0.111969
0.185791 0.895355 0.111969
0.243042 0.894867 0.111969
0.313385 0.893280 0.111969
0.395752 0.891357 0.111969
0.496674 0.889923 0.111969
0.597565 0.888489 0.111969
0.680756 0.886993 0.111969
0.745880 0.884094 0.111603
0.801117 0.883148 0.111603
0.848022 0.883148 0.111603
0.889740 0.883148 0.111603
0.930237 0.883148 0.111603
1.000000 0.883148 0.111603
0.047241 0.931763 0.111969
0.082153 0.932770 0.111969
0.131256 0.933533 0.111969
0.186554 0.933746 0.111969
0.244385 0.933533 0.111969
0.314911 0.932617 0.111969
0.396729 0.931519 0.111969
0.495697 0.929504 0.111603
0.596771 0.928711 0.111603
0.679932 0.927887 0.111603
0.746796 0.927124 0.111603
0.801819 0.926575 0.111603
0.848480 0.926575 0.111603
0.890076 0.926575 0.111603
0.930389 0.926575 0.111603
1.000000 0.926575 0.111603
0.047119 1.000000 0.111603
0.081909 1.000000 0.111603
0.130890 1.000000 0.111969
0.186676 1.000000 0.111969
0.243561 1.000000 0.111969
0.313293 1.000000 0.111603
0.395203 1.000000 0.111603
0.496094 1.000000 0.111603
0.596222 1.000000 0.111603
0.679230 1.000000 0.111603
0.746429 1.000000 0.111603
0.801361 1.000000 0.111603
0.848450 1.000000 0.111603
0.888489 1.000000 0.111237
0.929138 1.000000 0.111237
1.000000 1.000000 0.111237
0.047516 0.074768 0.150635
0.078918 0.074524 0.151031
0.121704 0.074524 0.151154
0.171143 0.074524 0.150574
0.225250 0.074524 0.147156
0.293640 0.074524 0.142487
0.376617 0.074524 0.138428
0.478668 0.074524 0.137634
0.583160 0.074524 0.137329
0.670380 0.074524 0.137299
0.738342 0.074280 0.136810
0.795868 0.074280 0.136810
0.844543 0.074280 0.136810
0.887939 0.074280 0.136810
0.929596 0.074280 0.136810
1.000000 0.074280 0.136810
0.047516 0.109192 0.150818
0.079376 0.111420 0.151764
0.122345 0.112793 0.151459
0.171814 0.113281 0.150787
0.226135 0.112701 0.147308
0.294647 0.110718 0.142578
0.378113 0.108490 0.138428
0.480103 0.106842 0.137634
0.584717 0.105011 0.137299
0.671265 0.103180 0.137268
0.741180 0.101593 0.137238
0.796600 0.100159 0.136780
0.845154 0.100159 0.136780
0.888275 0.100159 0.136780
0.929810 0.100159 0.136780
1.000000 0.100128 0.136780
0.047516 0.147949 0.151428
0.079956 0.152374 0.152405
0.124268 0.155670 0.152527
0.174622 0.156372 0.151398
0.229584 0.155182 0.147736
0.298553 0.151154 0.142700
0.381561 0.146545 0.138306
0.483154 0.143005 0.137421
0.587128 0.139496 0.137115
0.673218 0.135864 0.137115
0.742493 0.132690 0.137115
0.797546 0.130035 0.136658
0.845856 0.130035 0.136658
0.888733 0.130035 0.136658
0.930023 0.130035 0.136658
1.000000 0.130035 0.136658
0.047394 0.191376 0.151123
0.080048 0.198090 0.152527
0.124481 0.202728 0.152588
0.175629 0.204468 0.152039
0.229980 0.202087 0.147797
0.299072 0.196381 0.142731
0.382446 0.190094 0.138306
0.483582 0.185028 0.137390
0.587952 0.180237 0.137115
0.674133 0.175171 0.137054
0.743134 0.170654 0.137085
0.799530 0.167511 0.137085
0.845947 0.166931 0.136627
0.889069 0.166992 0.136597
0.930115 0.166931 0.136627
1.000000 0.166992 0.136597
0.047394 0.244904 0.151520
0.080231 0.253082 0.152649
0.125824 0.259918 0.153290
0.177460 0.261688 0.152557
0.232208 0.258606 0.148193
0.302002 0.251801 0.142914
0.384460 0.243317 0.138306
0.486511 0.237396 0.137360
0.589905 0.231201 0.137054
0.674988 0.224731 0.137024
0.743835 0.219177 0.137024
0.800568 0.215363 0.136993
0.846588 0.214600 0.136566
0.889282 0.214600 0.136536
0.930359 0.214600 0.136536
1.000000 0.214600 0.136536
0.047394 0.313538 0.152069
0.080536 0.322571 0.153168
0.126740 0.330475 0.153809
0.179321 0.333008 0.153137
0.234406 0.329315 0.148590
0.303986 0.321075 0.143097
0.386932 0.311768 0.138306
0.488434 0.304596 0.137360
0.591461 0.297455 0.136993
0.676483 0.290131 0.136963
0.744751 0.283600 0.136963
0.801086 0.279175 0.136963
0.847198 0.278198 0.136536
0.889435 0.278107 0.136536
0.930481 0.278137 0.136536
1.000000 0.278198 0.136536
0.047394 0.400543 0.152222
0.080841 0.410400 0.153290
0.126892 0.417175 0.153290
0.179688 0.419983 0.152618
0.235718 0.417267 0.148529
0.305481 0.408386 0.143005
0.388916 0.398560 0.138184
0.489960 0.390503 0.137207
0.592804 0.382751 0.136871
0.677826 0.374878 0.136780
0.745789 0.367767 0.136810
0.802063 0.362946 0.136780
0.847595 0.361481 0.136322
0.889954 0.361542 0.136292
0.930695 0.361481 0.136322
1.000000 0.361481 0.136322
0.047394 0.503357 0.152740
0.081299 0.513947 0.153961
0.128235 0.520966 0.153961
0.181885 0.523712 0.153290
0.238342 0.520996 0.149048
0.308960 0.512268 0.143250
0.391418 0.501251 0.138153
0.493408 0.493317 0.137115
0.595459 0.485046 0.136780
0.679260 0.476349 0.136749
0.747162 0.468872 0.136749
0.801208 0.461914 0.136261
0.848389 0.461914 0.136261
0.890381 0.461914 0.136261
0.930939 0.461914 0.136261
1.000000 0.461914 0.136261
0.047394 0.602783 0.153076
0.081390 0.610687 0.154114
0.128479 0.616211 0.154114
0.182251 0.618469 0.153412
0.239258 0.616638 0.149200
0.308960 0.609009 0.143250
0.391876 0.600586 0.138153
0.493408 0.594116 0.137115
0.595459 0.587433 0.136780
0.679596 0.580475 0.136749
0.745636 0.572327 0.136261
0.801575 0.568024 0.136261
0.848602 0.567993 0.136261
0.890503 0.567993 0.136261
0.931030 0.567993 0.136261
1.000000 0.567993 0.136261
0.047394 0.685272 0.153473
0.081696 0.691498 0.154541
0.129608 0.696228 0.154694
0.184509 0.698273 0.154083
0.241058 0.696259 0.149475
0.312012 0.690704 0.143494
0.394867 0.683960 0.138153
0.496338 0.678711 0.137115
0.597809 0.673401 0.136719
0.679077 0.665741 0.136230
0.746796 0.660889 0.136230
0.802063 0.657410 0.136230
0.848938 0.657379 0.136230
0.890747 0.657379 0.136230
0.931152 0.657379 0.136230
1.000000 0.657410 0.136230
0.047394 0.751251 0.153625
0.081940 0.756439 0.154907
0.130280 0.760101 0.155029
0.185242 0.761444 0.154297
0.241547 0.759674 0.149536
0.312012 0.755249 0.143494
0.395355 0.750275 0.138153
0.495331 0.744446 0.136658
0.595764 0.740173 0.136261
0.679382 0.735901 0.136230
0.747070 0.732239 0.136230
0.802582 0.729614 0.136200
0.849548 0.729614 0.136169
0.891083 0.729614 0.136200
0.931305 0.729614 0.136230
1.000000 0.729614 0.136169
0.047241 0.803955 0.153473
0.081665 0.807709 0.154694
0.130341 0.812256 0.155365
0.185333 0.813324 0.154602
0.242554 0.812286 0.149963
0.311890 0.807129 0.143250
0.394257 0.803162 0.137817
0.495178 0.800201 0.136749
0.596802 0.797150 0.136292
0.679871 0.793945 0.136261
0.747375 0.791138 0.136261
0.802460 0.789124 0.136261
0.849487 0.789154 0.136261
0.891205 0.789185 0.136261
0.930145 0.787292 0.135834
1.000000 0.787323 0.135803
0.047241 0.850494 0.153687
0.081848 0.853180 0.154907
0.130127 0.855072 0.154907
0.185425 0.855927 0.154297
0.243042 0.855286 0.149689
0.313385 0.852844 0.143341
0.395752 0.849976 0.137817
0.496674 0.847778 0.136749
0.597565 0.845581 0.136292
0.680756 0.843262 0.136261
0.747803 0.841248 0.136261
0.802948 0.839813 0.136261
0.848145 0.838074 0.135773
0.889893 0.838104 0.135773
0.930298 0.838104 0.135773
1.000000 0.838074 0.135773
0.047241 0.891754 0.153809
0.081909 0.893555 0.155029
0.130615 0.894867 0.155182
0.185791 0.895355 0.154419
0.243042 0.894867 0.149689
0.313385 0.893280 0.143341
0.395752 0.891357 0.137817
0.496674 0.889923 0.136749
0.597565 0.888489 0.136292
0.680756 0.886993 0.136261
0.745880 0.884094 0.135803
0.801117 0.883148 0.135803
0.848022 0.883148 0.135803
0.889740 0.883148 0.135803
0.930237 0.883148 0.135803
1.000000 0.883179 0.135773
0.047241 0.931763 0.154114
0.082153 0.932770 0.155396
0.131500 0.933563 0.155609
0.186920 0.933807 0.154755
0.244385 0.933533 0.149933
0.314911 0.932617 0.143494
0.397736 0.931580 0.137817
0.495697 0.929504 0.136261
0.596771 0.928711 0.135803
0.679321 0.927826 0.135773
0.746582 0.927124 0.135773
0.801666 0.926575 0.135742
0.848480 0.926575 0.135742
0.890076 0.926575 0.135742
0.930389 0.926575 0.135742
1.000000 0.925354 0.135284
0.047119 1.000000 0.153748
0.081909 1.000000 0.155182
0.131134 1.000000 0.155701
0.186310 1.000000 0.154816
0.242676 1.000000 0.149506
0.312805 1.000000 0.143097
0.395660 1.000000 0.137482
0.495605 1.000000 0.136353
0.596222 1.000000 0.135956
0.679474 1.000000 0.135895
0.746185 1.000000 0.135925
0.801544 1.000000 0.135895
0.848206 1.000000 0.135895
0.888428 1.000000 0.135437
0.929138 1.000000 0.135437
1.000000 1.000000 0.135437
0.047516 0.074768 0.190796
0.079193 0.074768 0.192535
0.121704 0.074524 0.192017
0.171143 0.074524 0.190979
0.225250 0.074524 0.184631
0.293640 0.074524 0.176025
0.376617 0.074524 0.168518
0.478180 0.074524 0.166840
0.583496 0.074524 0.166168
0.670380 0.074524 0.166107
0.738342 0.074280 0.165558
0.795715 0.074280 0.165588
0.844543 0.074280 0.165588
0.887848 0.074280 0.165588
0.929596 0.074280 0.165588
1.000000 0.074280 0.165588
0.047516 0.109192 0.191193
0.079376 0.111420 0.192963
0.122528 0.113037 0.193115
0.171814 0.113281 0.191406
0.226135 0.112701 0.184906
0.295166 0.110809 0.176239
0.378113 0.108490 0.168518
0.480103 0.106842 0.166779
0.584351 0.105011 0.166138
0.671265 0.103180 0.166046
0.740936 0.101563 0.166046
0.796387 0.100128 0.165466
0.845154 0.100159 0.165466
0.888275 0.100159 0.165466
0.929779 0.100128 0.165466
1.000000 0.100159 0.165466
0.047394 0.147400 0.191620
0.079956 0.152374 0.194153
0.124268 0.155670 0.194336
0.174622 0.156372 0.192535
0.229584 0.155182 0.185638
0.298553 0.151154 0.176392
0.381561 0.146545 0.168274
0.483154 0.143005 0.166412
0.587128 0.139496 0.165771
0.673218 0.135864 0.165680
0.742493 0.132690 0.165680
0.797546 0.130035 0.165131
0.845856 0.130035 0.165131
0.888733 0.130035 0.165131
0.930023 0.130035 0.165131
1.000000 0.130035 0.165131
0.047394 0.191162 0.191833
0.080048 0.198090 0.194397
0.124695 0.203064 0.194794
0.175629 0.204468 0.193451
0.229980 0.202087 0.185791
0.299072 0.196381 0.176453
0.382019 0.189880 0.168274
0.483582 0.185028 0.166382
0.587952 0.180237 0.165680
0.673828 0.175079 0.165619
0.742920 0.170624 0.165619
0.799927 0.167542 0.165619
0.846344 0.166992 0.165039
0.888885 0.166931 0.165070
0.930206 0.166992 0.165039
1.000000 0.166992 0.165039
0.047394 0.244904 0.192810
0.080109 0.252380 0.194550
0.125549 0.259460 0.195618
0.177460 0.261688 0.194519
0.232666 0.258972 0.186707
0.302002 0.251801 0.176849
0.384949 0.243622 0.168274
0.486511 0.237396 0.166321
0.589905 0.231201 0.165619
0.675232 0.224823 0.165527
0.744110 0.219238 0.165527
0.800568 0.215363 0.165527
0.846710 0.214600 0.164948
0.889130 0.214508 0.165009
0.930389 0.214661 0.164948
1.000000 0.214661 0.164948
0.047394 0.313538 0.193817
0.080536 0.322571 0.195801
0.126740 0.330475 0.196747
0.179321 0.333008 0.195496
0.234406 0.329315 0.187286
0.303986 0.321075 0.177094
0.386932 0.311768 0.168274
0.488434 0.304596 0.166260
0.591461 0.297455 0.165527
0.676483 0.290131 0.165466
0.744995 0.283661 0.165466
0.801239 0.279236 0.165466
0.847198 0.278198 0.164886
0.889496 0.278137 0.164917
0.930481 0.278137 0.164917
1.000000 0.278137 0.164917
0.047394 0.400848 0.194305
0.080902 0.410828 0.196381
0.127136 0.417694 0.196381
0.180054 0.420441 0.195129
0.235718 0.417267 0.187286
0.305939 0.408813 0.177032
0.388489 0.398193 0.168030
0.490479 0.390808 0.165955
0.593170 0.382965 0.165192
0.677826 0.374878 0.165161
0.745972 0.367828 0.165161
0.802063 0.362946 0.165161
0.847717 0.361542 0.164581
0.889954 0.361542 0.164581
0.930695 0.361481 0.164581
1.000000 0.361542 0.164581
0.047394 0.503357 0.195068
0.081238 0.513580 0.197235
0.128235 0.520966 0.197418
0.181885 0.523712 0.196167
0.238342 0.520996 0.188141
0.308472 0.511902 0.177368
0.391418 0.501251 0.168030
0.492889 0.493042 0.165894
0.595459 0.485046 0.165100
0.679596 0.476440 0.165009
0.747162 0.468872 0.165039
0.801025 0.461914 0.164459
0.848480 0.461914 0.164429
0.890442 0.461914 0.164429
0.930939 0.461914 0.164459
1.000000 0.461914 0.164459
0.047394 0.602539 0.195465
0.081299 0.610352 0.197418
0.128693 0.616608 0.197906
0.182251 0.618469 0.196381
0.238800 0.616272 0.188293
0.309479 0.609375 0.177521
0.391876 0.600586 0.168030
0.493408 0.594116 0.165863
0.595459 0.587433 0.165100
0.679901 0.580597 0.164978
0.745422 0.572266 0.164459
0.801575 0.568024 0.164368
0.848846 0.568054 0.164368
0.890503 0.567993 0.164398
0.931091 0.568024 0.164368
1.000000 0.567993 0.164398
0.047394 0.685272 0.196503
0.081787 0.691803 0.198730
0.129852 0.696472 0.198975
0.184143 0.697968 0.197418
0.241547 0.696533 0.189148
0.312012 0.690704 0.177826
0.395355 0.684113 0.167999
0.495819 0.678558 0.165833
0.597809 0.673401 0.164948
0.679718 0.665924 0.164276
0.746796 0.660889 0.164276
0.802246 0.657440 0.164276
0.849060 0.657410 0.164307
0.890930 0.657440 0.164276
0.931213 0.657410 0.164307
1.000000 0.657410 0.164307
0.047394 0.751099 0.196503
0.081696 0.755890 0.198517
0.130035 0.759888 0.199188
0.184875 0.761230 0.197845
0.241974 0.759918 0.189301
0.312988 0.755615 0.177979
0.395355 0.750275 0.167999
0.494354 0.744171 0.165192
0.596191 0.740234 0.164368
0.679962 0.736053 0.164246
0.747070 0.732239 0.164276
0.802399 0.729614 0.164276
0.849457 0.729614 0.164246
0.891083 0.729614 0.164246
0.931366 0.729614 0.164246
1.000000 0.729614 0.164246
0.047241 0.803955 0.196716
0.081665 0.807709 0.198975
0.130341 0.812256 0.199921
0.185333 0.813324 0.198547
0.242950 0.812439 0.190033
0.311890 0.807129 0.177704
0.394257 0.803162 0.167664
0.496246 0.800354 0.165375
0.596802 0.797150 0.164551
0.679871 0.793945 0.164459
0.747375 0.791138 0.164459
0.802460 0.789124 0.164459
0.849579 0.789185 0.164429
0.891113 0.789154 0.164459
0.930145 0.787292 0.163879
1.000000 0.787323 0.163849
0.047241 0.850494 0.197113
0.081848 0.853180 0.199432
0.130371 0.855194 0.199646
0.185791 0.856018 0.198486
0.243042 0.855286 0.189697
0.313385 0.852844 0.177887
0.395752 0.849976 0.167664
0.496674 0.847778 0.165375
0.597565 0.845581 0.164490
0.681000 0.843292 0.164368
0.747803 0.841248 0.164398
0.802948 0.839813 0.164398
0.848145 0.838074 0.163788
0.889740 0.838074 0.163818
0.930298 0.838104 0.163788
1.000000 0.838104 0.163788
0.047241 0.891754 0.197296
0.081909 0.893555 0.199646
0.130615 0.894867 0.199890
0.185791 0.895355 0.198486
0.243042 0.894867 0.189697
0.313385 0.893280 0.177887
0.395752 0.891357 0.167664
0.496674 0.889923 0.165375
0.597565 0.888489 0.164490
0.680756 0.886993 0.164398
0.745880 0.884094 0.163818
0.801117 0.883148 0.163818
0.848022 0.883148 0.163818
0.889832 0.883148 0.163788
0.930298 0.883148 0.163788
1.000000 0.883179 0.163788
0.047241 0.931793 0.198090
0.082153 0.932770 0.200317
0.131500 0.933563 0.200745
0.186920 0.933807 0.199097
0.244781 0.933563 0.190277
0.315430 0.932678 0.178131
0.397278 0.931549 0.167664
0.496674 0.929565 0.164734
0.596375 0.928650 0.163879
0.679626 0.927826 0.163757
0.746582 0.927124 0.163788
0.801666 0.926575 0.163757
0.848480 0.926575 0.163727
0.890076 0.926575 0.163727
0.930450 0.926575 0.163727
1.000000 0.925354 0.163147
0.047119 1.000000 0.197296
0.081757 1.000000 0.199677
0.131378 1.000000 0.201111
0.186676 1.000000 0.199432
0.243134 1.000000 0.189728
0.313812 1.000000 0.177795
0.394714 1.000000 0.167297
0.495605 1.000000 0.164978
0.596649 1.000000 0.164001
0.679230 1.000000 0.163971
0.746185 1.000000 0.164001
0.801544 1.000000 0.163940
0.846466 1.000000 0.163391
0.888428 1.000000 0.163361
0.929047 1.000000 0.163391
1.000000 1.000000 0.163361
0.047516 0.074768 0.235962
0.079193 0.074768 0.238281
0.121887 0.074524 0.237946
0.171509 0.074524 0.236511
0.225677 0.074524 0.227722
0.294159 0.074524 0.215881
0.376617 0.074524 0.205536
0.478668 0.074524 0.202759
0.583496 0.074524 0.201782
0.670044 0.074524 0.201691
0.738098 0.074280 0.200989
0.795715 0.074280 0.200989
0.844543 0.074280 0.200989
0.887848 0.074280 0.200989
0.929596 0.074280 0.200989
1.000000 0.074280 0.200989
0.047516 0.109436 0.236633
0.079407 0.111450 0.238464
0.122681 0.113068 0.238708
0.172089 0.113312 0.236450
0.226929 0.112823 0.227753
0.296082 0.110962 0.215820
0.378601 0.108521 0.205200
0.479706 0.106689 0.202454
0.585236 0.105042 0.201355
0.671692 0.103180 0.201263
0.741089 0.101532 0.201294
0.796997 0.100159 0.200439
0.845215 0.100128 0.200500
0.888489 0.100159 0.200439
0.929840 0.100159 0.200439
1.000000 0.100098 0.200531
0.047394 0.147400 0.237152
0.079956 0.152374 0.240570
0.124268 0.155670 0.240814
0.174622 0.156372 0.238434
0.229584 0.155182 0.228973
0.298553 0.151154 0.216248
0.381561 0.146545 0.205200
0.483154 0.143005 0.202271
0.587128 0.139496 0.201172
0.673218 0.135864 0.201050
0.742493 0.132690 0.201080
0.797546 0.130035 0.200317
0.845856 0.130035 0.200317
0.888733 0.130035 0.200317
0.930023 0.130035 0.200317
1.000000 0.130035 0.200317
0.047394 0.191162 0.237396
0.080048 0.198090 0.240814
0.124481 0.202728 0.241089
0.175964 0.204803 0.239868
0.229980 0.202087 0.229156
0.299072 0.196381 0.216370
0.382019 0.189880 0.205200
0.484558 0.185333 0.202179
0.587616 0.180054 0.201141
0.674133 0.175171 0.200958
0.742920 0.170624 0.200989
0.799927 0.167542 0.200958
0.846069 0.166931 0.200256
0.889069 0.166992 0.200165
0.930206 0.166992 0.200165
1.000000 0.166992 0.200165
0.047394 0.244904 0.238800
0.080139 0.252716 0.241455
0.125824 0.259918 0.242889
0.177795 0.262024 0.241302
0.232666 0.258972 0.230377
0.302002 0.251801 0.216888
0.384949 0.243622 0.205200
0.486511 0.237396 0.202087
0.589905 0.231201 0.200928
0.675232 0.224823 0.200775
0.744110 0.219238 0.200775
0.800568 0.215363 0.200775
0.846924 0.214691 0.200012
0.889343 0.214661 0.200043
0.930359 0.214600 0.200073
1.000000 0.214661 0.200043
0.047394 0.313538 0.240173
0.080536 0.322571 0.242920
0.126740 0.330475 0.244080
0.179321 0.333008 0.242432
0.234406 0.329315 0.231171
0.303986 0.321075 0.217285
0.386932 0.311768 0.205170
0.488434 0.304596 0.201965
0.591461 0.297455 0.200745
0.676483 0.290131 0.200623
0.744995 0.283661 0.200623
0.801239 0.279236 0.200623
0.847198 0.278198 0.199921
0.889587 0.278198 0.199921
0.930481 0.278198 0.199921
1.000000 0.278198 0.199921
0.047394 0.400543 0.240631
0.081024 0.411224 0.244019
0.127136 0.417694 0.243683
0.180054 0.420441 0.242004
0.237030 0.418671 0.231812
0.305939 0.408813 0.217224
0.388916 0.398560 0.204834
0.490479 0.390808 0.201599
0.593170 0.382965 0.200348
0.677826 0.374878 0.200195
0.745972 0.367828 0.200195
0.800232 0.361542 0.199493
0.847717 0.361542 0.199493
0.889954 0.361542 0.199493
0.930756 0.361542 0.199493
1.000000 0.361542 0.199493
