Color Lookup Presets Effects/z1 (66).CUBE
#Created by: Adobe Photoshop Export Color Lookup Plugin
#Copyright: (C) Copyright 2016 www.zafizack.com
TITLE "zafizack pastel color preset"
#LUT size
LUT_3D_SIZE 6
#data domain
DOMAIN_MIN 0.0 0.0 0.0
DOMAIN_MAX 1.0 1.0 1.0
#LUT data points
0.046234 0.025970 0.032593
0.229279 0.050110 0.064789
0.517517 0.072388 0.112152
0.756653 0.091309 0.159149
0.892731 0.147095 0.249817
1.000000 0.215668 0.323700
0.046326 0.169159 0.032715
0.178528 0.173248 0.037506
0.454620 0.215332 0.065704
0.699677 0.249878 0.100800
0.890015 0.300873 0.169037
1.000000 0.358185 0.264404
0.046448 0.431488 0.032776
0.169647 0.429016 0.033752
0.413025 0.438446 0.045532
0.660828 0.464294 0.067902
0.884338 0.483307 0.089142
1.000000 0.520935 0.217651
0.046509 0.650116 0.032867
0.164520 0.646057 0.033051
0.398682 0.649719 0.040619
0.636627 0.662018 0.054810
0.856293 0.678375 0.069153
1.000000 0.691254 0.206238
0.046600 0.847382 0.032990
0.160095 0.845032 0.033051
0.388947 0.849854 0.038147
0.624359 0.863098 0.049591
0.840424 0.882721 0.062439
1.000000 0.879913 0.278717
0.047424 1.000000 0.033722
0.155548 0.997894 0.033051
0.382874 1.000000 0.039032
0.622864 1.000000 0.069489
0.834656 1.000000 0.203796
1.000000 1.000000 0.459534
0.046234 0.025970 0.163513
0.212616 0.044586 0.341217
0.503967 0.066498 0.394409
0.745361 0.084991 0.430054
0.892181 0.136475 0.462311
1.000000 0.209198 0.494537
0.046234 0.150116 0.257446
0.169861 0.159210 0.271179
0.442200 0.200653 0.327087
0.689148 0.234680 0.373871
0.889496 0.283356 0.407684
1.000000 0.351135 0.454590
0.046234 0.413940 0.258453
0.161316 0.417297 0.253540
0.401031 0.426727 0.272827
0.650787 0.452484 0.314941
0.873383 0.471619 0.343018
1.000000 0.512238 0.418213
0.046234 0.634064 0.252625
0.156403 0.635864 0.242218
0.387146 0.639252 0.252502
0.627136 0.651825 0.276764
0.845795 0.668213 0.301514
1.000000 0.684174 0.401154
0.046234 0.831299 0.244720
0.151917 0.835327 0.232239
0.377777 0.839752 0.237793
0.615021 0.852936 0.255585
0.830292 0.872681 0.277161
1.000000 0.876740 0.434235
0.046234 0.984131 0.235626
0.147522 0.987976 0.222076
0.370483 0.991119 0.225769
0.608307 1.000000 0.247070
0.826996 1.000000 0.377991
1.000000 1.000000 0.569702
0.046234 0.025970 0.347961
0.198120 0.039368 0.568512
0.490326 0.060669 0.606567
0.734039 0.078796 0.637482
0.891663 0.124939 0.638885
1.000000 0.202087 0.647736
0.046234 0.136810 0.480774
0.161346 0.145569 0.520325
0.429565 0.186005 0.560699
0.678406 0.219299 0.588196
0.889008 0.263123 0.606812
1.000000 0.343292 0.621399
0.046234 0.399139 0.499054
0.152863 0.404968 0.507996
0.388550 0.414246 0.521973
0.640106 0.440155 0.552551
0.861603 0.459076 0.569855
1.000000 0.501587 0.596558
0.046234 0.618988 0.502625
0.147919 0.624939 0.500153
0.374725 0.628021 0.507660
0.616150 0.640656 0.525146
0.834015 0.656525 0.543823
1.000000 0.674927 0.581268
0.046234 0.814545 0.500916
0.143555 0.824036 0.493652
0.365295 0.828217 0.497467
0.604340 0.841309 0.510101
0.818451 0.860870 0.526611
1.000000 0.871521 0.595245
0.046234 0.965576 0.497131
0.139069 0.975739 0.487061
0.358032 0.978729 0.489197
0.595490 0.989960 0.498749
0.814514 1.000000 0.548096
1.000000 1.000000 0.693146
0.046234 0.025970 0.481964
0.189545 0.034576 0.754395
0.477661 0.055359 0.798340
0.723236 0.072998 0.832550
0.891144 0.116791 0.809814
1.000000 0.194763 0.796539
0.046234 0.127289 0.641327
0.153290 0.132690 0.713257
0.417450 0.172180 0.748383
0.668030 0.204834 0.777954
0.888153 0.241669 0.794861
1.000000 0.334869 0.777954
0.046234 0.386658 0.674072
0.144897 0.393494 0.702118
0.376617 0.402710 0.714142
0.629852 0.428314 0.739868
0.850311 0.447052 0.757599
1.000000 0.490173 0.758759
0.046234 0.606384 0.685486
0.140015 0.614502 0.696014
0.362457 0.617462 0.701477
0.606079 0.629517 0.716095
0.822754 0.645691 0.732239
1.000000 0.664307 0.744446
0.046234 0.800446 0.688812
0.135712 0.813263 0.690155
0.353271 0.817383 0.692749
0.594208 0.830261 0.703033
0.807129 0.849640 0.717285
1.000000 0.863800 0.745453
0.046234 0.949768 0.687866
0.131195 0.964172 0.684784
0.346191 0.966980 0.686157
0.585358 0.978058 0.693359
0.797058 0.998779 0.707153
1.000000 1.000000 0.818176
0.046234 0.025970 0.563690
0.183960 0.031708 0.877228
0.467651 0.053070 0.918182
0.691742 0.081360 0.918579
0.881744 0.115845 0.918823
1.000000 0.189789 0.898682
0.046234 0.122345 0.729950
0.148132 0.124207 0.835754
0.409485 0.163025 0.875763
0.661163 0.195221 0.909210
0.873749 0.238770 0.918823
1.000000 0.327240 0.890961
0.046234 0.379730 0.779633
0.139679 0.385773 0.829590
0.368378 0.394714 0.844421
0.622772 0.420044 0.874329
0.842316 0.438629 0.895752
1.000000 0.481232 0.882782
0.046234 0.598541 0.802368
0.134735 0.607239 0.828308
0.354431 0.610016 0.836578
0.598877 0.622162 0.854065
0.814606 0.637787 0.873840
1.000000 0.655334 0.876862
0.046234 0.791565 0.814575
0.130066 0.805878 0.827789
0.344910 0.809753 0.832886
0.586700 0.822327 0.845703
0.798645 0.841553 0.863464
1.000000 0.854706 0.875946
0.046234 0.939392 0.820343
0.125305 0.955750 0.827515
0.337372 0.958405 0.830688
0.577698 0.969177 0.840637
0.788300 0.989746 0.857758
1.000000 1.000000 0.918823
0.046234 0.025970 0.632324
0.178192 0.029449 1.000000
0.447693 0.057434 1.000000
0.668915 0.088135 1.000000
0.852997 0.126190 1.000000
1.000000 0.185181 1.000000
0.046234 0.119415 0.820709
0.143158 0.118866 0.963806
0.401337 0.155762 1.000000
0.642029 0.204010 1.000000
0.837830 0.260803 1.000000
1.000000 0.318298 1.000000
0.046234 0.373169 0.884552
0.134735 0.378754 0.957275
0.360718 0.387268 0.972290
0.615936 0.413239 1.000000
0.822144 0.443115 1.000000
1.000000 0.472717 1.000000
0.046234 0.591583 0.913910
0.129608 0.600555 0.955933
0.346832 0.603638 0.963959
0.592651 0.615326 0.981232
0.806854 0.631927 1.000000
1.000000 0.646484 1.000000
0.046234 0.783936 0.930847
0.125153 0.799713 0.955322
0.337372 0.803192 0.959625
0.580170 0.815582 0.972839
0.791962 0.834747 0.990814
1.000000 0.844513 1.000000
0.046234 0.930847 0.939087
0.120392 0.949219 0.955078
0.329865 0.951843 0.957764
0.571289 0.962463 0.967468
0.781586 0.982605 0.985260
1.000000 1.000000 1.000000
