Color Lookup Presets Effects/z1 (92).CUBE
#Created by: Adobe Photoshop Export Color Lookup Plugin
#Copyright: (C) Copyright 2015 www.zafizack.com
TITLE "zafizack-VG-18"
#LUT size
LUT_3D_SIZE 6
#data domain
DOMAIN_MIN 0.0 0.0 0.0
DOMAIN_MAX 1.0 1.0 1.0
#LUT data points
0.000000 0.000000 0.000000
0.200043 0.000000 0.000000
0.399994 0.000000 0.000000
0.600006 0.000000 0.000000
0.799988 0.000000 0.000000
1.000000 0.000000 0.000000
0.319946 0.250732 0.000000
0.350861 0.294403 0.000000
0.513092 0.294403 0.000000
0.675446 0.294403 0.000000
0.837708 0.294403 0.000000
1.000000 0.294403 0.000000
0.536530 0.331543 0.000000
0.556305 0.387848 0.000000
0.631165 0.472137 0.000000
0.754120 0.472137 0.000000
0.877075 0.472137 0.000000
1.000000 0.472137 0.000000
0.758850 0.487823 0.000000
0.740112 0.568695 0.000000
0.769867 0.645050 0.000000
0.833191 0.722778 0.000000
0.916595 0.722778 0.000000
1.000000 0.722778 0.000000
0.931671 0.805450 0.000000
0.900909 0.835632 0.000000
0.900085 0.862122 0.000000
0.921539 0.890839 0.000000
0.957428 0.919128 0.000000
1.000000 0.919128 0.000000
1.000000 1.000000 0.000000
1.000000 1.000000 0.000000
1.000000 1.000000 0.000000
1.000000 1.000000 0.000000
1.000000 1.000000 0.000000
1.000000 1.000000 0.000000
0.000000 0.000000 0.200043
0.200043 0.000000 0.200043
0.399994 0.000000 0.200043
0.600006 0.000000 0.200043
0.799988 0.000000 0.200043
1.000000 0.000000 0.200043
0.000000 0.200043 0.200043
0.200043 0.200043 0.200043
0.399994 0.200043 0.200043
0.600006 0.200043 0.200043
0.799988 0.200043 0.200043
1.000000 0.200043 0.200043
0.319855 0.367035 0.116364
0.455933 0.367035 0.116364
0.512360 0.453918 0.131744
0.674927 0.453918 0.131744
0.837433 0.453918 0.131744
1.000000 0.453918 0.131744
0.602783 0.549561 0.055054
0.681946 0.562958 0.054260
0.691895 0.634552 0.065399
0.751495 0.707336 0.072510
0.875763 0.707336 0.072510
1.000000 0.707336 0.072510
0.842682 0.828827 0.012848
0.874084 0.833771 0.012665
0.854828 0.857880 0.018402
0.867706 0.883911 0.023376
0.915283 0.909607 0.027466
1.000000 0.909607 0.027466
0.991272 1.000000 0.000000
0.993011 1.000000 0.000000
0.979095 1.000000 0.000153
0.968719 1.000000 0.000610
0.972229 1.000000 0.001312
1.000000 1.000000 0.001587
0.000000 0.000000 0.399994
0.200043 0.000000 0.399994
0.399994 0.000000 0.399994
0.600006 0.000000 0.399994
0.799957 0.000000 0.399994
1.000000 0.000000 0.399994
0.000000 0.200043 0.399994
0.200043 0.200043 0.399994
0.399994 0.200043 0.399994
0.600006 0.200012 0.399994
0.799988 0.200043 0.399994
1.000000 0.200043 0.399994
0.000000 0.399994 0.399994
0.200043 0.399994 0.399994
0.399994 0.399994 0.399994
0.600006 0.399994 0.399994
0.799957 0.399994 0.399994
1.000000 0.399994 0.399994
0.367004 0.525452 0.225555
0.489624 0.577576 0.207581
0.616516 0.602295 0.203766
0.673370 0.660187 0.284454
0.836670 0.660187 0.284454
1.000000 0.660187 0.284454
0.684174 0.831787 0.057281
0.747192 0.838409 0.056305
0.810272 0.844910 0.055328
0.815125 0.863708 0.082550
0.874573 0.880127 0.151306
1.000000 0.880127 0.151306
0.930786 1.000000 0.002289
0.944550 1.000000 0.001953
0.958374 1.000000 0.001648
0.937836 1.000000 0.006622
0.944885 1.000000 0.015717
1.000000 1.000000 0.032043
0.000000 0.000000 0.600006
0.200043 0.000000 0.600006
0.399994 0.000000 0.600006
0.600006 0.000000 0.600006
0.799988 0.000000 0.600006
1.000000 0.000000 0.600006
0.000000 0.200043 0.600006
0.200043 0.200043 0.600006
0.399994 0.200012 0.600006
0.600006 0.200043 0.600006
0.799988 0.200012 0.600006
1.000000 0.200012 0.600006
0.000000 0.399994 0.600006
0.200012 0.399994 0.600006
0.399994 0.399994 0.600006
0.600006 0.399994 0.600006
0.799988 0.399994 0.600006
1.000000 0.399994 0.600006
0.000000 0.600006 0.600006
0.200043 0.600006 0.600006
0.399994 0.600006 0.600006
0.600006 0.600006 0.600006
0.799988 0.600006 0.600006
1.000000 0.600006 0.600006
0.384979 0.726746 0.453583
0.505585 0.741608 0.445587
0.625122 0.775208 0.427551
0.748016 0.806824 0.425873
0.836700 0.829315 0.523407
1.000000 0.829315 0.523407
0.703522 1.000000 0.167725
0.761719 1.000000 0.161774
0.820587 1.000000 0.164856
0.879913 1.000000 0.168243
0.910034 1.000000 0.308655
1.000000 1.000000 0.435211
0.000000 0.000000 0.799988
0.200043 0.000000 0.799988
0.399994 0.000000 0.799957
0.600006 0.000000 0.799988
0.799988 0.000000 0.799988
1.000000 0.000000 0.799988
0.000000 0.200043 0.799988
0.200043 0.200043 0.799988
0.399994 0.200043 0.799988
0.600006 0.200012 0.799988
0.799988 0.200043 0.799988
1.000000 0.200043 0.799988
0.000000 0.399994 0.799957
0.200043 0.399994 0.799988
0.399994 0.399994 0.799957
0.600006 0.399994 0.799988
0.799957 0.399994 0.799957
1.000000 0.399994 0.799988
0.000000 0.600006 0.799988
0.200012 0.600006 0.799988
0.399994 0.600006 0.799988
0.600006 0.600006 0.799988
0.799988 0.600006 0.799988
1.000000 0.600006 0.799988
0.000000 0.799988 0.799988
0.200043 0.799988 0.799988
0.399994 0.799957 0.799957
0.600006 0.799988 0.799988
0.799988 0.799988 0.799988
1.000000 0.799988 0.799988
0.385132 1.000000 0.726685
0.508118 1.000000 0.726685
0.631042 1.000000 0.726685
0.753448 1.000000 0.724670
0.875397 1.000000 0.718781
1.000000 1.000000 0.761841
0.000000 0.000000 1.000000
0.200043 0.000000 1.000000
0.399994 0.000000 1.000000
0.600006 0.000000 1.000000
0.799988 0.000000 1.000000
1.000000 0.000000 1.000000
0.000000 0.200043 1.000000
0.200043 0.200043 1.000000
0.399994 0.200043 1.000000
0.600006 0.200012 1.000000
0.799988 0.200043 1.000000
1.000000 0.200043 1.000000
0.000000 0.399994 1.000000
0.200043 0.399994 1.000000
0.399994 0.399994 1.000000
0.600006 0.399994 1.000000
0.799988 0.399994 1.000000
1.000000 0.399994 1.000000
0.000000 0.600006 1.000000
0.200012 0.600006 1.000000
0.399994 0.600006 1.000000
0.600006 0.600006 1.000000
0.799988 0.600006 1.000000
1.000000 0.600006 1.000000
0.000000 0.799988 1.000000
0.200043 0.799988 1.000000
0.399994 0.799988 1.000000
0.600006 0.799988 1.000000
0.799988 0.799988 1.000000
1.000000 0.799988 1.000000
0.000000 1.000000 1.000000
0.200043 1.000000 1.000000
0.399994 1.000000 1.000000
0.600006 1.000000 1.000000
0.799988 1.000000 1.000000
1.000000 1.000000 1.000000
