Color Lookup Presets Effects/z1 (68).CUBE
#Created by: Adobe Photoshop Export Color Lookup Plugin
#Copyright: (C) Copyright 2016 www.zafizack.com
TITLE "zafizack pastel color preset"
#LUT size
LUT_3D_SIZE 6
#data domain
DOMAIN_MIN 0.0 0.0 0.0
DOMAIN_MAX 1.0 1.0 1.0
#LUT data points
0.150208 0.067627 0.121643
0.338837 0.111420 0.162689
0.622192 0.171173 0.224274
0.807922 0.221069 0.286987
0.919128 0.281128 0.359192
0.997620 0.333099 0.414001
0.150360 0.272797 0.117371
0.304077 0.292999 0.121552
0.608490 0.370453 0.160126
0.788757 0.422089 0.215332
0.920593 0.469879 0.293304
0.997620 0.503479 0.371246
0.154877 0.534485 0.115509
0.291107 0.542603 0.116943
0.581635 0.556244 0.124268
0.778656 0.600189 0.167206
0.921692 0.623352 0.210724
0.997620 0.636200 0.325165
0.155731 0.704224 0.115631
0.274109 0.707397 0.116302
0.555634 0.715363 0.120422
0.747833 0.725189 0.135468
0.914124 0.769745 0.176758
0.997620 0.775024 0.302094
0.155853 0.864136 0.116455
0.257660 0.864929 0.115723
0.533356 0.869812 0.119720
0.736145 0.877563 0.125671
0.884766 0.887543 0.152740
0.997620 0.916382 0.341400
0.156067 0.994812 0.117310
0.244873 0.993744 0.115143
0.518219 0.994812 0.119232
0.728485 0.994812 0.133179
0.877014 0.994812 0.253693
0.988007 0.994812 0.467987
0.152039 0.064270 0.284088
0.271362 0.063568 0.378265
0.561615 0.077667 0.410797
0.782288 0.109344 0.459412
0.912811 0.182831 0.509766
0.997620 0.244354 0.547394
0.151154 0.242523 0.368103
0.268890 0.258209 0.376099
0.560822 0.299652 0.413391
0.767303 0.342529 0.457977
0.915924 0.397125 0.509277
0.997620 0.447449 0.547180
0.155090 0.521515 0.381866
0.269928 0.522003 0.356537
0.541656 0.535919 0.374390
0.755554 0.572449 0.431091
0.912262 0.597656 0.474121
0.997620 0.612640 0.533203
0.156311 0.694489 0.381287
0.269043 0.694824 0.351471
0.516632 0.700745 0.337952
0.730133 0.711273 0.384369
0.903900 0.749481 0.429565
0.997620 0.758453 0.509277
0.156494 0.855560 0.381927
0.266632 0.857422 0.350220
0.493378 0.861145 0.309570
0.716675 0.869446 0.351929
0.878113 0.880066 0.393219
0.997620 0.907104 0.525665
0.156586 0.987030 0.379700
0.263336 0.988983 0.347717
0.477203 0.990631 0.289337
0.708160 0.994812 0.335297
0.870941 0.994812 0.453766
0.989349 0.994812 0.587708
0.155914 0.062653 0.497528
0.277740 0.059265 0.635681
0.543427 0.057739 0.647003
0.758179 0.069885 0.647980
0.907471 0.130615 0.661285
0.997620 0.203613 0.675781
0.153412 0.217743 0.618256
0.264618 0.231964 0.635315
0.522156 0.240784 0.635681
0.737213 0.272156 0.641418
0.909637 0.323608 0.660065
0.997620 0.389313 0.671783
0.153503 0.478027 0.627716
0.255310 0.494629 0.631439
0.501343 0.502197 0.624786
0.719513 0.520660 0.631317
0.898224 0.543701 0.645844
0.997620 0.568787 0.661713
0.153381 0.685455 0.651855
0.251740 0.688019 0.642761
0.495575 0.683655 0.624268
0.699066 0.687744 0.617340
0.886169 0.718994 0.635834
0.997620 0.737976 0.657776
0.153412 0.846802 0.653687
0.249359 0.851349 0.641724
0.491394 0.850800 0.622467
0.682526 0.856293 0.601929
0.865601 0.867798 0.622070
0.997620 0.895264 0.659149
0.153381 0.978149 0.653717
0.245972 0.983032 0.640411
0.487549 0.984253 0.621033
0.670898 0.989807 0.590881
0.858459 0.994812 0.627197
0.991089 0.994812 0.703064
0.159332 0.061279 0.671753
0.276917 0.058289 0.801270
0.544861 0.057220 0.816650
0.777161 0.054626 0.829407
0.902832 0.087646 0.797516
0.997620 0.167847 0.796417
0.151917 0.201752 0.762299
0.263184 0.221832 0.793671
0.522888 0.230591 0.800995
0.742188 0.231873 0.809723
0.904266 0.269104 0.799164
0.997620 0.351410 0.794830
0.151611 0.452332 0.778473
0.244598 0.466644 0.791138
0.491821 0.479248 0.790771
0.713562 0.493835 0.794220
0.886292 0.507996 0.789398
0.997620 0.543121 0.790161
0.151489 0.650818 0.783661
0.242523 0.660248 0.788239
0.482025 0.665131 0.785583
0.680237 0.675201 0.779266
0.868195 0.691742 0.776672
0.997620 0.708618 0.780884
0.151428 0.839294 0.809998
0.241150 0.845551 0.806061
0.476746 0.845154 0.795837
0.674652 0.848938 0.780914
0.849731 0.862488 0.766357
0.997620 0.884247 0.784576
0.151245 0.970306 0.812225
0.239624 0.977325 0.806335
0.472870 0.978394 0.795807
0.670563 0.983490 0.779785
0.838226 0.994171 0.758606
0.993378 0.994812 0.817505
0.159698 0.061646 0.770721
0.276001 0.057831 0.898712
0.544220 0.057312 0.905151
0.761078 0.061005 0.904785
0.911255 0.076965 0.898621
0.997620 0.145874 0.888275
0.150757 0.193390 0.855804
0.261627 0.215759 0.893982
0.522919 0.224182 0.898926
0.743835 0.224915 0.903931
0.913239 0.242249 0.902191
0.997620 0.325714 0.890198
0.150269 0.437561 0.875610
0.241241 0.449097 0.893646
0.492004 0.470917 0.894775
0.715637 0.489014 0.898193
0.897583 0.482361 0.900970
0.997620 0.522797 0.891113
0.150085 0.641571 0.884216
0.239105 0.650269 0.893463
0.473572 0.655121 0.893799
0.675140 0.663879 0.894012
0.869781 0.677582 0.895508
0.997620 0.693085 0.891479
0.149933 0.801392 0.889740
0.237122 0.813202 0.893707
0.466339 0.820892 0.893311
0.668549 0.832642 0.892761
0.844421 0.855621 0.891113
0.997620 0.871368 0.892395
0.149933 0.965179 0.903687
0.235443 0.973267 0.903351
0.462280 0.974182 0.900513
0.664551 0.978882 0.897339
0.839172 0.989624 0.893005
0.995575 0.994812 0.900848
0.159973 0.062042 0.860565
0.275909 0.057190 0.962250
0.535675 0.059479 0.962250
0.750122 0.066101 0.962250
0.917938 0.080627 0.962250
0.997620 0.125427 0.950623
0.149719 0.185669 0.934448
0.261627 0.209106 0.956512
0.523376 0.218353 0.962250
0.736359 0.234161 0.962250
0.906464 0.260162 0.962250
0.997620 0.302185 0.952332
0.149475 0.423767 0.944427
0.238617 0.432281 0.955688
0.493927 0.463928 0.957764
0.717468 0.484680 0.962250
0.891235 0.486877 0.962250
0.997620 0.502380 0.954437
0.149384 0.633026 0.949005
0.236450 0.640961 0.955475
0.466949 0.646118 0.956512
0.671112 0.653870 0.959015
0.872009 0.673523 0.962250
0.997620 0.678253 0.956757
0.149261 0.791260 0.951630
0.234589 0.803009 0.955383
0.459961 0.811554 0.955872
0.664551 0.822662 0.957489
0.840271 0.845764 0.960419
0.997620 0.858124 0.959747
0.149261 0.919952 0.953003
0.232452 0.932892 0.955414
0.454468 0.942657 0.955597
0.659760 0.955841 0.956665
0.834503 0.976563 0.959259
0.997620 0.994812 0.962250
