Color Lookup Presets Effects/z1 (57).CUBE
#Created by: Adobe Photoshop Export Color Lookup Plugin
#Copyright: (C) Copyright 2014 www.zafizack.com
TITLE "BlueVania"
#LUT size
LUT_3D_SIZE 6
#data domain
DOMAIN_MIN 0.0 0.0 0.0
DOMAIN_MAX 1.0 1.0 1.0
#LUT data points
0.000000 0.000000 0.000000
0.312012 0.142548 0.117981
0.566986 0.279175 0.248840
0.766052 0.411133 0.393158
0.909515 0.540710 0.550018
1.000000 0.663879 0.712067
0.000000 0.163391 0.200012
0.200012 0.200012 0.200012
0.490051 0.309509 0.290375
0.715363 0.417297 0.392181
0.884583 0.525848 0.507538
1.000000 0.634583 0.633759
0.000000 0.326752 0.399994
0.133331 0.365723 0.410431
0.399994 0.399994 0.399994
0.664093 0.489441 0.465820
0.859802 0.572937 0.538330
1.000000 0.656342 0.623169
0.000000 0.490143 0.600006
0.123230 0.526794 0.606232
0.317108 0.565643 0.614868
0.600006 0.600006 0.600006
0.834167 0.668823 0.641510
1.000000 0.727905 0.685425
0.000000 0.653503 0.799988
0.119812 0.688232 0.802673
0.292816 0.723450 0.808350
0.529297 0.763062 0.811584
0.799988 0.799988 0.799988
1.000000 0.846283 0.816315
0.000000 0.816895 1.000000
0.118256 0.850128 1.000000
0.281921 0.880707 1.000000
0.495544 0.914368 1.000000
0.756714 0.956635 1.000000
1.000000 1.000000 1.000000
0.000000 0.000000 0.000000
0.312012 0.142548 0.117981
0.566986 0.279175 0.248840
0.766052 0.411133 0.393158
0.909515 0.540710 0.550018
1.000000 0.663879 0.712067
0.000000 0.163391 0.200012
0.200012 0.200012 0.200012
0.490051 0.309509 0.290375
0.715363 0.417297 0.392181
0.884583 0.525848 0.507538
1.000000 0.634583 0.633759
0.000000 0.326752 0.399994
0.133331 0.365723 0.410431
0.399994 0.399994 0.399994
0.664093 0.489441 0.465820
0.859802 0.572937 0.538330
1.000000 0.656342 0.623169
0.000000 0.490143 0.600006
0.123230 0.526794 0.606232
0.317108 0.565643 0.614868
0.600006 0.600006 0.600006
0.834167 0.668823 0.641510
1.000000 0.727905 0.685425
0.000000 0.653503 0.799988
0.119812 0.688232 0.802673
0.292816 0.723450 0.808350
0.529297 0.763062 0.811584
0.799988 0.799988 0.799988
1.000000 0.846283 0.816315
0.000000 0.816895 1.000000
0.118256 0.850128 1.000000
0.281921 0.880707 1.000000
0.495544 0.914368 1.000000
0.756714 0.956635 1.000000
1.000000 1.000000 1.000000
0.000000 0.000000 0.000000
0.312012 0.142548 0.117981
0.566986 0.279175 0.248840
0.766052 0.411133 0.393158
0.909515 0.540710 0.550018
1.000000 0.663879 0.712067
0.000000 0.163391 0.200012
0.200012 0.200012 0.200012
0.490051 0.309509 0.290375
0.715363 0.417297 0.392181
0.884583 0.525848 0.507538
1.000000 0.634583 0.633759
0.000000 0.326752 0.399994
0.133331 0.365723 0.410431
0.399994 0.399994 0.399994
0.664093 0.489441 0.465820
0.859802 0.572937 0.538330
1.000000 0.656342 0.623169
0.000000 0.490143 0.600006
0.123230 0.526794 0.606232
0.317108 0.565643 0.614868
0.600006 0.600006 0.600006
0.834167 0.668823 0.641510
1.000000 0.727905 0.685425
0.000000 0.653503 0.799988
0.119812 0.688232 0.802673
0.292816 0.723450 0.808350
0.529297 0.763062 0.811584
0.799988 0.799988 0.799988
1.000000 0.846283 0.816315
0.000000 0.816895 1.000000
0.118256 0.850128 1.000000
0.281921 0.880707 1.000000
0.495544 0.914368 1.000000
0.756714 0.956635 1.000000
1.000000 1.000000 1.000000
0.000000 0.000000 0.000000
0.312012 0.142548 0.117981
0.566986 0.279175 0.248840
0.766052 0.411133 0.393158
0.909515 0.540710 0.550018
1.000000 0.663879 0.712067
0.000000 0.163391 0.200012
0.200012 0.200012 0.200012
0.490051 0.309509 0.290375
0.715363 0.417297 0.392181
0.884583 0.525848 0.507538
1.000000 0.634583 0.633759
0.000000 0.326752 0.399994
0.133331 0.365723 0.410431
0.399994 0.399994 0.399994
0.664093 0.489441 0.465820
0.859802 0.572937 0.538330
1.000000 0.656342 0.623169
0.000000 0.490143 0.600006
0.123230 0.526794 0.606232
0.317108 0.565643 0.614868
0.600006 0.600006 0.600006
0.834167 0.668823 0.641510
1.000000 0.727905 0.685425
0.000000 0.653503 0.799988
0.119812 0.688232 0.802673
0.292816 0.723450 0.808350
0.529297 0.763062 0.811584
0.799988 0.799988 0.799988
1.000000 0.846283 0.816315
0.000000 0.816895 1.000000
0.118256 0.850128 1.000000
0.281921 0.880707 1.000000
0.495544 0.914368 1.000000
0.756714 0.956635 1.000000
1.000000 1.000000 1.000000
0.000000 0.000000 0.000000
0.312012 0.142548 0.117981
0.566986 0.279175 0.248840
0.766052 0.411133 0.393158
0.909515 0.540710 0.550018
1.000000 0.663879 0.712067
0.000000 0.163391 0.200012
0.200012 0.200012 0.200012
0.490051 0.309509 0.290375
0.715363 0.417297 0.392181
0.884583 0.525848 0.507538
1.000000 0.634583 0.633759
0.000000 0.326752 0.399994
0.133331 0.365723 0.410431
0.399994 0.399994 0.399994
0.664093 0.489441 0.465820
0.859802 0.572937 0.538330
1.000000 0.656342 0.623169
0.000000 0.490143 0.600006
0.123230 0.526794 0.606232
0.317108 0.565643 0.614868
0.600006 0.600006 0.600006
0.834167 0.668823 0.641510
1.000000 0.727905 0.685425
0.000000 0.653503 0.799988
0.119812 0.688232 0.802673
0.292816 0.723450 0.808350
0.529297 0.763062 0.811584
0.799988 0.799988 0.799988
1.000000 0.846283 0.816315
0.000000 0.816895 1.000000
0.118256 0.850128 1.000000
0.281921 0.880707 1.000000
0.495544 0.914368 1.000000
0.756714 0.956635 1.000000
1.000000 1.000000 1.000000
0.000000 0.000000 0.000000
0.312012 0.142548 0.117981
0.566986 0.279175 0.248840
0.766052 0.411133 0.393158
0.909515 0.540710 0.550018
1.000000 0.663879 0.712067
0.000000 0.163391 0.200012
0.200012 0.200012 0.200012
0.490051 0.309509 0.290375
0.715363 0.417297 0.392181
0.884583 0.525848 0.507538
1.000000 0.634583 0.633759
0.000000 0.326752 0.399994
0.133331 0.365723 0.410431
0.399994 0.399994 0.399994
0.664093 0.489441 0.465820
0.859802 0.572937 0.538330
1.000000 0.656342 0.623169
0.000000 0.490143 0.600006
0.123230 0.526794 0.606232
0.317108 0.565643 0.614868
0.600006 0.600006 0.600006
0.834167 0.668823 0.641510
1.000000 0.727905 0.685425
0.000000 0.653503 0.799988
0.119812 0.688232 0.802673
0.292816 0.723450 0.808350
0.529297 0.763062 0.811584
0.799988 0.799988 0.799988
1.000000 0.846283 0.816315
0.000000 0.816895 1.000000
0.118256 0.850128 1.000000
0.281921 0.880707 1.000000
0.495544 0.914368 1.000000
0.756714 0.956635 1.000000
1.000000 1.000000 1.000000
