Color Lookup Presets Effects/z1 (90).CUBE
#Created by: Adobe Photoshop Export Color Lookup Plugin
#Copyright: (C) Copyright 2015 www.zafizack.com
TITLE "zafizack-VG-16"
#LUT size
LUT_3D_SIZE 6
#data domain
DOMAIN_MIN 0.0 0.0 0.0
DOMAIN_MAX 1.0 1.0 1.0
#LUT data points
0.000000 0.000000 0.000000
0.200012 0.000000 0.000000
0.399994 0.000000 0.000000
0.600006 0.000000 0.000000
0.799988 0.000000 0.000000
1.000000 0.000000 0.000000
0.328003 0.134399 0.000000
0.360016 0.160004 0.000000
0.519989 0.160004 0.000000
0.680023 0.160004 0.000000
0.839996 0.160004 0.000000
1.000000 0.160004 0.000000
0.543976 0.182404 0.000000
0.564789 0.217590 0.000000
0.639984 0.273468 0.000000
0.760010 0.273468 0.000000
0.880005 0.273468 0.000000
1.000000 0.273468 0.000000
0.764832 0.284332 0.000000
0.747864 0.343231 0.000000
0.777924 0.404236 0.000000
0.839996 0.473480 0.000000
0.919983 0.473480 0.000000
1.000000 0.473480 0.000000
0.934937 0.558960 0.000000
0.905914 0.594604 0.000000
0.905426 0.628693 0.000000
0.925964 0.669647 0.000000
0.959991 0.715637 0.000000
1.000000 0.715637 0.000000
1.000000 1.000000 0.000000
1.000000 1.000000 0.000000
1.000000 1.000000 0.000000
1.000000 1.000000 0.000000
1.000000 1.000000 0.000000
1.000000 1.000000 0.000000
0.000000 0.000000 0.200012
0.200012 0.000000 0.200012
0.399994 0.000000 0.200012
0.600006 0.000000 0.200012
0.799988 0.000000 0.200012
1.000000 0.000000 0.200012
0.000000 0.200012 0.200012
0.200012 0.200012 0.200012
0.399994 0.200012 0.200012
0.600006 0.200012 0.200012
0.799988 0.200012 0.200012
1.000000 0.200012 0.200012
0.327972 0.268799 0.134399
0.462402 0.268799 0.134399
0.519989 0.336731 0.160004
0.679993 0.336731 0.160004
0.839996 0.336731 0.160004
1.000000 0.336731 0.160004
0.612823 0.366425 0.077423
0.690247 0.376465 0.077423
0.701111 0.443237 0.099640
0.760010 0.515656 0.119995
0.880005 0.515656 0.119995
1.000000 0.515656 0.119995
0.850372 0.600983 0.029938
0.880310 0.607025 0.029938
0.862244 0.645325 0.045929
0.874756 0.689178 0.062622
0.919983 0.736725 0.080017
1.000000 0.736725 0.080017
0.992004 1.000000 0.001587
0.993591 1.000000 0.001587
0.980804 1.000000 0.006409
0.971191 1.000000 0.014404
0.974396 1.000000 0.025604
1.000000 1.000000 0.040009
0.000000 0.000000 0.399994
0.200012 0.000000 0.399994
0.399994 0.000000 0.399994
0.600006 0.000000 0.399994
0.799988 0.000000 0.399994
1.000000 0.000000 0.399994
0.000000 0.200012 0.399994
0.200012 0.200012 0.399994
0.399994 0.200012 0.399994
0.600006 0.200012 0.399994
0.799988 0.200012 0.399994
1.000000 0.200012 0.399994
0.000000 0.399994 0.399994
0.200012 0.399994 0.399994
0.399994 0.399994 0.399994
0.600006 0.399994 0.399994
0.799988 0.399994 0.399994
1.000000 0.399994 0.399994
0.373901 0.458588 0.250427
0.499146 0.463318 0.250427
0.624329 0.482269 0.250427
0.680023 0.557831 0.326324
0.839996 0.557831 0.326324
1.000000 0.557831 0.326324
0.698395 0.645782 0.120636
0.758728 0.653870 0.120636
0.819031 0.661926 0.120636
0.823547 0.708679 0.176453
0.880005 0.757813 0.252655
1.000000 0.757813 0.252655
0.936005 1.000000 0.025604
0.948792 1.000000 0.025604
0.961609 1.000000 0.025604
0.942413 1.000000 0.057587
0.948792 1.000000 0.102386
1.000000 1.000000 0.179016
0.000000 0.000000 0.600006
0.200012 0.000000 0.600006
0.399994 0.000000 0.600006
0.600006 0.000000 0.600006
0.799988 0.000000 0.600006
1.000000 0.000000 0.600006
0.000000 0.200012 0.600006
0.200012 0.200012 0.600006
0.399994 0.200012 0.600006
0.600006 0.200012 0.600006
0.799988 0.200012 0.600006
1.000000 0.200012 0.600006
0.000000 0.399994 0.600006
0.200012 0.399994 0.600006
0.399994 0.399994 0.600006
0.600006 0.399994 0.600006
0.799988 0.399994 0.600006
1.000000 0.399994 0.600006
0.000000 0.600006 0.600006
0.200012 0.600006 0.600006
0.399994 0.600006 0.600006
0.600006 0.600006 0.600006
0.799988 0.600006 0.600006
1.000000 0.600006 0.600006
0.385010 0.726746 0.453552
0.508026 0.726746 0.453552
0.631012 0.726746 0.453552
0.753998 0.735199 0.464722
0.839996 0.778900 0.550903
1.000000 0.778900 0.550903
0.715179 1.000000 0.258575
0.772125 1.000000 0.262604
0.829102 1.000000 0.273285
0.886078 1.000000 0.283966
0.914032 1.000000 0.393433
1.000000 1.000000 0.501801
0.000000 0.000000 0.799988
0.200012 0.000000 0.799988
0.399994 0.000000 0.799988
0.600006 0.000000 0.799988
0.799988 0.000000 0.799988
1.000000 0.000000 0.799988
0.000000 0.200012 0.799988
0.200012 0.200012 0.799988
0.399994 0.200012 0.799988
0.600006 0.200012 0.799988
0.799988 0.200012 0.799988
1.000000 0.200012 0.799988
0.000000 0.399994 0.799988
0.200012 0.399994 0.799988
0.399994 0.399994 0.799988
0.600006 0.399994 0.799988
0.799988 0.399994 0.799988
1.000000 0.399994 0.799988
0.000000 0.600006 0.799988
0.200012 0.600006 0.799988
0.399994 0.600006 0.799988
0.600006 0.600006 0.799988
0.799988 0.600006 0.799988
1.000000 0.600006 0.799988
0.000000 0.799988 0.799988
0.200012 0.799988 0.799988
0.399994 0.799988 0.799988
0.600006 0.799988 0.799988
0.799988 0.799988 0.799988
1.000000 0.799988 0.799988
0.385101 1.000000 0.726715
0.508087 1.000000 0.726715
0.631042 1.000000 0.726715
0.754059 1.000000 0.726715
0.877014 1.000000 0.729523
1.000000 1.000000 0.775421
0.000000 0.000000 1.000000
0.200012 0.000000 1.000000
0.399994 0.000000 1.000000
0.600006 0.000000 1.000000
0.799988 0.000000 1.000000
1.000000 0.000000 1.000000
0.000000 0.200012 1.000000
0.200012 0.200012 1.000000
0.399994 0.200012 1.000000
0.600006 0.200012 1.000000
0.799988 0.200012 1.000000
1.000000 0.200012 1.000000
0.000000 0.399994 1.000000
0.200012 0.399994 1.000000
0.399994 0.399994 1.000000
0.600006 0.399994 1.000000
0.799988 0.399994 1.000000
1.000000 0.399994 1.000000
0.000000 0.600006 1.000000
0.200012 0.600006 1.000000
0.399994 0.600006 1.000000
0.600006 0.600006 1.000000
0.799988 0.600006 1.000000
1.000000 0.600006 1.000000
0.000000 0.799988 1.000000
0.200012 0.799988 1.000000
0.399994 0.799988 1.000000
0.600006 0.799988 1.000000
0.799988 0.799988 1.000000
1.000000 0.799988 1.000000
0.000000 1.000000 1.000000
0.200012 1.000000 1.000000
0.399994 1.000000 1.000000
0.600006 1.000000 1.000000
0.799988 1.000000 1.000000
1.000000 1.000000 1.000000
