Color Lookup Presets Effects/z1 (97).CUBE
#Created by: Adobe Photoshop Export Color Lookup Plugin
#Copyright: (C) Copyright 2014 www.zafizack.com
TITLE "Esile Color Lookup"
#LUT size
LUT_3D_SIZE 6
#data domain
DOMAIN_MIN 0.0 0.0 0.0
DOMAIN_MAX 1.0 1.0 1.0
#LUT data points
0.000000 0.000000 0.017639
0.072266 0.000000 0.030731
0.299042 0.010681 0.063568
0.589203 0.030792 0.063934
0.824249 0.049988 0.062317
1.000000 0.071686 0.066620
0.000000 0.031891 0.018677
0.101196 0.055023 0.055573
0.329773 0.101349 0.096649
0.609955 0.121155 0.094788
0.832642 0.135590 0.087006
1.000000 0.153137 0.086029
0.000000 0.243530 0.042938
0.142914 0.172394 0.088440
0.408630 0.184723 0.145386
0.656830 0.205139 0.140808
0.850952 0.218384 0.127014
1.000000 0.233124 0.119110
0.000000 0.587189 0.066681
0.158508 0.511292 0.119781
0.464691 0.429932 0.180878
0.706299 0.417236 0.202332
0.870789 0.431213 0.181885
1.000000 0.444305 0.166260
0.000000 0.836151 0.058350
0.181122 0.814575 0.103119
0.489136 0.786255 0.151855
0.732452 0.762115 0.211426
0.891388 0.756439 0.252380
1.000000 0.763367 0.228943
0.000000 1.000000 0.062225
0.206482 1.000000 0.096527
0.517975 1.000000 0.138977
0.753571 1.000000 0.188782
0.904755 1.000000 0.245300
1.000000 1.000000 0.308167
0.000000 0.000000 0.238251
0.056183 0.000000 0.149536
0.287354 0.000305 0.173218
0.581177 0.020355 0.169617
0.821198 0.040100 0.160126
1.000000 0.063812 0.156982
0.000000 0.036499 0.207764
0.067688 0.063507 0.192474
0.294342 0.105957 0.220734
0.585785 0.129150 0.220154
0.823029 0.147675 0.209686
1.000000 0.169006 0.204071
0.000000 0.243530 0.188568
0.088684 0.264771 0.230469
0.321594 0.292877 0.287354
0.600189 0.325653 0.290894
0.828491 0.346924 0.279358
1.000000 0.366150 0.268494
0.000000 0.587189 0.220551
0.106384 0.599152 0.272949
0.377991 0.533173 0.329041
0.653290 0.526184 0.355713
0.849030 0.546753 0.340790
1.000000 0.563263 0.325928
0.000000 0.836151 0.197601
0.129761 0.839569 0.253448
0.414001 0.818359 0.312256
0.683868 0.792847 0.368134
0.870544 0.791290 0.412323
1.000000 0.801514 0.393738
0.000000 1.000000 0.183594
0.157501 1.000000 0.238586
0.446350 1.000000 0.293549
0.714905 1.000000 0.351074
0.888672 1.000000 0.410400
1.000000 1.000000 0.471191
0.000000 0.000000 0.524292
0.030884 0.000000 0.433044
0.272278 0.000000 0.361359
0.574280 0.012054 0.344055
0.818573 0.032288 0.331085
1.000000 0.056641 0.322876
0.000000 0.043396 0.496460
0.045563 0.072235 0.481354
0.283112 0.098389 0.405304
0.579041 0.117035 0.390869
0.820435 0.135590 0.380280
1.000000 0.157227 0.372101
0.000000 0.239960 0.460052
0.072327 0.271576 0.500885
0.303680 0.313080 0.466949
0.584442 0.337158 0.453979
0.821991 0.362762 0.450500
1.000000 0.387512 0.445984
0.000000 0.587128 0.428802
0.106384 0.599152 0.469849
0.331940 0.612671 0.505127
0.610657 0.608765 0.523132
0.830048 0.632996 0.522369
1.000000 0.654083 0.520203
0.000000 0.836151 0.403839
0.129761 0.839569 0.454254
0.365906 0.841827 0.498596
0.650543 0.821686 0.543213
0.852509 0.818024 0.575134
1.000000 0.831879 0.571503
0.000000 1.000000 0.383270
0.157501 1.000000 0.437927
0.401917 1.000000 0.491089
0.684784 1.000000 0.540161
0.875854 1.000000 0.582977
1.000000 1.000000 0.622437
0.000000 0.002502 0.705292
0.015533 0.002197 0.655945
0.233459 0.002258 0.614075
0.565582 0.004272 0.574860
0.816071 0.025360 0.565918
1.000000 0.050385 0.560638
0.000000 0.032288 0.690002
0.027832 0.055115 0.682709
0.248169 0.078705 0.641083
0.570435 0.103943 0.600983
0.818024 0.124603 0.596588
1.000000 0.146545 0.593475
0.000000 0.203705 0.670441
0.051910 0.235168 0.693176
0.273163 0.279846 0.672974
0.578491 0.322449 0.633942
0.819519 0.348206 0.635559
1.000000 0.372803 0.637695
0.000000 0.565277 0.648315
0.091858 0.585327 0.670105
0.314758 0.603882 0.686401
0.596893 0.623383 0.666107
0.822815 0.646637 0.669739
1.000000 0.671112 0.678650
0.000000 0.836151 0.630798
0.129761 0.839569 0.656128
0.365906 0.841827 0.676483
0.626740 0.839569 0.670898
0.838074 0.834503 0.687622
1.000000 0.850952 0.696564
0.000000 1.000000 0.619659
0.157501 1.000000 0.651184
0.401917 1.000000 0.679749
0.663452 1.000000 0.681549
0.865387 1.000000 0.703156
1.000000 1.000000 0.725891
0.000000 0.010742 0.848328
0.006958 0.011597 0.827911
0.200531 0.012299 0.810944
0.539246 0.013214 0.795044
0.813293 0.019196 0.781097
1.000000 0.044922 0.781342
0.000000 0.027527 0.841888
0.016144 0.044037 0.839142
0.214783 0.064178 0.822113
0.549194 0.086151 0.806061
0.815277 0.113739 0.792145
1.000000 0.136780 0.794525
0.000000 0.174103 0.833740
0.036682 0.201355 0.843475
0.241547 0.245209 0.834869
0.564026 0.287079 0.818726
0.816803 0.333160 0.804993
1.000000 0.358948 0.812653
0.000000 0.533722 0.824677
0.072021 0.558441 0.833923
0.283966 0.583405 0.839813
0.586121 0.608612 0.829346
0.820038 0.637604 0.816162
1.000000 0.663239 0.830170
0.000000 0.832336 0.814911
0.118591 0.837067 0.823425
0.351349 0.840851 0.829437
0.620239 0.838745 0.824036
0.830780 0.844086 0.820099
1.000000 0.861938 0.835968
0.000000 1.000000 0.812408
0.157501 1.000000 0.825348
0.401917 1.000000 0.837311
0.663849 1.000000 0.838165
0.856995 1.000000 0.836212
1.000000 1.000000 0.845337
0.000000 0.022308 0.964996
0.004456 0.024994 0.964996
0.174561 0.027161 0.964966
0.515442 0.029297 0.964966
0.805634 0.031525 0.964966
1.000000 0.040039 0.966034
0.000000 0.029083 0.964966
0.010498 0.041443 0.964935
0.186432 0.058533 0.964905
0.526001 0.077606 0.964844
0.809387 0.098785 0.964783
1.000000 0.127625 0.966217
0.000000 0.153442 0.964935
0.027313 0.174896 0.964813
0.211884 0.215637 0.964539
0.544586 0.255219 0.964386
0.815308 0.296539 0.964325
1.000000 0.345734 0.966675
0.000000 0.504181 0.964935
0.057831 0.529510 0.964752
0.253571 0.559113 0.964172
0.573639 0.591919 0.963745
0.823944 0.622162 0.963654
1.000000 0.655579 0.967560
0.000000 0.825348 0.964935
0.099396 0.832489 0.964600
0.320038 0.839813 0.964050
0.612152 0.841980 0.963531
0.835663 0.846466 0.963562
1.000000 0.859650 0.968536
0.000000 1.000000 0.966064
0.157501 1.000000 0.966431
0.401978 1.000000 0.967102
0.663849 1.000000 0.967987
0.857880 1.000000 0.968903
1.000000 1.000000 0.969452
