Color Lookup Presets Effects/z1 (58).CUBE
#Created by: Adobe Photoshop Export Color Lookup Plugin
#Copyright: (C) Copyright 2014 www.zafizack.com
TITLE "Blue Zania"
#LUT size
LUT_3D_SIZE 16
#data domain
DOMAIN_MIN 0.0 0.0 0.0
DOMAIN_MAX 1.0 1.0 1.0
#LUT data points
0.000000 0.000000 0.000000
0.125122 0.075256 0.059784
0.245819 0.126129 0.091492
0.353821 0.172638 0.128571
0.449371 0.218170 0.174469
0.535767 0.259430 0.221161
0.613312 0.297638 0.268951
0.682678 0.346344 0.317719
0.744324 0.408173 0.367554
0.798767 0.470154 0.418549
0.846405 0.531494 0.470490
0.887909 0.591614 0.523254
0.923584 0.649414 0.575867
0.953949 0.704224 0.627930
0.979309 0.755493 0.678925
1.000000 0.803131 0.728668
0.000000 0.035614 0.054535
0.065643 0.071228 0.074036
0.191864 0.138489 0.124451
0.311279 0.180573 0.150085
0.412903 0.224701 0.189545
0.504364 0.264771 0.231110
0.586517 0.301392 0.274048
0.660034 0.342651 0.318054
0.725372 0.399750 0.363159
0.783264 0.457275 0.409088
0.834106 0.514648 0.455963
0.878448 0.571136 0.503601
0.916779 0.626068 0.551666
0.949524 0.681702 0.603149
0.977173 0.734528 0.654236
1.000000 0.784363 0.705017
0.000000 0.068604 0.104828
0.044037 0.099884 0.126892
0.127289 0.141510 0.148621
0.260254 0.202301 0.189941
0.372620 0.242340 0.219299
0.470734 0.279541 0.253510
0.558136 0.313751 0.290344
0.636261 0.349823 0.328979
0.705627 0.402374 0.369965
0.766998 0.457550 0.413452
0.821045 0.513245 0.458344
0.868408 0.568817 0.504456
0.909485 0.623657 0.551605
0.944824 0.676941 0.599518
0.974884 0.727844 0.647247
1.000000 0.776031 0.694641
0.000000 0.098816 0.151031
0.021790 0.122559 0.171204
0.072174 0.158905 0.197998
0.179138 0.209290 0.223907
0.323730 0.270660 0.262085
0.432404 0.306824 0.290955
0.526794 0.338989 0.322205
0.610260 0.373810 0.356750
0.684174 0.421661 0.393860
0.749695 0.472107 0.432983
0.807281 0.523773 0.473724
0.857941 0.575836 0.515625
0.901947 0.627289 0.558594
0.940002 0.677673 0.602356
0.972595 0.726440 0.646545
1.000000 0.773102 0.691010
0.000000 0.126282 0.193054
0.010651 0.144196 0.210266
0.033905 0.174225 0.235107
0.088776 0.213318 0.265961
0.229614 0.275909 0.297760
0.384705 0.341583 0.336670
0.490784 0.374298 0.365021
0.581665 0.406921 0.394135
0.661224 0.448639 0.425934
0.731262 0.493896 0.460297
0.792938 0.541107 0.496521
0.847015 0.589264 0.534210
0.894196 0.637329 0.572968
0.935059 0.684692 0.612579
0.970184 0.730652 0.652649
1.000000 0.774811 0.693115
0.000000 0.151062 0.230896
0.007263 0.167847 0.247314
0.022552 0.195465 0.271057
0.062317 0.229584 0.300720
0.133270 0.273682 0.337311
0.288300 0.342651 0.371613
0.444946 0.412659 0.410400
0.548340 0.446320 0.438538
0.635529 0.482727 0.466003
0.711334 0.522552 0.495392
0.777527 0.565094 0.526917
0.835480 0.609070 0.560089
0.886078 0.653625 0.594666
0.929901 0.697723 0.630066
0.967743 0.740753 0.666107
1.000000 0.782349 0.702515
0.000000 0.173096 0.267914
0.005859 0.189148 0.288300
0.018738 0.214966 0.315063
0.049408 0.245575 0.345276
0.099915 0.282928 0.378754
0.183014 0.332275 0.415161
0.346802 0.410889 0.446564
0.504944 0.484985 0.483398
0.605133 0.520905 0.511322
0.688751 0.556854 0.537292
0.760620 0.594971 0.564453
0.823120 0.634918 0.593262
0.877411 0.675720 0.623413
0.924530 0.716522 0.654633
0.965179 0.756622 0.686584
1.000000 0.795502 0.718994
0.000000 0.192413 0.319763
0.005249 0.207733 0.339569
0.016174 0.232361 0.364960
0.040741 0.260864 0.393127
0.081573 0.294312 0.423920
0.140991 0.338867 0.457703
0.236633 0.403931 0.493225
0.410004 0.482727 0.521301
0.564545 0.556549 0.555634
0.661530 0.593811 0.583313
0.741272 0.629395 0.607941
0.809387 0.665741 0.632843
0.868011 0.703064 0.658966
0.918732 0.740692 0.686127
0.962463 0.777832 0.714050
1.000000 0.813995 0.742523
0.000000 0.209015 0.373596
0.004700 0.223755 0.392944
0.014252 0.247559 0.417328
0.034424 0.274536 0.443695
0.069305 0.307587 0.472382
0.116852 0.357727 0.503540
0.186096 0.414917 0.537079
0.294373 0.481293 0.571106
0.477875 0.554779 0.595703
0.623840 0.626190 0.627563
0.717621 0.664978 0.654419
0.793365 0.699982 0.677612
0.857483 0.734711 0.700500
0.912445 0.769440 0.723907
0.959564 0.803802 0.747955
1.000000 0.837372 0.772552
0.000000 0.222870 0.429474
0.004181 0.237183 0.448578
0.012604 0.260345 0.471985
0.029602 0.290436 0.496979
0.059937 0.333771 0.523712
0.100220 0.381195 0.552551
0.155609 0.433929 0.583649
0.235748 0.493195 0.616547
0.371674 0.557922 0.648529
0.547943 0.627533 0.669861
0.682251 0.693481 0.699768
0.773560 0.734589 0.724731
0.845093 0.768768 0.746429
0.905243 0.801727 0.767120
0.956390 0.833832 0.787842
1.000000 0.865051 0.808838
0.000000 0.234009 0.487427
0.003662 0.247955 0.506287
0.011108 0.280090 0.528870
0.025757 0.320129 0.552673
0.052155 0.362366 0.577728
0.087646 0.407990 0.604523
0.134369 0.457764 0.633270
0.198669 0.512573 0.663910
0.303741 0.571472 0.695862
0.454803 0.635651 0.724854
0.619812 0.700745 0.743652
0.742981 0.761322 0.771484
0.829559 0.802612 0.794250
0.896759 0.835724 0.814240
0.952698 0.866699 0.832642
1.000000 0.896210 0.850616
0.000000 0.248260 0.547424
0.003235 0.274017 0.566071
0.009766 0.311920 0.588013
0.022522 0.351685 0.610718
0.045502 0.393219 0.634308
0.077301 0.437439 0.659210
0.118103 0.485077 0.685730
0.172241 0.536804 0.714020
0.256226 0.591858 0.744080
0.387451 0.650299 0.774139
0.541840 0.713928 0.800018
0.693146 0.774170 0.817017
0.805115 0.829346 0.842529
0.885864 0.869293 0.863037
0.948273 0.900970 0.881073
1.000000 0.929901 0.897156
0.000000 0.281372 0.609406
0.002747 0.307495 0.627960
0.008392 0.345490 0.649292
0.019714 0.385010 0.670990
0.039581 0.425995 0.693207
0.068512 0.469208 0.716461
0.104767 0.515259 0.740936
0.151886 0.564636 0.766907
0.220398 0.616913 0.794464
0.337219 0.670837 0.823364
0.478699 0.730103 0.850525
0.631317 0.792297 0.873688
0.767456 0.847534 0.889771
0.868683 0.897369 0.912842
0.942596 0.934723 0.931213
1.000000 0.964630 0.947021
0.000000 0.316254 0.673523
0.002258 0.342712 0.691925
0.007050 0.380798 0.712646
0.017273 0.420166 0.733521
0.034149 0.460724 0.754547
0.060577 0.503082 0.776215
0.093414 0.547852 0.798767
0.135193 0.595337 0.822479
0.191742 0.645660 0.847504
0.298035 0.695862 0.874207
0.428131 0.750793 0.900391
0.575500 0.810425 0.924774
0.721100 0.869965 0.945862
0.842377 0.920654 0.961853
0.933014 0.965210 0.982422
1.000000 0.999237 0.998840
0.000000 0.352875 0.739655
0.001770 0.379608 0.757904
0.005768 0.417816 0.778076
0.015045 0.457031 0.798157
0.029480 0.497253 0.818115
0.053192 0.538910 0.838257
0.083282 0.582581 0.859039
0.120941 0.628632 0.880646
0.169220 0.677094 0.903198
0.266357 0.724487 0.927246
0.387054 0.775421 0.951294
0.527527 0.831268 0.974640
0.674866 0.890198 0.996613
0.815521 0.937225 1.000000
0.924042 0.973663 1.000000
1.000000 1.000000 1.000000
0.000000 0.391266 0.807831
0.001282 0.418304 0.825958
0.004486 0.456604 0.845673
0.013000 0.495667 0.864990
0.025360 0.535553 0.883850
0.046387 0.576630 0.902618
0.074097 0.619385 0.921722
0.108398 0.664124 0.941284
0.151733 0.710938 0.961578
0.239899 0.756134 0.982727
0.354095 0.800995 1.000000
0.495239 0.840027 1.000000
0.649475 0.884857 1.000000
0.796814 0.931061 1.000000
0.916290 0.971008 1.000000
1.000000 1.000000 1.000000
0.000000 0.000000 0.000000
0.125122 0.075256 0.059784
0.245819 0.126129 0.091492
0.353821 0.172638 0.128571
0.449371 0.218170 0.174469
0.535767 0.259430 0.221161
0.613312 0.297638 0.268951
0.682678 0.346344 0.317719
0.744324 0.408173 0.367554
0.798767 0.470154 0.418549
0.846405 0.531494 0.470490
0.887909 0.591614 0.523254
0.923584 0.649414 0.575867
0.953949 0.704224 0.627930
0.979309 0.755493 0.678925
1.000000 0.803131 0.728668
0.000000 0.035614 0.054535
0.065643 0.071228 0.074036
0.191864 0.138489 0.124451
0.311279 0.180573 0.150085
0.412903 0.224701 0.189545
0.504364 0.264771 0.231110
0.586517 0.301392 0.274048
0.660034 0.342651 0.318054
0.725372 0.399750 0.363159
0.783264 0.457275 0.409088
0.834106 0.514648 0.455963
0.878448 0.571136 0.503601
0.916779 0.626068 0.551666
0.949524 0.681702 0.603149
0.977173 0.734528 0.654236
1.000000 0.784363 0.705017
0.000000 0.068604 0.104828
0.044037 0.099884 0.126892
0.127289 0.141510 0.148621
0.260254 0.202301 0.189941
0.372620 0.242340 0.219299
0.470734 0.279541 0.253510
0.558136 0.313751 0.290344
0.636261 0.349823 0.328979
0.705627 0.402374 0.369965
0.766998 0.457550 0.413452
0.821045 0.513245 0.458344
0.868408 0.568817 0.504456
0.909485 0.623657 0.551605
0.944824 0.676941 0.599518
0.974884 0.727844 0.647247
1.000000 0.776031 0.694641
0.000000 0.098816 0.151031
0.021790 0.122559 0.171204
0.072174 0.158905 0.197998
0.179138 0.209290 0.223907
0.323730 0.270660 0.262085
0.432404 0.306824 0.290955
0.526794 0.338989 0.322205
0.610260 0.373810 0.356750
0.684174 0.421661 0.393860
0.749695 0.472107 0.432983
0.807281 0.523773 0.473724
0.857941 0.575836 0.515625
0.901947 0.627289 0.558594
0.940002 0.677673 0.602356
0.972595 0.726440 0.646545
1.000000 0.773102 0.691010
0.000000 0.126282 0.193054
0.010651 0.144196 0.210266
0.033905 0.174225 0.235107
0.088776 0.213318 0.265961
0.229614 0.275909 0.297760
0.384705 0.341583 0.336670
0.490784 0.374298 0.365021
0.581665 0.406921 0.394135
0.661224 0.448639 0.425934
0.731262 0.493896 0.460297
0.792938 0.541107 0.496521
0.847015 0.589264 0.534210
0.894196 0.637329 0.572968
0.935059 0.684692 0.612579
0.970184 0.730652 0.652649
1.000000 0.774811 0.693115
0.000000 0.151062 0.230896
0.007263 0.167847 0.247314
0.022552 0.195465 0.271057
0.062317 0.229584 0.300720
0.133270 0.273682 0.337311
0.288300 0.342651 0.371613
0.444946 0.412659 0.410400
0.548340 0.446320 0.438538
0.635529 0.482727 0.466003
0.711334 0.522552 0.495392
0.777527 0.565094 0.526917
0.835480 0.609070 0.560089
0.886078 0.653625 0.594666
0.929901 0.697723 0.630066
0.967743 0.740753 0.666107
1.000000 0.782349 0.702515
0.000000 0.173096 0.267914
0.005859 0.189148 0.288300
0.018738 0.214966 0.315063
0.049408 0.245575 0.345276
0.099915 0.282928 0.378754
0.183014 0.332275 0.415161
0.346802 0.410889 0.446564
0.504944 0.484985 0.483398
0.605133 0.520905 0.511322
0.688751 0.556854 0.537292
0.760620 0.594971 0.564453
0.823120 0.634918 0.593262
0.877411 0.675720 0.623413
0.924530 0.716522 0.654633
0.965179 0.756622 0.686584
1.000000 0.795502 0.718994
0.000000 0.192413 0.319763
0.005249 0.207733 0.339569
0.016174 0.232361 0.364960
0.040741 0.260864 0.393127
0.081573 0.294312 0.423920
0.140991 0.338867 0.457703
0.236633 0.403931 0.493225
0.410034 0.482758 0.521332
0.564545 0.556549 0.555634
0.661530 0.593811 0.583313
0.741272 0.629395 0.607941
0.809387 0.665741 0.632843
0.868011 0.703064 0.658966
0.918732 0.740692 0.686127
0.962463 0.777832 0.714050
1.000000 0.813995 0.742523
0.000000 0.209015 0.373596
0.004700 0.223755 0.392944
0.014252 0.247559 0.417328
0.034424 0.274536 0.443695
0.069305 0.307587 0.472382
0.116852 0.357727 0.503540
0.186096 0.414917 0.537079
0.294373 0.481293 0.571106
0.477875 0.554779 0.595703
0.623840 0.626190 0.627563
0.717621 0.664978 0.654419
0.793365 0.699982 0.677612
0.857483 0.734711 0.700500
0.912445 0.769440 0.723907
0.959564 0.803802 0.747955
1.000000 0.837372 0.772552
0.000000 0.222870 0.429474
0.004181 0.237183 0.448578
0.012604 0.260345 0.471985
0.029602 0.290436 0.496979
0.059937 0.333771 0.523712
0.100220 0.381195 0.552551
0.155609 0.433929 0.583649
0.235748 0.493195 0.616547
0.371674 0.557922 0.648529
0.547943 0.627533 0.669861
0.682251 0.693481 0.699768
0.773560 0.734589 0.724731
0.845093 0.768768 0.746429
0.905243 0.801727 0.767120
0.956390 0.833832 0.787842
1.000000 0.865051 0.808838
0.000000 0.234009 0.487427
0.003662 0.247955 0.506287
0.011108 0.280090 0.528870
0.025757 0.320129 0.552673
0.052155 0.362366 0.577728
0.087646 0.407990 0.604523
0.134369 0.457764 0.633270
0.198669 0.512573 0.663910
0.303741 0.571472 0.695862
0.454803 0.635651 0.724854
0.619812 0.700745 0.743652
0.742981 0.761322 0.771484
0.829559 0.802612 0.794250
0.896759 0.835724 0.814240
0.952698 0.866699 0.832642
1.000000 0.896210 0.850616
0.000000 0.248260 0.547424
0.003235 0.274017 0.566071
0.009766 0.311920 0.588013
0.022522 0.351685 0.610718
0.045502 0.393219 0.634308
0.077301 0.437439 0.659210
0.118103 0.485077 0.685730
0.172241 0.536804 0.714020
0.256226 0.591858 0.744080
0.387451 0.650299 0.774139
0.541840 0.713928 0.800018
0.693146 0.774170 0.817017
0.805115 0.829346 0.842529
0.885864 0.869293 0.863037
0.948273 0.900970 0.881073
1.000000 0.929901 0.897156
0.000000 0.281372 0.609406
0.002747 0.307495 0.627960
0.008392 0.345490 0.649292
0.019714 0.385010 0.670990
0.039581 0.425995 0.693207
0.068512 0.469208 0.716461
0.104767 0.515259 0.740936
0.151886 0.564636 0.766907
0.220398 0.616913 0.794464
0.337219 0.670837 0.823364
0.478699 0.730103 0.850525
0.631317 0.792297 0.873688
0.767456 0.847534 0.889771
0.868683 0.897369 0.912842
0.942596 0.934723 0.931213
1.000000 0.964630 0.947021
0.000000 0.316254 0.673523
0.002258 0.342712 0.691925
0.007050 0.380798 0.712646
0.017273 0.420166 0.733521
0.034149 0.460724 0.754547
0.060577 0.503082 0.776215
0.093414 0.547852 0.798767
0.135193 0.595337 0.822479
0.191742 0.645660 0.847504
0.298035 0.695862 0.874207
0.428131 0.750793 0.900391
0.575500 0.810425 0.924774
0.721100 0.869965 0.945862
0.842377 0.920654 0.961853
0.933014 0.965210 0.982422
1.000000 0.999237 0.998840
0.000000 0.352875 0.739624
0.001770 0.379608 0.757904
0.005768 0.417816 0.778076
0.015045 0.457031 0.798157
0.029480 0.497253 0.818115
0.053192 0.538910 0.838257
0.083282 0.582581 0.859039
0.120941 0.628632 0.880646
0.169220 0.677094 0.903198
0.266357 0.724487 0.927246
0.387054 0.775421 0.951294
0.527527 0.831268 0.974640
0.674866 0.890198 0.996613
0.815521 0.937225 1.000000
0.924042 0.973663 1.000000
1.000000 1.000000 1.000000
0.000000 0.391266 0.807831
0.001282 0.418304 0.825958
0.004486 0.456604 0.845673
0.013000 0.495667 0.864990
0.025360 0.535553 0.883850
0.046387 0.576630 0.902618
0.074097 0.619385 0.921722
0.108398 0.664124 0.941284
0.151733 0.710938 0.961578
0.239899 0.756134 0.982727
0.354095 0.800995 1.000000
0.495239 0.840027 1.000000
0.649475 0.884857 1.000000
0.796814 0.931061 1.000000
0.916290 0.971008 1.000000
1.000000 1.000000 1.000000
0.000000 0.000000 0.000000
0.125122 0.075256 0.059784
0.245819 0.126129 0.091492
0.353821 0.172638 0.128571
0.449371 0.218170 0.174469
0.535767 0.259430 0.221161
0.613312 0.297638 0.268951
0.682678 0.346344 0.317719
0.744324 0.408173 0.367554
0.798767 0.470154 0.418549
0.846405 0.531494 0.470490
0.887909 0.591614 0.523254
0.923584 0.649414 0.575867
0.953949 0.704224 0.627930
0.979309 0.755493 0.678925
1.000000 0.803131 0.728668
0.000000 0.035614 0.054535
0.065643 0.071228 0.074036
0.191864 0.138489 0.124451
0.311279 0.180573 0.150085
0.412903 0.224701 0.189545
0.504364 0.264771 0.231110
0.586517 0.301392 0.274048
0.660034 0.342651 0.318054
0.725372 0.399750 0.363159
0.783264 0.457275 0.409088
0.834106 0.514648 0.455963
0.878448 0.571136 0.503601
0.916779 0.626068 0.551666
0.949524 0.681702 0.603149
0.977173 0.734528 0.654236
1.000000 0.784363 0.705017
0.000000 0.068604 0.104828
0.044037 0.099884 0.126892
0.127289 0.141510 0.148621
0.260254 0.202301 0.189941
0.372620 0.242340 0.219299
0.470734 0.279541 0.253510
0.558136 0.313751 0.290344
0.636261 0.349823 0.328979
0.705627 0.402374 0.369965
0.766998 0.457550 0.413452
0.821045 0.513245 0.458344
0.868408 0.568817 0.504456
0.909485 0.623657 0.551605
0.944824 0.676941 0.599518
0.974884 0.727844 0.647247
1.000000 0.776031 0.694641
0.000000 0.098816 0.151031
0.021790 0.122559 0.171204
0.072174 0.158905 0.197998
0.179138 0.209290 0.223907
0.323730 0.270660 0.262085
0.432404 0.306824 0.290955
0.526794 0.338989 0.322205
0.610260 0.373810 0.356750
0.684174 0.421661 0.393860
0.749695 0.472107 0.432983
0.807281 0.523773 0.473724
0.857941 0.575836 0.515625
0.901947 0.627289 0.558594
0.940002 0.677673 0.602356
0.972595 0.726440 0.646545
1.000000 0.773102 0.691010
0.000000 0.126282 0.193054
0.010651 0.144196 0.210266
0.033905 0.174225 0.235107
0.088776 0.213318 0.265961
0.229614 0.275909 0.297760
0.384705 0.341583 0.336670
0.490784 0.374298 0.365021
0.581665 0.406921 0.394135
0.661224 0.448639 0.425934
0.731262 0.493896 0.460297
0.792938 0.541107 0.496521
0.847015 0.589264 0.534210
0.894196 0.637329 0.572968
0.935059 0.684692 0.612579
0.970184 0.730652 0.652649
1.000000 0.774811 0.693115
0.000000 0.151062 0.230896
0.007263 0.167847 0.247314
0.022552 0.195465 0.271057
0.062317 0.229584 0.300720
0.133270 0.273682 0.337311
0.288300 0.342651 0.371613
0.444946 0.412659 0.410400
0.548340 0.446320 0.438538
0.635529 0.482727 0.466003
0.711334 0.522552 0.495392
0.777527 0.565094 0.526917
0.835480 0.609070 0.560089
0.886078 0.653625 0.594666
0.929901 0.697723 0.630066
0.967743 0.740753 0.666107
1.000000 0.782349 0.702515
0.000000 0.173096 0.267914
0.005859 0.189148 0.288300
0.018738 0.214966 0.315063
0.049408 0.245575 0.345276
0.099915 0.282928 0.378754
0.183014 0.332275 0.415161
0.346802 0.410889 0.446564
0.504944 0.484985 0.483398
0.605133 0.520905 0.511322
0.688751 0.556854 0.537292
0.760620 0.594971 0.564453
0.823120 0.634918 0.593262
0.877411 0.675720 0.623413
0.924530 0.716522 0.654633
0.965179 0.756622 0.686584
1.000000 0.795502 0.718994
0.000000 0.192413 0.319763
0.005249 0.207733 0.339569
0.016174 0.232361 0.364960
0.040741 0.260864 0.393127
0.081573 0.294312 0.423920
0.140991 0.338867 0.457703
0.236633 0.403931 0.493225
0.410034 0.482758 0.521332
0.564545 0.556549 0.555634
0.661530 0.593811 0.583313
0.741272 0.629395 0.607941
0.809387 0.665741 0.632843
0.868011 0.703064 0.658966
0.918732 0.740692 0.686127
0.962463 0.777832 0.714050
1.000000 0.813995 0.742523
0.000000 0.209015 0.373596
0.004700 0.223755 0.392944
0.014252 0.247559 0.417328
0.034424 0.274536 0.443695
0.069305 0.307587 0.472382
0.116852 0.357727 0.503540
0.186096 0.414917 0.537079
0.294373 0.481293 0.571106
0.477875 0.554779 0.595703
0.623840 0.626190 0.627563
0.717621 0.664978 0.654419
0.793365 0.699982 0.677612
0.857483 0.734711 0.700500
0.912445 0.769440 0.723907
0.959564 0.803802 0.747955
1.000000 0.837372 0.772552
0.000000 0.222870 0.429474
0.004181 0.237183 0.448578
0.012604 0.260345 0.471985
0.029602 0.290436 0.496979
0.059937 0.333771 0.523712
0.100220 0.381195 0.552551
0.155609 0.433929 0.583649
0.235748 0.493195 0.616547
0.371674 0.557922 0.648529
0.547943 0.627533 0.669861
0.682251 0.693481 0.699768
0.773560 0.734589 0.724731
0.845093 0.768768 0.746429
0.905243 0.801727 0.767120
0.956390 0.833832 0.787842
1.000000 0.865051 0.808838
0.000000 0.234009 0.487427
0.003662 0.247955 0.506287
0.011108 0.280090 0.528870
0.025757 0.320129 0.552673
0.052155 0.362366 0.577728
0.087646 0.407990 0.604523
0.134369 0.457764 0.633270
0.198669 0.512573 0.663910
0.303741 0.571472 0.695862
0.454803 0.635651 0.724854
0.619812 0.700745 0.743652
0.742981 0.761322 0.771484
0.829559 0.802612 0.794250
0.896759 0.835724 0.814240
0.952698 0.866699 0.832642
1.000000 0.896210 0.850616
0.000000 0.248260 0.547424
0.003235 0.274017 0.566071
0.009766 0.311920 0.588013
0.022522 0.351685 0.610718
0.045502 0.393219 0.634308
0.077301 0.437439 0.659210
0.118103 0.485077 0.685730
0.172241 0.536804 0.714020
0.256226 0.591858 0.744080
0.387451 0.650299 0.774139
0.541840 0.713928 0.800018
0.693146 0.774170 0.817017
0.805115 0.829346 0.842529
0.885864 0.869293 0.863037
0.948273 0.900970 0.881073
1.000000 0.929901 0.897156
0.000000 0.281372 0.609436
0.002747 0.307495 0.627960
0.008392 0.345490 0.649292
0.019714 0.385010 0.670990
0.039581 0.425995 0.693207
0.068512 0.469208 0.716461
0.104767 0.515259 0.740936
0.151886 0.564636 0.766907
0.220398 0.616913 0.794464
0.337219 0.670837 0.823364
0.478699 0.730103 0.850525
0.631317 0.792297 0.873688
0.767456 0.847473 0.889709
0.868683 0.897369 0.912842
0.942596 0.934723 0.931213
1.000000 0.964630 0.947021
0.000000 0.316254 0.673523
0.002258 0.342712 0.691925
0.007050 0.380798 0.712646
0.017273 0.420166 0.733521
0.034149 0.460724 0.754547
0.060577 0.503082 0.776215
0.093414 0.547852 0.798767
0.135193 0.595337 0.822479
0.191742 0.645660 0.847504
0.298035 0.695862 0.874207
0.428131 0.750793 0.900391
0.575500 0.810425 0.924774
0.721100 0.869965 0.945862
0.842377 0.920654 0.961853
0.933014 0.965210 0.982422
1.000000 0.999237 0.998840
0.000000 0.352875 0.739655
0.001770 0.379608 0.757904
0.005768 0.417816 0.778076
0.015045 0.457031 0.798157
0.029480 0.497253 0.818115
0.053192 0.538910 0.838257
0.083282 0.582581 0.859039
0.120941 0.628632 0.880646
0.169220 0.677094 0.903198
0.266357 0.724487 0.927246
0.387054 0.775421 0.951294
0.527527 0.831268 0.974640
0.674866 0.890198 0.996613
0.815521 0.937225 1.000000
0.924042 0.973663 1.000000
1.000000 1.000000 1.000000
0.000000 0.391266 0.807831
0.001282 0.418304 0.825958
0.004486 0.456604 0.845673
0.013000 0.495667 0.864990
0.025360 0.535553 0.883850
0.046387 0.576630 0.902618
0.074097 0.619385 0.921722
0.108398 0.664124 0.941284
0.151733 0.710938 0.961578
0.239899 0.756134 0.982727
0.354095 0.800995 1.000000
0.495239 0.840027 1.000000
0.649475 0.884857 1.000000
0.796814 0.931061 1.000000
0.916290 0.971008 1.000000
1.000000 1.000000 1.000000
0.000000 0.000000 0.000000
0.125122 0.075256 0.059784
0.245819 0.126129 0.091492
0.353821 0.172638 0.128571
0.449371 0.218170 0.174469
0.535767 0.259430 0.221161
0.613312 0.297638 0.268951
0.682678 0.346344 0.317719
0.744324 0.408173 0.367554
0.798767 0.470154 0.418549
0.846405 0.531494 0.470490
0.887909 0.591614 0.523254
0.923584 0.649414 0.575867
0.953949 0.704224 0.627930
0.979309 0.755493 0.678925
1.000000 0.803131 0.728668
0.000000 0.035614 0.054535
0.065643 0.071228 0.074036
0.191864 0.138489 0.124451
0.311279 0.180573 0.150085
0.412903 0.224701 0.189545
0.504364 0.264771 0.231110
0.586517 0.301392 0.274048
0.660034 0.342651 0.318054
0.725372 0.399750 0.363159
0.783264 0.457275 0.409088
0.834106 0.514648 0.455963
0.878448 0.571136 0.503601
0.916779 0.626068 0.551666
0.949524 0.681702 0.603149
0.977173 0.734528 0.654236
1.000000 0.784363 0.705017
0.000000 0.068604 0.104828
0.044037 0.099884 0.126892
0.127289 0.141510 0.148621
0.260254 0.202301 0.189941
0.372620 0.242340 0.219299
0.470734 0.279541 0.253510
0.558136 0.313751 0.290344
0.636261 0.349823 0.328979
0.705627 0.402374 0.369965
0.766998 0.457550 0.413452
0.821045 0.513245 0.458344
0.868408 0.568817 0.504456
0.909485 0.623657 0.551605
0.944824 0.676941 0.599518
0.974884 0.727844 0.647247
1.000000 0.776031 0.694641
0.000000 0.098816 0.151031
0.021790 0.122559 0.171204
0.072174 0.158905 0.197998
0.179138 0.209290 0.223907
0.323730 0.270660 0.262085
0.432404 0.306824 0.290955
0.526794 0.338989 0.322205
0.610260 0.373810 0.356750
0.684174 0.421661 0.393860
0.749695 0.472107 0.432983
0.807281 0.523773 0.473724
0.857941 0.575836 0.515625
0.901947 0.627289 0.558594
0.940002 0.677673 0.602356
0.972595 0.726440 0.646545
1.000000 0.773102 0.691010
0.000000 0.126282 0.193054
0.010651 0.144196 0.210266
0.033905 0.174225 0.235107
0.088776 0.213318 0.265961
0.229614 0.275909 0.297760
0.384705 0.341583 0.336670
0.490784 0.374298 0.365021
0.581665 0.406921 0.394135
0.661224 0.448639 0.425934
0.731262 0.493896 0.460297
0.792938 0.541107 0.496521
0.847015 0.589264 0.534210
0.894196 0.637329 0.572968
0.935059 0.684692 0.612579
0.970184 0.730652 0.652649
1.000000 0.774811 0.693115
0.000000 0.151062 0.230896
0.007263 0.167847 0.247314
0.022552 0.195465 0.271057
0.062317 0.229584 0.300720
0.133270 0.273682 0.337311
0.288300 0.342651 0.371613
0.444946 0.412659 0.410400
0.548340 0.446320 0.438538
0.635529 0.482727 0.466003
0.711334 0.522552 0.495392
0.777527 0.565094 0.526917
0.835480 0.609070 0.560089
0.886078 0.653625 0.594666
0.929901 0.697723 0.630066
0.967743 0.740753 0.666107
1.000000 0.782349 0.702515
0.000000 0.173096 0.267914
0.005859 0.189148 0.288300
0.018738 0.214966 0.315063
0.049408 0.245575 0.345276
0.099915 0.282928 0.378754
0.183014 0.332275 0.415161
0.346802 0.410889 0.446564
0.504944 0.484985 0.483398
0.605133 0.520905 0.511322
0.688751 0.556854 0.537292
0.760620 0.594971 0.564453
0.823120 0.634918 0.593262
0.877411 0.675720 0.623413
0.924530 0.716522 0.654633
0.965179 0.756622 0.686584
1.000000 0.795502 0.718994
