Color Lookup Presets Effects/z1 (85).CUBE
#Created by: Adobe Photoshop Export Color Lookup Plugin
#Copyright: (C) Copyright 2015 www.zafizack.com
TITLE "zafizack-VG-11"
#LUT size
LUT_3D_SIZE 6
#data domain
DOMAIN_MIN 0.0 0.0 0.0
DOMAIN_MAX 1.0 1.0 1.0
#LUT data points
0.117828 0.121948 0.130646
0.289459 0.122406 0.130219
0.608368 0.122864 0.129822
0.779205 0.123352 0.129425
0.905701 0.123810 0.128998
0.982117 0.124146 0.128723
0.119415 0.313141 0.129669
0.299286 0.316315 0.129059
0.614227 0.319122 0.128571
0.782104 0.321686 0.128082
0.906708 0.324066 0.127655
0.982117 0.325775 0.127380
0.121094 0.607910 0.128723
0.308319 0.609894 0.128052
0.619019 0.611359 0.127533
0.784424 0.612732 0.127075
0.907562 0.614044 0.126648
0.982117 0.614838 0.126404
0.122681 0.761536 0.127930
0.316223 0.762512 0.127228
0.623047 0.763275 0.126740
0.786316 0.763916 0.126282
0.908173 0.764496 0.125916
0.982117 0.764893 0.125641
0.124237 0.870422 0.127167
0.323303 0.870819 0.126526
0.626434 0.871155 0.126038
0.787811 0.871399 0.125641
0.908661 0.871582 0.125305
0.982117 0.871735 0.125092
0.125732 0.958984 0.126495
0.329590 0.958984 0.125916
0.629333 0.958984 0.125488
0.789124 0.958984 0.125122
0.909058 0.958984 0.124817
0.982117 0.958984 0.124634
0.118042 0.122070 0.276672
0.290833 0.122589 0.275177
0.609283 0.123108 0.273773
0.779633 0.123566 0.272339
0.905884 0.124084 0.270935
0.982117 0.124451 0.270020
0.119751 0.314209 0.273254
0.301239 0.317505 0.271179
0.615204 0.320343 0.269379
0.782593 0.322968 0.267822
0.906921 0.325378 0.266327
0.982117 0.327087 0.265289
0.121490 0.608612 0.270020
0.310455 0.610535 0.267731
0.620087 0.612061 0.265961
0.784912 0.613403 0.264313
0.907684 0.614685 0.262848
0.982117 0.615479 0.261902
0.123138 0.761871 0.267151
0.318451 0.762817 0.264893
0.624176 0.763611 0.263062
0.786804 0.764252 0.261566
0.908295 0.764832 0.260193
0.982117 0.765198 0.259338
0.124725 0.870575 0.264648
0.325500 0.870972 0.262421
0.627441 0.871277 0.260712
0.788300 0.871490 0.259308
0.908813 0.871704 0.258118
0.982117 0.871857 0.257416
0.126251 0.958984 0.262360
0.331665 0.958984 0.260284
0.630249 0.958984 0.258759
0.789459 0.958984 0.257507
0.909210 0.958984 0.256531
0.982117 0.958984 0.255951
0.118225 0.122223 0.549683
0.292206 0.122772 0.548401
0.610077 0.123291 0.547180
0.780060 0.123810 0.546021
0.906006 0.124329 0.544830
0.982117 0.124695 0.544006
0.120056 0.315186 0.546753
0.302917 0.318542 0.544952
0.616241 0.321442 0.543518
0.783081 0.324066 0.542145
0.907104 0.326599 0.540863
0.982117 0.328278 0.539978
0.121857 0.609131 0.544037
0.312378 0.611084 0.542084
0.621124 0.612640 0.540558
0.785400 0.614044 0.539246
0.907837 0.615204 0.537933
0.982117 0.616028 0.537140
0.123596 0.762177 0.541626
0.320465 0.763153 0.539642
0.625092 0.763885 0.538116
0.787201 0.764496 0.536896
0.908447 0.765076 0.535675
0.982117 0.765442 0.535004
0.125153 0.870667 0.539429
0.327423 0.871063 0.537598
0.628326 0.871368 0.536163
0.788635 0.871582 0.535004
0.908905 0.871796 0.533966
0.982117 0.871918 0.533386
0.126709 0.958984 0.537567
0.333435 0.958984 0.535767
0.631012 0.958984 0.534515
0.789825 0.958984 0.533508
0.909271 0.958984 0.532593
0.982117 0.958984 0.532196
0.118439 0.122345 0.733612
0.293518 0.122955 0.733124
0.610840 0.123474 0.732697
0.780457 0.124023 0.732330
0.906158 0.124573 0.731903
0.982117 0.124939 0.731628
0.120361 0.316101 0.732544
0.304596 0.319519 0.731934
0.617126 0.322479 0.731445
0.783508 0.325104 0.730957
0.907227 0.327667 0.730560
0.982117 0.329346 0.730255
0.122223 0.609680 0.731628
0.314178 0.611664 0.730957
0.622040 0.613190 0.730438
0.785828 0.614532 0.729950
0.908020 0.615753 0.729553
0.982117 0.616547 0.729279
0.123993 0.762421 0.730804
0.322205 0.763397 0.730133
0.625916 0.764130 0.729614
0.787598 0.764771 0.729218
0.908569 0.765320 0.728821
0.982117 0.765656 0.728607
0.125580 0.870819 0.730103
0.329071 0.871185 0.729431
0.629120 0.871490 0.728943
0.789001 0.871674 0.728607
0.909027 0.871857 0.728241
0.982117 0.871979 0.728088
0.127106 0.958984 0.729431
0.335022 0.958984 0.728821
0.631683 0.958984 0.728424
0.790131 0.958984 0.728119
0.909363 0.958984 0.727814
0.982117 0.958984 0.727722
0.118713 0.122559 0.902588
0.295197 0.123169 0.902588
0.611786 0.123749 0.902588
0.780914 0.124298 0.902588
0.906311 0.124847 0.902588
0.982117 0.125244 0.902588
0.120758 0.317200 0.902588
0.306671 0.320801 0.902588
0.618195 0.323792 0.902588
0.784027 0.326447 0.902588
0.907410 0.328949 0.902588
0.982117 0.330627 0.902588
0.122681 0.610352 0.902588
0.316345 0.612274 0.902588
0.623108 0.613831 0.902588
0.786316 0.615173 0.902588
0.908173 0.616364 0.902557
0.982117 0.617157 0.902557
0.124481 0.762787 0.902588
0.324371 0.763733 0.902588
0.626953 0.764435 0.902557
0.788055 0.765045 0.902557
0.908691 0.765564 0.902557
0.982117 0.765900 0.902557
0.126099 0.870941 0.902588
0.331146 0.871307 0.902557
0.630005 0.871552 0.902557
0.789398 0.871796 0.902557
0.909149 0.871979 0.902557
0.982117 0.872070 0.902557
0.127625 0.958984 0.902557
0.336853 0.958984 0.902557
0.632477 0.958984 0.902557
0.790436 0.958984 0.902557
0.909454 0.958984 0.902557
0.982117 0.958984 0.902557
0.118713 0.122559 0.902740
0.295197 0.123169 0.902740
0.611786 0.123749 0.902740
0.780914 0.124298 0.902740
0.906311 0.124847 0.902740
0.982117 0.125244 0.902740
0.120758 0.317200 0.902740
0.306702 0.320801 0.902740
0.618195 0.323792 0.902740
0.784027 0.326447 0.902740
0.907410 0.328949 0.902740
0.982117 0.330627 0.902740
0.122711 0.610352 0.902740
0.316345 0.612274 0.902740
0.623108 0.613831 0.902740
0.786316 0.615173 0.902740
0.908173 0.616364 0.902740
0.982117 0.617157 0.902740
0.124481 0.762787 0.902740
0.324371 0.763733 0.902740
0.626953 0.764435 0.902740
0.788055 0.765076 0.902740
0.908691 0.765564 0.902740
0.982117 0.765900 0.902740
0.126099 0.870941 0.902740
0.331146 0.871307 0.902740
0.630005 0.871552 0.902740
0.789398 0.871796 0.902740
0.909149 0.871979 0.902740
0.982117 0.872070 0.902740
0.127625 0.958984 0.902740
0.336853 0.958984 0.902740
0.632477 0.958984 0.902740
0.790436 0.958984 0.902740
0.909454 0.958984 0.902740
0.982117 0.958984 0.902740
