Color Lookup Presets Effects/z1 (91).CUBE
#Created by: Adobe Photoshop Export Color Lookup Plugin
#Copyright: (C) Copyright 2015 www.zafizack.com
TITLE "zafizack-VG-17"
#LUT size
LUT_3D_SIZE 6
#data domain
DOMAIN_MIN 0.0 0.0 0.0
DOMAIN_MAX 1.0 1.0 1.0
#LUT data points
0.000000 0.000000 0.000000
0.200012 0.000000 0.000000
0.399994 0.000000 0.000000
0.600006 0.000000 0.000000
0.799988 0.000000 0.000000
1.000000 0.000000 0.000000
0.352448 0.212402 0.134399
0.387726 0.250122 0.160004
0.540771 0.250122 0.160004
0.693878 0.250122 0.160004
0.846924 0.250122 0.160004
1.000000 0.250122 0.160004
0.566498 0.282410 0.182404
0.590424 0.331757 0.217590
0.666626 0.406708 0.273468
0.777771 0.406708 0.273468
0.888885 0.406708 0.273468
1.000000 0.406708 0.273468
0.782928 0.420776 0.284332
0.771271 0.494415 0.343231
0.802216 0.565735 0.404236
0.860504 0.640656 0.473480
0.930237 0.640656 0.473480
1.000000 0.640656 0.473480
0.944794 0.724274 0.558960
0.921051 0.756256 0.594604
0.921509 0.785248 0.628693
0.939392 0.818024 0.669647
0.967743 0.852112 0.715637
1.000000 0.852112 0.715637
1.000000 1.000000 1.000000
1.000000 1.000000 1.000000
1.000000 1.000000 1.000000
1.000000 1.000000 1.000000
1.000000 1.000000 1.000000
1.000000 1.000000 1.000000
0.000000 0.000000 0.200012
0.200012 0.000000 0.200012
0.399994 0.000000 0.200012
0.600006 0.000000 0.200012
0.799988 0.000000 0.200012
1.000000 0.000000 0.200012
0.000000 0.200012 0.200012
0.200012 0.200012 0.200012
0.399994 0.200012 0.200012
0.600006 0.200012 0.200012
0.799988 0.200012 0.200012
1.000000 0.200012 0.200012
0.352417 0.334686 0.250732
0.481964 0.334686 0.250732
0.542938 0.415344 0.308441
0.695313 0.415344 0.308441
0.847656 0.415344 0.308441
1.000000 0.415344 0.308441
0.643097 0.489227 0.344055
0.715302 0.501495 0.353302
0.728912 0.571533 0.408997
0.785706 0.644165 0.468170
0.892853 0.644165 0.468170
1.000000 0.644165 0.468170
0.873505 0.753784 0.583893
0.899017 0.759094 0.589752
0.884583 0.787903 0.617798
0.895996 0.819763 0.649933
0.934204 0.852661 0.684174
1.000000 0.852661 0.684174
0.994202 1.000000 0.990417
0.995361 1.000000 0.992004
0.986237 1.000000 0.974426
0.979462 1.000000 0.957001
0.981628 1.000000 0.949432
1.000000 1.000000 0.961578
0.000000 0.000000 0.399994
0.200012 0.000000 0.399994
0.399994 0.000000 0.399994
0.600006 0.000000 0.399994
0.799988 0.000000 0.399994
1.000000 0.000000 0.399994
0.000000 0.200012 0.399994
0.200012 0.200012 0.399994
0.399994 0.200012 0.399994
0.600006 0.200012 0.399994
0.799988 0.200012 0.399994
1.000000 0.200012 0.399994
0.000000 0.399994 0.399994
0.200012 0.399994 0.399994
0.399994 0.399994 0.399994
0.600006 0.399994 0.399994
0.799988 0.399994 0.399994
1.000000 0.399994 0.399994
0.447845 0.467499 0.321777
0.527985 0.539948 0.410004
0.647888 0.562775 0.424225
0.700073 0.626495 0.482300
0.850037 0.626495 0.482300
1.000000 0.626495 0.482300
0.741272 0.770508 0.582428
0.793549 0.777649 0.589539
0.845551 0.784637 0.596619
0.848969 0.812653 0.614777
0.896393 0.839844 0.630188
1.000000 0.839844 0.630188
0.955841 1.000000 0.911041
0.964203 1.000000 0.923828
0.972809 1.000000 0.936646
0.959534 1.000000 0.888153
0.963135 1.000000 0.856903
1.000000 1.000000 0.853027
0.000000 0.000000 0.600006
0.200012 0.000000 0.600006
0.399994 0.000000 0.600006
0.600006 0.000000 0.600006
0.799988 0.000000 0.600006
1.000000 0.000000 0.600006
0.000000 0.200012 0.600006
0.200012 0.200012 0.600006
0.399994 0.200012 0.600006
0.600006 0.200012 0.600006
0.799988 0.200012 0.600006
1.000000 0.200012 0.600006
0.000000 0.399994 0.600006
0.200012 0.399994 0.600006
0.399994 0.399994 0.600006
0.600006 0.399994 0.600006
0.799988 0.399994 0.600006
1.000000 0.399994 0.600006
0.000000 0.600006 0.600006
0.200012 0.600006 0.600006
0.399994 0.600006 0.600006
0.600006 0.600006 0.600006
0.799988 0.600006 0.600006
1.000000 0.600006 0.600006
0.553009 0.668274 0.336639
0.622894 0.689911 0.389709
0.684052 0.738770 0.509552
0.772003 0.783234 0.609497
0.849884 0.812714 0.653290
1.000000 0.812714 0.653290
0.831482 1.000000 0.523468
0.855469 1.000000 0.578491
0.884003 1.000000 0.630493
0.917603 1.000000 0.682739
0.933533 1.000000 0.675385
1.000000 1.000000 0.750000
0.000000 0.000000 0.799988
0.200012 0.000000 0.799988
0.399994 0.000000 0.799988
0.600006 0.000000 0.799988
0.799988 0.000000 0.799988
1.000000 0.000000 0.799988
0.000000 0.200012 0.799988
0.200012 0.200012 0.799988
0.399994 0.200012 0.799988
0.600006 0.200012 0.799988
0.799988 0.200012 0.799988
1.000000 0.200012 0.799988
0.000000 0.399994 0.799988
0.200012 0.399994 0.799988
0.399994 0.399994 0.799988
0.600006 0.399994 0.799988
0.799988 0.399994 0.799988
1.000000 0.399994 0.799988
0.000000 0.600006 0.799988
0.200012 0.600006 0.799988
0.399994 0.600006 0.799988
0.600006 0.600006 0.799988
0.799988 0.600006 0.799988
1.000000 0.600006 0.799988
0.000000 0.799988 0.799988
0.200012 0.799988 0.799988
0.399994 0.799988 0.799988
0.600006 0.799988 0.799988
0.799988 0.799988 0.799988
1.000000 0.799988 0.799988
0.553131 1.000000 0.668213
0.642517 1.000000 0.668213
0.731873 1.000000 0.668213
0.816376 1.000000 0.681549
0.897064 1.000000 0.743378
1.000000 1.000000 0.825867
0.000000 0.000000 1.000000
0.200012 0.000000 1.000000
0.399994 0.000000 1.000000
0.600006 0.000000 1.000000
0.799988 0.000000 1.000000
1.000000 0.000000 1.000000
0.000000 0.200012 1.000000
0.200012 0.200012 1.000000
0.399994 0.200012 1.000000
0.600006 0.200012 1.000000
0.799988 0.200012 1.000000
1.000000 0.200012 1.000000
0.000000 0.399994 1.000000
0.200012 0.399994 1.000000
0.399994 0.399994 1.000000
0.600006 0.399994 1.000000
0.799988 0.399994 1.000000
1.000000 0.399994 1.000000
0.000000 0.600006 1.000000
0.200012 0.600006 1.000000
0.399994 0.600006 1.000000
0.600006 0.600006 1.000000
0.799988 0.600006 1.000000
1.000000 0.600006 1.000000
0.000000 0.799988 1.000000
0.200012 0.799988 1.000000
0.399994 0.799988 1.000000
0.600006 0.799988 1.000000
0.799988 0.799988 1.000000
1.000000 0.799988 1.000000
0.000000 1.000000 1.000000
0.200012 1.000000 1.000000
0.399994 1.000000 1.000000
0.600006 1.000000 1.000000
0.799988 1.000000 1.000000
1.000000 1.000000 1.000000
