Color Lookup Presets Effects/z1 (61).CUBE
#Created by: Adobe Photoshop Export Color Lookup Plugin
#Copyright: (C) Copyright 2014 www.zafizack.com
TITLE "RedVania"
#LUT size
LUT_3D_SIZE 6
#data domain
DOMAIN_MIN 0.0 0.0 0.0
DOMAIN_MAX 1.0 1.0 1.0
#LUT data points
0.000000 0.000000 0.000000
0.239960 0.113831 0.000000
0.459930 0.208740 0.000000
0.659912 0.319244 0.000000
0.839935 0.438873 0.000000
1.000000 0.565094 0.000000
0.000000 0.000000 0.000000
0.239960 0.113831 0.000000
0.459930 0.208740 0.000000
0.659912 0.319244 0.000000
0.839935 0.438873 0.000000
1.000000 0.565094 0.000000
0.000000 0.000000 0.000000
0.239960 0.113831 0.000000
0.459930 0.208740 0.000000
0.659912 0.319244 0.000000
0.839935 0.438873 0.000000
1.000000 0.565094 0.000000
0.000000 0.000000 0.000000
0.239960 0.113831 0.000000
0.459930 0.208740 0.000000
0.659912 0.319244 0.000000
0.839935 0.438873 0.000000
1.000000 0.565094 0.000000
0.000000 0.000000 0.000000
0.239960 0.113831 0.000000
0.459930 0.208740 0.000000
0.659912 0.319244 0.000000
0.839935 0.438873 0.000000
1.000000 0.565094 0.000000
0.000000 0.000000 0.000000
0.239960 0.113831 0.000000
0.459930 0.208740 0.000000
0.659912 0.319244 0.000000
0.839935 0.438873 0.000000
1.000000 0.565094 0.000000
0.000000 0.165070 0.263885
0.200012 0.250031 0.230835
0.415833 0.350372 0.200012
0.634155 0.444519 0.200012
0.828857 0.545563 0.200012
1.000000 0.651062 0.194550
0.000000 0.123749 0.234009
0.200012 0.220123 0.212402
0.427521 0.313019 0.200012
0.642700 0.403717 0.192383
0.833832 0.498383 0.178528
1.000000 0.600189 0.164673
0.000000 0.082428 0.204132
0.203156 0.189117 0.194000
0.442719 0.263489 0.176392
0.653473 0.351318 0.162506
0.839203 0.446106 0.148651
1.000000 0.547821 0.134796
0.000000 0.050934 0.200012
0.212738 0.156464 0.175568
0.458862 0.211731 0.146515
0.664246 0.297607 0.132629
0.844574 0.392700 0.118774
1.000000 0.494507 0.104889
0.000000 0.021057 0.200012
0.222321 0.124908 0.157166
0.475037 0.167908 0.116608
0.674988 0.242859 0.102753
0.849976 0.337891 0.088898
1.000000 0.439697 0.075012
0.008850 0.000000 0.200012
0.231934 0.094452 0.138733
0.491180 0.127686 0.086731
0.685760 0.186829 0.072876
0.855347 0.281799 0.058990
1.000000 0.384186 0.045135
0.000000 0.330109 0.527740
0.200012 0.434235 0.513855
0.399994 0.500000 0.461639
0.590576 0.600006 0.399994
0.810547 0.710876 0.399994
1.000000 0.818024 0.399994
0.000000 0.288788 0.497833
0.200012 0.392883 0.483978
0.399994 0.470093 0.443207
0.605316 0.576569 0.399994
0.814453 0.676910 0.399994
1.000000 0.784241 0.399994
0.000000 0.247467 0.467957
0.200012 0.351563 0.454102
0.399994 0.440216 0.424774
0.613129 0.541748 0.399994
0.818329 0.642273 0.399994
1.000000 0.749268 0.398621
0.000000 0.206085 0.438080
0.200012 0.310181 0.424194
0.399994 0.410339 0.406372
0.621246 0.504730 0.396484
0.823090 0.599060 0.382599
1.000000 0.700500 0.368744
0.000000 0.164734 0.408203
0.200012 0.271057 0.399994
0.404694 0.377869 0.387939
0.632019 0.454651 0.366608
0.828491 0.549133 0.352722
1.000000 0.650665 0.338867
0.000000 0.131744 0.399994
0.200012 0.241180 0.399994
0.411896 0.343689 0.369537
0.642792 0.403320 0.336700
0.833862 0.498077 0.322845
1.000000 0.599823 0.308990
0.000000 0.495148 0.791595
0.200012 0.599304 0.777740
0.399994 0.703461 0.763885
0.600006 0.750000 0.692474
0.740570 0.799988 0.600006
1.000000 0.968506 0.600006
0.000000 0.453949 0.761719
0.200012 0.557922 0.747864
0.399994 0.662048 0.733978
0.600006 0.720123 0.674042
0.770447 0.799988 0.600006
1.000000 0.937653 0.600006
0.000000 0.412567 0.731842
0.200012 0.516663 0.717987
0.399994 0.620728 0.704102
0.600006 0.690247 0.655640
0.800018 0.799652 0.600006
1.000000 0.906189 0.600006
0.000000 0.371216 0.701965
0.200012 0.475250 0.688080
0.399994 0.579437 0.674225
0.600006 0.660370 0.637207
0.803925 0.767334 0.600006
1.000000 0.874115 0.600006
0.000000 0.329803 0.672089
0.200012 0.433929 0.658203
0.399994 0.538025 0.644348
0.600006 0.630493 0.618805
0.807800 0.734436 0.600006
1.000000 0.841370 0.600006
0.000000 0.288483 0.642181
0.200012 0.392639 0.628326
0.399994 0.496704 0.614471
0.600006 0.600586 0.600372
0.812378 0.695129 0.586731
1.000000 0.796326 0.572845
0.000000 0.583496 1.000000
0.200012 0.706848 1.000000
0.399994 0.830078 1.000000
0.600006 0.953430 1.000000
0.799988 1.000000 0.923279
0.890564 1.000000 0.799988
0.000000 0.583496 1.000000
0.200012 0.706848 1.000000
0.399994 0.827209 0.997833
0.600006 0.931305 0.983978
0.799988 0.970093 0.904846
0.920441 1.000000 0.799988
0.000000 0.577576 0.995697
0.200012 0.681763 0.981812
0.399994 0.785767 0.967957
0.600006 0.889923 0.954071
0.799988 0.940216 0.886444
0.950348 1.000000 0.799988
0.000000 0.536194 0.965790
0.200012 0.640411 0.951935
0.399994 0.744446 0.938080
0.600006 0.848541 0.924194
0.799988 0.910339 0.868011
0.980225 1.000000 0.799988
0.000000 0.494934 0.935913
0.200012 0.598938 0.922058
0.399994 0.703094 0.908203
0.600006 0.807220 0.894318
0.799988 0.880463 0.849609
1.000000 0.989868 0.799988
0.000000 0.453461 0.906036
0.200012 0.557770 0.892181
0.399994 0.661804 0.878296
0.600006 0.765869 0.864441
0.799988 0.850586 0.831177
1.000000 0.959473 0.799988
0.000000 0.383545 1.000000
0.200012 0.506836 1.000000
0.399994 0.630127 1.000000
0.600006 0.753418 1.000000
0.799988 0.876709 1.000000
1.000000 1.000000 1.000000
0.000000 0.383545 1.000000
0.200012 0.506836 1.000000
0.399994 0.630127 1.000000
0.600006 0.753418 1.000000
0.799988 0.876709 1.000000
1.000000 1.000000 1.000000
0.000000 0.383545 1.000000
0.200012 0.506836 1.000000
0.399994 0.630127 1.000000
0.600006 0.753418 1.000000
0.799988 0.876709 1.000000
1.000000 1.000000 1.000000
0.000000 0.383545 1.000000
0.200012 0.506836 1.000000
0.399994 0.630127 1.000000
0.600006 0.753418 1.000000
0.799988 0.876709 1.000000
1.000000 1.000000 1.000000
0.000000 0.383545 1.000000
0.200012 0.506836 1.000000
0.399994 0.630127 1.000000
0.600006 0.753418 1.000000
0.799988 0.876709 1.000000
1.000000 1.000000 1.000000
0.000000 0.383545 1.000000
0.200012 0.506836 1.000000
0.399994 0.630127 1.000000
0.600006 0.753418 1.000000
0.799988 0.876709 1.000000
1.000000 1.000000 1.000000
