Color Lookup Presets Effects/z1 (75).CUBE
#Created by: Adobe Photoshop Export Color Lookup Plugin
#Copyright: (C) Copyright 2016 www.zafizack.com
TITLE "zafizack pastel color preset"
#LUT size
LUT_3D_SIZE 6
#data domain
DOMAIN_MIN 0.0 0.0 0.0
DOMAIN_MAX 1.0 1.0 1.0
#LUT data points
0.054749 0.045410 0.043457
0.291718 0.118317 0.111450
0.551941 0.190094 0.181732
0.776337 0.246918 0.234711
0.901825 0.317627 0.304291
1.000000 0.380524 0.361755
0.049713 0.217712 0.025909
0.250214 0.242767 0.051910
0.531403 0.339630 0.113556
0.737793 0.403076 0.166840
0.905426 0.464233 0.235931
1.000000 0.510559 0.314331
0.057526 0.457672 0.020142
0.230255 0.472107 0.029663
0.491241 0.496735 0.065552
0.718353 0.573212 0.114655
0.908112 0.614563 0.156281
1.000000 0.638611 0.265442
0.062714 0.653351 0.017365
0.211578 0.659760 0.018829
0.463348 0.675446 0.044128
0.661133 0.694733 0.078766
0.890594 0.779266 0.119202
1.000000 0.789978 0.241699
0.067535 0.850677 0.018280
0.194824 0.852386 0.011047
0.440521 0.862488 0.030029
0.642181 0.878174 0.055969
0.824097 0.898224 0.091034
1.000000 0.955811 0.282440
0.071777 1.000000 0.019684
0.181061 0.997864 0.006561
0.425232 1.000000 0.023132
0.629791 1.000000 0.067047
0.807159 1.000000 0.194580
0.949982 1.000000 0.424622
0.056702 0.039673 0.154236
0.209290 0.040924 0.248260
0.468109 0.076874 0.285980
0.725220 0.120819 0.335022
0.887390 0.203247 0.389832
1.000000 0.274811 0.438354
0.052338 0.182831 0.238159
0.203705 0.204010 0.249176
0.464966 0.256714 0.292633
0.695160 0.308105 0.337677
0.894073 0.374054 0.392303
1.000000 0.437592 0.440857
0.058014 0.440674 0.256744
0.201233 0.443420 0.233887
0.442841 0.463745 0.252533
0.673126 0.526703 0.308777
0.885773 0.570404 0.351654
1.000000 0.597382 0.419373
0.063354 0.635437 0.254547
0.201721 0.637451 0.226959
0.416168 0.649292 0.212921
0.628082 0.669861 0.258728
0.866455 0.741425 0.301575
1.000000 0.758911 0.390320
0.068420 0.833771 0.250977
0.202393 0.837982 0.221283
0.392365 0.845703 0.180145
0.607239 0.862579 0.220886
0.808594 0.884003 0.262329
1.000000 0.937622 0.410034
0.072174 0.984253 0.245300
0.201263 0.988281 0.215179
0.376007 0.991577 0.156586
0.594574 1.000000 0.200592
0.793304 1.000000 0.326202
0.956848 1.000000 0.506744
0.062988 0.038605 0.299194
0.213074 0.034790 0.489197
0.447662 0.033325 0.507172
0.679810 0.060089 0.506378
0.875183 0.144196 0.526947
1.000000 0.227448 0.551788
0.052338 0.157288 0.461212
0.193878 0.176361 0.490570
0.420929 0.188416 0.490814
0.640503 0.225372 0.498230
0.879822 0.285034 0.526672
1.000000 0.364594 0.546356
0.052338 0.384918 0.476593
0.182373 0.408142 0.484192
0.393982 0.420990 0.475769
0.607910 0.445831 0.484985
0.852905 0.478668 0.505096
1.000000 0.519836 0.532288
0.055054 0.618835 0.515442
0.180237 0.624817 0.501282
0.389038 0.618958 0.473114
0.573639 0.627960 0.462677
0.826721 0.683136 0.493469
1.000000 0.714722 0.535675
0.059875 0.816498 0.516022
0.180969 0.826050 0.496826
0.387085 0.825958 0.467316
0.549255 0.837372 0.434662
0.780243 0.860352 0.466187
1.000000 0.912170 0.538666
0.063416 0.966217 0.514008
0.179749 0.976227 0.492432
0.384857 0.978729 0.462708
0.532806 0.989899 0.414612
0.765717 1.000000 0.472534
0.967590 1.000000 0.631653
0.068695 0.037628 0.449188
0.216705 0.029480 0.704865
0.452728 0.028900 0.743164
0.716766 0.025391 0.776642
0.864624 0.097412 0.693665
1.000000 0.186340 0.690308
0.052338 0.137085 0.615875
0.196503 0.162231 0.687561
0.425079 0.173889 0.704895
0.650665 0.177063 0.726044
0.867645 0.220917 0.698730
1.000000 0.318451 0.687439
0.052338 0.350708 0.651367
0.172333 0.370544 0.681458
0.386261 0.389587 0.681671
0.599274 0.410004 0.689606
0.826111 0.428833 0.677063
1.000000 0.477570 0.677612
0.052338 0.555420 0.663300
0.166199 0.573669 0.674561
0.375000 0.584747 0.669617
0.553955 0.596802 0.663391
0.794128 0.619843 0.664246
1.000000 0.648804 0.674286
0.054138 0.801758 0.726685
0.163696 0.814758 0.717224
0.370026 0.814972 0.693054
0.544952 0.819977 0.665253
0.762970 0.838440 0.653351
1.000000 0.881989 0.693237
0.057465 0.950348 0.731506
0.162354 0.964661 0.716980
0.367767 0.966980 0.691895
0.539459 0.976990 0.660980
0.739990 0.998657 0.634552
0.979950 1.000000 0.771851
0.072174 0.037048 0.519287
0.218567 0.026489 0.851318
0.453735 0.027222 0.894714
0.687195 0.037323 0.892090
0.884094 0.074890 0.849518
1.000000 0.161346 0.799072
0.052338 0.126129 0.711273
0.197845 0.153320 0.820221
0.427338 0.164581 0.853058
0.654999 0.167297 0.886810
0.888336 0.189178 0.874634
1.000000 0.287659 0.805115
0.052338 0.330963 0.764557
0.165710 0.346985 0.818024
0.388824 0.377655 0.826538
0.604340 0.402313 0.849091
0.851990 0.394989 0.867310
1.000000 0.447906 0.808258
0.052338 0.537811 0.788574
0.159515 0.554657 0.816620
0.367645 0.565674 0.819641
0.546783 0.575867 0.826660
0.796692 0.595276 0.840302
1.000000 0.621765 0.815613
0.052338 0.727631 0.804321
0.153809 0.751312 0.818085
0.359314 0.767426 0.816498
0.534943 0.788116 0.817627
0.757874 0.819824 0.827820
1.000000 0.849640 0.839966
0.053589 0.940033 0.885101
0.149994 0.956451 0.883301
0.355377 0.958496 0.864716
0.528473 0.967773 0.846771
0.747650 0.988770 0.837921
0.990814 1.000000 0.894470
0.075562 0.036469 0.593323
0.219818 0.024261 1.000000
0.444855 0.031036 1.000000
0.667755 0.047485 1.000000
0.899628 0.082245 1.000000
1.000000 0.138580 0.918701
0.052338 0.116028 0.808594
0.199280 0.144806 0.960114
0.429016 0.157043 1.000000
0.642181 0.177216 1.000000
0.872986 0.209198 1.000000
1.000000 0.259766 0.931000
0.052338 0.313019 0.876465
0.159515 0.325317 0.954498
0.392242 0.368164 0.968903
0.608185 0.396088 1.000000
0.837799 0.400238 1.000000
1.000000 0.421234 0.945801
0.052338 0.522034 0.908234
0.153290 0.537506 0.952972
0.361115 0.548981 0.960297
0.540619 0.557922 0.978027
0.801239 0.588043 1.000000
1.000000 0.596710 0.963715
0.052338 0.707886 0.926117
0.147675 0.731293 0.952332
0.352905 0.749146 0.956024
0.528717 0.768799 0.967743
0.749939 0.799255 0.988495
1.000000 0.822418 0.984650
0.052338 0.849121 0.935638
0.141724 0.875336 0.952637
0.346619 0.895447 0.954102
0.520203 0.921356 0.961823
0.738403 0.960663 0.981293
1.000000 1.000000 1.000000
