Color Lookup Presets Effects/z1 (60).CUBE
#Created by: Adobe Photoshop Export Color Lookup Plugin
#Copyright: (C) Copyright 2016 www.zafizack.com
TITLE "zafizack false Color preset"
#LUT size
LUT_3D_SIZE 16
#data domain
DOMAIN_MIN 0.0 0.0 0.0
DOMAIN_MAX 1.0 1.0 1.0
#LUT data points
0.063446 0.061768 0.038513
0.115814 0.078949 0.045410
0.178986 0.107819 0.067444
0.287109 0.138458 0.091492
0.409271 0.170258 0.119904
0.521820 0.196564 0.158386
0.604309 0.218658 0.191956
0.681732 0.240143 0.225677
0.752930 0.261139 0.259308
0.819824 0.276154 0.284027
0.865967 0.290588 0.304993
0.904541 0.304565 0.323975
0.940704 0.320099 0.345490
0.964020 0.337402 0.369049
0.981873 0.358307 0.396973
0.997223 0.381897 0.427887
0.080780 0.102051 0.067139
0.107483 0.106781 0.055847
0.167419 0.139954 0.068878
0.274292 0.168060 0.083160
0.391235 0.195770 0.103668
0.511230 0.220276 0.126038
0.593811 0.241638 0.162506
0.670471 0.260529 0.193024
0.741577 0.279816 0.226074
0.807465 0.298462 0.258087
0.866638 0.314545 0.286255
0.904724 0.328339 0.308289
0.940186 0.344025 0.330750
0.964172 0.362122 0.353485
0.981964 0.385620 0.385742
0.997223 0.409698 0.418030
0.102600 0.166138 0.111542
0.123901 0.166870 0.100494
0.150879 0.170288 0.089142
0.264771 0.204163 0.100739
0.379608 0.227692 0.111328
0.502991 0.248810 0.124603
0.585022 0.265289 0.143921
0.661957 0.281830 0.170074
0.732788 0.297943 0.198334
0.798584 0.310760 0.221222
0.860718 0.328186 0.252716
0.906158 0.346924 0.278870
0.941376 0.366821 0.306091
0.964386 0.388000 0.334442
0.982147 0.414185 0.367920
0.997223 0.439789 0.401886
0.125305 0.232147 0.167694
0.149292 0.233490 0.158661
0.183563 0.233704 0.144897
0.234711 0.236847 0.128815
0.371338 0.269440 0.143311
0.496399 0.286652 0.149689
0.580444 0.300201 0.161865
0.657257 0.312988 0.176086
0.727081 0.329468 0.192505
0.792114 0.347626 0.209290
0.853516 0.363983 0.227173
0.908325 0.383057 0.250732
0.942291 0.406647 0.280029
0.964355 0.432709 0.311157
0.981964 0.455170 0.348877
0.997223 0.475342 0.385284
0.165619 0.292389 0.232117
0.198090 0.296692 0.220520
0.232483 0.298462 0.209808
0.275360 0.299713 0.196411
0.332245 0.303253 0.185028
0.485107 0.332733 0.198120
0.575562 0.350067 0.202606
0.651001 0.369354 0.209717
0.720306 0.388855 0.217712
0.784943 0.408356 0.225403
0.846405 0.427063 0.234161
0.903687 0.442993 0.246063
0.943024 0.460022 0.269928
0.964203 0.477478 0.301758
0.982086 0.497101 0.337006
0.997223 0.512817 0.372375
0.203217 0.341797 0.309021
0.243073 0.350403 0.298584
0.279266 0.353271 0.282349
0.323425 0.357635 0.265656
0.375183 0.361145 0.250427
0.440033 0.368591 0.241943
0.569305 0.415253 0.259064
0.643341 0.431885 0.258179
0.713074 0.447021 0.256165
0.777557 0.461700 0.253845
0.837189 0.476929 0.254974
0.894257 0.492981 0.258606
0.941650 0.509064 0.272491
0.964447 0.522125 0.297821
0.981873 0.537262 0.334290
0.997223 0.550201 0.367767
0.252716 0.378906 0.395508
0.275818 0.387390 0.374634
0.314758 0.398285 0.356110
0.360779 0.401489 0.333160
0.412781 0.408875 0.312927
0.471832 0.422272 0.297302
0.539490 0.442932 0.288940
0.637512 0.485474 0.303894
0.705933 0.503265 0.301880
0.770538 0.518616 0.296051
0.829559 0.530518 0.291107
0.886322 0.542877 0.286804
0.939819 0.555450 0.284882
0.964203 0.566223 0.303253
0.981628 0.579956 0.341064
0.997223 0.590912 0.371307
0.297699 0.407104 0.470612
0.318970 0.414490 0.452637
0.350586 0.429291 0.429047
0.391693 0.443207 0.399872
0.444305 0.450775 0.373627
0.501587 0.464935 0.352051
0.557617 0.486847 0.337433
0.607483 0.507904 0.332306
0.696747 0.550079 0.346466
0.763367 0.569916 0.345825
0.823029 0.583649 0.338989
0.879120 0.595734 0.331543
0.931885 0.607635 0.324860
0.963165 0.617645 0.333923
0.981201 0.627838 0.363464
0.997223 0.636047 0.386963
0.306335 0.455475 0.482788
0.335052 0.457367 0.479980
0.376862 0.466797 0.474152
0.428040 0.480652 0.468018
0.477081 0.495605 0.444031
0.527893 0.507599 0.415924
0.577362 0.528778 0.394287
0.624298 0.549622 0.382629
0.671356 0.569519 0.376099
0.749603 0.608398 0.387268
0.816528 0.636475 0.390289
0.872833 0.651184 0.381439
0.925720 0.663361 0.372375
0.961731 0.673096 0.374390
0.980530 0.681122 0.402222
0.997223 0.687988 0.423676
0.307800 0.518219 0.482635
0.333038 0.518616 0.478882
0.378967 0.524658 0.480560
0.437836 0.534088 0.483734
0.497742 0.541565 0.483124
0.547760 0.555481 0.477509
0.595856 0.571686 0.457458
0.640991 0.589600 0.441223
0.684845 0.608398 0.429504
0.730896 0.629761 0.420898
0.798767 0.669006 0.428375
0.866028 0.704041 0.433838
0.919373 0.719910 0.424286
0.960297 0.731659 0.419769
0.980072 0.737335 0.445282
0.997223 0.742554 0.462189
0.339508 0.587463 0.494934
0.363373 0.586609 0.491272
0.409241 0.589905 0.493408
0.465332 0.599976 0.498077
0.513214 0.608795 0.496826
0.557281 0.615234 0.494568
0.606323 0.622223 0.494629
0.653900 0.634277 0.490356
0.697693 0.652191 0.481049
0.741547 0.673676 0.472778
0.785675 0.695343 0.463135
0.845428 0.733032 0.466125
0.913147 0.773773 0.472504
0.958679 0.789124 0.463593
0.979034 0.795319 0.485657
0.997223 0.800262 0.498138
0.385406 0.665039 0.515076
0.405731 0.663239 0.510742
0.446411 0.669006 0.513458
0.494934 0.678894 0.516113
0.535706 0.690430 0.513641
0.577576 0.696594 0.511475
0.624725 0.707367 0.511475
0.670776 0.719788 0.511993
0.711151 0.731232 0.512909
0.752441 0.743958 0.512329
0.794281 0.757996 0.507355
0.836365 0.771301 0.500000
0.889221 0.801086 0.497650
0.956146 0.849152 0.504456
0.977814 0.850006 0.519928
0.997223 0.856995 0.537415
0.441132 0.756470 0.539276
0.459595 0.754608 0.535004
0.489746 0.761627 0.534698
0.527618 0.773163 0.534546
0.569427 0.785706 0.534943
0.607300 0.791290 0.533020
0.648102 0.798889 0.531311
0.689270 0.807129 0.529755
0.725586 0.815186 0.528992
0.763153 0.823639 0.528320
0.801910 0.832367 0.527832
0.841980 0.840912 0.527222
0.882996 0.848114 0.526306
0.933929 0.874817 0.521149
0.977020 0.908997 0.563995
0.997223 0.907745 0.581970
0.484833 0.848846 0.557465
0.500732 0.846466 0.552643
0.525940 0.849670 0.551849
0.560120 0.856750 0.551514
0.598816 0.864166 0.552887
0.632935 0.868011 0.550903
0.667633 0.871521 0.547333
0.704254 0.876099 0.544037
0.737091 0.881378 0.541931
0.771606 0.887604 0.540100
0.807922 0.894470 0.538391
0.845764 0.901520 0.536957
0.885132 0.907837 0.535248
0.925323 0.911346 0.536072
0.970093 0.932892 0.579559
0.997223 0.953094 0.608704
0.527130 0.933197 0.572357
0.543182 0.931488 0.568085
0.564270 0.931671 0.567200
0.593658 0.933533 0.566742
0.627655 0.935608 0.568298
0.657684 0.937042 0.566284
0.686829 0.938293 0.561493
0.719238 0.940460 0.556580
0.748718 0.943390 0.553314
0.780243 0.947266 0.550262
0.813843 0.952209 0.547516
0.847443 0.952423 0.551086
0.882843 0.952820 0.562317
0.920197 0.953339 0.578217
0.959076 0.953552 0.598267
0.991333 0.976776 0.632080
0.561493 0.994629 0.579041
0.577911 0.993469 0.575195
0.596710 0.992645 0.575470
0.623383 0.992859 0.576752
0.652985 0.993469 0.578278
0.679382 0.994629 0.576599
0.704010 0.994629 0.571503
0.732147 0.994629 0.566406
0.758026 0.994629 0.563721
0.785889 0.994629 0.563721
0.815796 0.994629 0.566711
0.847839 0.994629 0.576355
0.882263 0.994629 0.591003
0.918945 0.994629 0.611969
0.956909 0.994629 0.636292
0.983978 0.994629 0.658478
0.062592 0.059692 0.059692
0.100830 0.065918 0.069122
0.147827 0.080780 0.083954
0.250183 0.114807 0.114014
0.375397 0.143951 0.146637
0.496826 0.169647 0.183258
0.586639 0.192841 0.218628
0.669373 0.212952 0.248505
0.744843 0.231079 0.277374
0.814056 0.247131 0.304260
0.863831 0.264923 0.327118
0.902954 0.282532 0.346832
0.939606 0.301514 0.368805
0.963470 0.322510 0.393982
0.981659 0.343811 0.421234
0.997223 0.366364 0.451324
0.073181 0.093781 0.101929
0.095947 0.096405 0.089783
0.145172 0.125946 0.100739
0.240540 0.157196 0.116333
0.359741 0.188721 0.142426
0.483521 0.215179 0.175293
0.573975 0.237457 0.208557
0.655731 0.259033 0.242828
0.730469 0.279449 0.275970
0.799683 0.296478 0.303650
0.862762 0.313904 0.331879
0.902161 0.327179 0.349823
0.938965 0.342346 0.370453
0.963623 0.359955 0.393707
0.981781 0.382751 0.423279
0.997223 0.406464 0.454376
0.091614 0.159119 0.149689
0.113464 0.160614 0.133759
0.138428 0.163361 0.123322
0.230865 0.195862 0.134125
0.345520 0.222198 0.150421
0.470978 0.246094 0.168579
0.563202 0.265533 0.190369
0.643158 0.282959 0.214661
0.718964 0.301361 0.245270
0.788055 0.317902 0.273804
0.852783 0.335602 0.304657
0.902008 0.353180 0.331451
0.938934 0.372589 0.356262
0.963776 0.391815 0.380890
0.981903 0.416595 0.413208
0.997223 0.441345 0.445557
0.112701 0.225250 0.203369
0.136749 0.228271 0.195435
0.163757 0.230438 0.183990
0.208221 0.233185 0.169891
0.336945 0.265228 0.182648
0.462952 0.285248 0.190460
0.558228 0.300751 0.202087
0.638641 0.315338 0.217102
0.713196 0.328461 0.233276
0.781311 0.346100 0.252472
0.844940 0.363159 0.272400
0.904663 0.378571 0.294800
0.940521 0.402954 0.322937
0.964111 0.431000 0.355316
0.982086 0.455231 0.391052
0.997223 0.476563 0.427826
0.140930 0.287445 0.265594
0.178802 0.293915 0.255096
0.213562 0.296570 0.244385
0.254883 0.298889 0.233826
0.308899 0.303223 0.224091
0.452087 0.332458 0.234772
0.553162 0.345734 0.239624
0.632233 0.364624 0.247437
0.705933 0.383881 0.255859
0.774658 0.403046 0.264160
0.838165 0.422577 0.275452
0.898254 0.440125 0.287872
0.941650 0.456940 0.310822
0.964081 0.475128 0.341980
0.981903 0.496063 0.378052
0.997223 0.512604 0.414673
0.195221 0.338806 0.348511
0.223419 0.346588 0.327118
0.261444 0.353455 0.313843
0.304138 0.358490 0.299347
0.354370 0.363617 0.287170
0.418274 0.369720 0.279602
0.547089 0.411621 0.295990
0.625366 0.428253 0.295074
0.698303 0.443085 0.293121
0.766327 0.457642 0.291931
0.829010 0.473022 0.293579
0.889404 0.488800 0.296875
0.940247 0.505951 0.310028
0.963928 0.520325 0.335999
0.981628 0.536407 0.373779
0.997223 0.549896 0.407135
0.251160 0.378235 0.437927
0.273499 0.387085 0.410095
0.295105 0.393921 0.384430
0.343231 0.404236 0.366608
0.394318 0.410950 0.348541
0.452545 0.423523 0.334259
0.523376 0.442230 0.327026
0.618591 0.480652 0.339996
0.690887 0.498566 0.338104
0.759033 0.513641 0.332001
0.821045 0.526276 0.327026
0.880249 0.538544 0.323303
0.936066 0.551392 0.322296
0.963776 0.563416 0.340454
0.981781 0.577789 0.376007
0.997223 0.589478 0.407440
0.295502 0.407257 0.507294
0.319397 0.416260 0.482727
0.338898 0.422119 0.459198
0.375610 0.442200 0.431702
0.426117 0.451935 0.407440
0.483429 0.465363 0.387482
0.543640 0.486298 0.373932
0.593628 0.506653 0.369720
0.685486 0.548798 0.384308
0.751770 0.565399 0.381012
0.815033 0.578796 0.372894
0.872894 0.590637 0.365875
0.928558 0.602631 0.357513
0.962982 0.613556 0.365692
0.981201 0.624664 0.395782
0.997223 0.634186 0.422546
0.309967 0.452972 0.528625
0.346558 0.456024 0.524872
0.366150 0.459656 0.502289
0.415558 0.473022 0.496063
0.460449 0.495758 0.474121
0.514374 0.507660 0.450287
0.564789 0.527435 0.429749
0.612305 0.548126 0.419159
0.660461 0.567902 0.413147
0.741058 0.607147 0.424713
0.807678 0.631592 0.424683
0.866364 0.645874 0.415283
0.921417 0.657928 0.405609
0.961456 0.668457 0.404297
0.980896 0.677734 0.431854
0.997223 0.685120 0.455688
0.311218 0.514832 0.528351
0.347626 0.516815 0.524567
0.368164 0.517365 0.506958
0.424225 0.526245 0.510864
0.481781 0.539825 0.509735
0.534821 0.555115 0.505341
0.584595 0.570435 0.489075
0.630219 0.587952 0.474091
0.674988 0.606689 0.464569
0.722107 0.627716 0.457336
0.792328 0.667572 0.463959
0.859589 0.699005 0.466064
0.915009 0.714600 0.457062
0.960205 0.727234 0.447906
0.979919 0.733459 0.473083
0.997223 0.739532 0.490814
0.320190 0.582794 0.530396
0.358521 0.583466 0.527649
0.387848 0.583710 0.513214
0.442474 0.592529 0.518372
0.502167 0.603943 0.524567
0.543762 0.614227 0.520874
0.592743 0.622681 0.520325
0.640747 0.633392 0.517975
0.685791 0.649628 0.510284
0.731903 0.671021 0.501984
0.778687 0.693085 0.494598
0.840454 0.731537 0.497070
0.908234 0.768921 0.500183
0.957703 0.784210 0.492157
0.978821 0.792542 0.509979
0.997223 0.797882 0.523254
0.365082 0.659332 0.547760
0.400513 0.662537 0.546051
0.428802 0.662933 0.533356
0.477600 0.669891 0.535950
0.522949 0.683014 0.537689
0.564026 0.693512 0.535217
0.611725 0.704529 0.536530
0.658356 0.716217 0.538757
0.699799 0.727722 0.542084
0.742706 0.741028 0.543610
0.786255 0.755554 0.538727
0.830078 0.769836 0.528107
0.885284 0.800232 0.525574
0.954742 0.843628 0.530365
0.977478 0.847565 0.548187
0.997223 0.855225 0.566864
0.418549 0.749573 0.568695
0.452423 0.752960 0.567322
0.478790 0.754242 0.555542
0.513397 0.763824 0.553558
0.553986 0.776093 0.554688
0.595276 0.786896 0.554718
0.636841 0.794861 0.554626
0.678741 0.803589 0.554535
0.715973 0.812134 0.555939
0.754608 0.821381 0.557739
0.794495 0.830231 0.559265
0.835968 0.838867 0.560364
0.878601 0.846497 0.560028
0.931488 0.873199 0.553741
0.976776 0.906067 0.592560
0.997223 0.905121 0.611267
0.467865 0.840729 0.587158
0.492950 0.843140 0.583771
0.515839 0.844055 0.572418
0.546936 0.849304 0.569366
0.583893 0.857391 0.570221
0.623169 0.864746 0.572113
0.658081 0.868439 0.570038
0.695129 0.873108 0.568054
0.728638 0.878693 0.567566
0.763977 0.885193 0.567993
0.801117 0.892365 0.568542
0.840179 0.899384 0.568848
0.880829 0.905853 0.568329
0.923035 0.910400 0.567108
0.970306 0.933136 0.608124
0.997223 0.950348 0.634827
0.510742 0.928436 0.600586
0.533630 0.929077 0.597534
0.556030 0.929047 0.587433
0.583191 0.930481 0.583954
0.614960 0.932556 0.584503
0.650513 0.934967 0.586853
0.679382 0.936157 0.583344
0.711731 0.938293 0.579773
0.741608 0.941254 0.577606
0.773682 0.945343 0.576019
0.807892 0.950378 0.575287
0.843231 0.952789 0.579681
0.880005 0.953064 0.590485
0.918518 0.953583 0.606232
0.958893 0.953827 0.625549
0.991791 0.976868 0.657349
0.545135 0.991241 0.605988
0.566345 0.991211 0.603546
0.587921 0.990662 0.594635
0.613190 0.990906 0.591766
0.642090 0.991364 0.593933
0.673431 0.992188 0.596283
0.698120 0.993500 0.592651
0.726379 0.994629 0.589020
0.752350 0.994629 0.587830
0.780518 0.994629 0.589600
0.811066 0.994629 0.595215
0.844055 0.994629 0.605011
0.879578 0.994629 0.619446
0.917480 0.994629 0.640137
0.955933 0.994629 0.661316
0.984344 0.994629 0.680145
0.064117 0.059631 0.093140
0.101837 0.065308 0.117004
0.140106 0.071289 0.122650
0.217255 0.088074 0.140015
0.343048 0.120300 0.185577
0.467926 0.142273 0.217896
0.567261 0.163208 0.250275
0.654175 0.184113 0.282501
0.733215 0.204071 0.312866
0.805298 0.222076 0.341248
0.859589 0.241486 0.365021
0.900085 0.262207 0.384918
0.937897 0.284363 0.406860
0.962891 0.307861 0.432526
0.981506 0.330933 0.459808
0.997223 0.355774 0.485962
0.071259 0.090088 0.138885
0.095886 0.092743 0.133575
0.135071 0.107513 0.126343
0.204651 0.133270 0.139099
0.323425 0.166443 0.168915
0.449097 0.195557 0.209503
0.550293 0.218872 0.242523
0.637238 0.240723 0.275665
0.716980 0.261292 0.307434
0.790222 0.277557 0.333923
0.857819 0.291290 0.358002
0.899719 0.308289 0.376404
0.937256 0.327576 0.397675
0.962952 0.347748 0.421570
0.981598 0.368225 0.449738
0.997223 0.391449 0.477753
0.088043 0.148285 0.192444
0.108612 0.152405 0.184296
0.131348 0.156708 0.168884
0.197144 0.180023 0.165161
0.314789 0.207733 0.179993
0.441467 0.233643 0.201782
0.543243 0.254883 0.224548
0.628204 0.275513 0.256775
0.707001 0.296051 0.289795
0.779266 0.316589 0.322784
0.846405 0.334778 0.352570
0.899475 0.350830 0.376831
0.936920 0.366882 0.397736
0.963135 0.385193 0.419952
0.981628 0.406830 0.449127
0.997223 0.429688 0.477264
0.108643 0.220459 0.258698
0.128052 0.223206 0.247375
0.149231 0.225952 0.231506
0.186127 0.230499 0.215698
0.305115 0.260376 0.225464
0.430542 0.283234 0.234497
0.535248 0.301239 0.246613
0.619324 0.317993 0.262817
0.697449 0.332764 0.280518
0.769653 0.346649 0.299957
0.836456 0.364929 0.323029
0.899628 0.381897 0.348022
0.937622 0.402954 0.373535
0.963287 0.429504 0.402679
0.981781 0.452911 0.434540
0.997223 0.473907 0.467896
0.130707 0.282898 0.315735
0.152649 0.288605 0.299042
0.188080 0.293610 0.288025
0.235016 0.299225 0.277405
0.287476 0.304138 0.267792
0.419800 0.332062 0.275879
0.530518 0.347351 0.280762
0.613403 0.362701 0.288849
0.691528 0.380951 0.297150
0.763153 0.399750 0.307312
0.830200 0.418365 0.318207
0.892456 0.437286 0.333099
0.939117 0.455719 0.356171
0.963409 0.474396 0.386078
0.981628 0.494141 0.420532
0.997223 0.509521 0.454468
0.190033 0.335083 0.400299
0.213593 0.342529 0.378906
0.238220 0.350739 0.356110
0.284943 0.361572 0.341156
0.334412 0.367401 0.329865
0.396912 0.374176 0.322174
0.524841 0.408142 0.334442
0.605804 0.426636 0.337189
0.683716 0.440796 0.333740
0.754639 0.455444 0.333862
0.821045 0.470245 0.334839
0.883301 0.486206 0.339966
0.938293 0.503143 0.352448
0.963318 0.518951 0.378326
0.981812 0.535767 0.415039
0.997223 0.548126 0.445923
0.247345 0.375671 0.486420
0.270020 0.384277 0.464478
0.294647 0.394135 0.437256
0.321533 0.405548 0.405457
0.376129 0.416168 0.390747
0.433929 0.427521 0.376892
0.504547 0.444702 0.369141
0.599670 0.477631 0.379364
0.676147 0.495422 0.376984
0.747284 0.510101 0.371490
0.812775 0.522736 0.364960
0.873810 0.535126 0.362732
0.932068 0.547943 0.362640
0.963531 0.560944 0.379791
0.981628 0.576172 0.416016
0.997223 0.587830 0.445282
0.290649 0.405609 0.552094
0.314880 0.414185 0.529846
0.340027 0.424713 0.504028
0.364594 0.435425 0.473114
0.408112 0.456482 0.448853
0.465271 0.468658 0.429321
0.529816 0.488098 0.414978
0.580383 0.507660 0.410767
0.670105 0.545349 0.422699
0.739716 0.561737 0.419556
0.805939 0.574829 0.410950
0.866241 0.586456 0.403381
0.924042 0.598053 0.394318
0.962555 0.609833 0.400635
0.981201 0.621796 0.430908
0.997223 0.632477 0.460144
0.307465 0.449677 0.575806
0.342651 0.453552 0.570892
0.374298 0.460999 0.555054
0.405334 0.466156 0.534210
0.449158 0.488495 0.512115
0.498413 0.510925 0.488037
0.552246 0.529144 0.470245
0.600159 0.548431 0.459656
0.649719 0.567719 0.453339
0.732666 0.606781 0.465057
0.798462 0.627136 0.461975
0.860321 0.641174 0.450958
0.916901 0.653046 0.441650
0.961456 0.664063 0.435333
0.980713 0.674377 0.465820
0.997223 0.682343 0.486420
0.308746 0.510590 0.575134
0.343567 0.513947 0.570221
0.383545 0.516754 0.567413
0.414215 0.518951 0.548431
0.472534 0.531982 0.548584
0.523590 0.554199 0.541412
0.569489 0.574005 0.520844
0.617889 0.589050 0.508240
0.665131 0.606293 0.500305
0.713593 0.626892 0.492676
0.786072 0.666779 0.499146
0.852783 0.694366 0.498657
0.910492 0.709747 0.488922
0.959503 0.722168 0.478943
0.979675 0.729858 0.503021
0.997223 0.737457 0.518097
0.311066 0.578552 0.574341
0.345398 0.580383 0.569366
0.383667 0.582520 0.566498
0.415009 0.585297 0.547028
0.476349 0.595856 0.553650
0.532501 0.610870 0.561981
0.578674 0.623596 0.557953
0.626312 0.635376 0.553131
0.673462 0.650726 0.544678
0.721527 0.670929 0.532806
0.770172 0.693207 0.524872
0.834686 0.731964 0.527222
0.902893 0.764893 0.528076
0.956299 0.780426 0.519928
0.978516 0.789795 0.536133
0.997223 0.795532 0.551392
0.337555 0.652985 0.582794
0.374268 0.657684 0.580261
0.413391 0.659515 0.578674
0.452728 0.662079 0.562836
0.505249 0.672791 0.566925
0.551453 0.687958 0.569885
0.597931 0.702515 0.572601
0.644440 0.714325 0.574646
0.687622 0.725830 0.577515
0.732239 0.738831 0.580353
0.777771 0.753632 0.575867
0.823425 0.768799 0.562958
0.881104 0.799561 0.559509
0.951569 0.838074 0.561584
0.977173 0.845306 0.578308
0.997223 0.853119 0.596191
0.388733 0.740967 0.600281
0.424988 0.747101 0.598480
0.461731 0.750702 0.597626
0.496307 0.754272 0.581970
0.535736 0.765961 0.581390
0.580017 0.779816 0.583130
0.623322 0.792145 0.586884
0.666412 0.800903 0.588684
0.705048 0.809662 0.590668
0.745117 0.819061 0.592834
0.786682 0.828522 0.594727
0.829742 0.837250 0.596039
0.873993 0.845032 0.595795
0.928955 0.871429 0.588257
0.976379 0.903137 0.622498
0.997223 0.902283 0.637421
0.445618 0.831451 0.618286
0.473999 0.836731 0.614899
0.500549 0.839417 0.612061
0.530823 0.842224 0.596558
0.566559 0.849518 0.595032
0.606812 0.858643 0.596436
0.646881 0.866180 0.600403
0.684631 0.870758 0.600311
0.719086 0.876526 0.600861
0.755554 0.883087 0.601715
0.793854 0.890228 0.602448
0.834290 0.897400 0.603027
0.876495 0.903961 0.602692
0.920288 0.908844 0.601288
0.970551 0.933289 0.637390
0.997223 0.947632 0.660065
0.490479 0.923004 0.630981
0.514984 0.925568 0.627441
0.539124 0.925659 0.624817
0.568329 0.926697 0.610565
0.599213 0.928680 0.607910
0.633698 0.931580 0.608398
0.670227 0.934357 0.611969
0.702759 0.936279 0.610382
0.733215 0.939331 0.609528
0.766022 0.943451 0.608948
0.801300 0.948364 0.608582
0.838654 0.953064 0.609680
0.876709 0.953369 0.620239
0.916779 0.953796 0.635315
0.958466 0.954041 0.653229
0.992401 0.976959 0.683624
0.524902 0.986633 0.634369
0.548157 0.988434 0.631592
0.570251 0.988007 0.629486
0.598511 0.988220 0.616577
0.626312 0.988739 0.613739
0.658142 0.989685 0.616150
0.690582 0.991150 0.618103
0.719360 0.993195 0.616333
0.746033 0.994629 0.616302
0.774658 0.994629 0.619263
0.805908 0.994629 0.624939
0.839966 0.994629 0.634491
0.876526 0.994629 0.648529
0.914978 0.994629 0.665955
0.955048 0.994629 0.687103
0.984772 0.994629 0.701813
0.065613 0.059509 0.128265
0.102661 0.064209 0.171417
0.140625 0.070557 0.182831
0.212708 0.077942 0.203735
0.311249 0.096588 0.226227
0.438263 0.119659 0.262146
0.547089 0.137207 0.290497
0.638489 0.157288 0.322784
0.721558 0.178070 0.354797
0.796448 0.200256 0.389221
0.855103 0.219421 0.411407
0.897003 0.242645 0.430450
0.936066 0.267792 0.452850
0.962250 0.292847 0.476715
0.981354 0.317108 0.500061
0.997223 0.344910 0.524689
0.069885 0.087341 0.185394
0.097046 0.091522 0.190277
0.135620 0.105835 0.182739
0.197540 0.120270 0.195984
0.293579 0.142120 0.216400
0.420776 0.169922 0.252960
0.528839 0.193634 0.285919
0.618774 0.217468 0.321655
0.703735 0.235199 0.349152
0.780548 0.251648 0.375763
0.850861 0.266846 0.401184
0.895996 0.287781 0.421112
0.935638 0.308380 0.440491
0.962280 0.332153 0.465363
0.981384 0.355499 0.491241
0.997223 0.379883 0.515533
0.086243 0.141541 0.242371
0.106110 0.144623 0.239746
0.129974 0.149078 0.224396
0.182190 0.167542 0.210907
0.275452 0.189209 0.207184
0.402527 0.220398 0.239136
0.511780 0.243042 0.264038
0.603760 0.265533 0.297821
0.688446 0.287872 0.332336
0.765900 0.308685 0.365601
0.837433 0.322998 0.391693
0.895355 0.337067 0.412048
0.934998 0.354980 0.430878
0.962311 0.374359 0.453949
0.981384 0.395569 0.482025
0.997223 0.417542 0.506897
0.103821 0.205475 0.295624
0.123596 0.210297 0.292419
0.145752 0.216095 0.282776
0.174957 0.225128 0.269836
0.269562 0.245697 0.256317
0.395233 0.269562 0.264069
0.507782 0.287842 0.273926
0.598999 0.304321 0.286835
0.681793 0.321136 0.310760
0.758179 0.338715 0.339844
0.827698 0.356628 0.369202
0.893005 0.375732 0.400299
0.934998 0.394623 0.422913
0.962372 0.411865 0.443420
0.981476 0.434540 0.473328
0.997223 0.459717 0.501373
0.128754 0.279144 0.375000
0.148132 0.284698 0.362915
0.178040 0.288696 0.349274
0.216125 0.295502 0.332794
0.265350 0.305573 0.317719
0.386810 0.331512 0.322998
0.502441 0.348999 0.327484
0.592224 0.364288 0.336639
0.674530 0.381042 0.346222
0.749817 0.397614 0.355347
0.818817 0.414124 0.366608
0.884338 0.430023 0.380798
0.935791 0.448303 0.402313
0.962524 0.465118 0.426819
0.981628 0.486237 0.462616
0.997223 0.504578 0.495636
0.185455 0.331512 0.458191
0.209106 0.338837 0.441254
0.233368 0.346710 0.418610
0.265076 0.358307 0.394623
0.313171 0.372192 0.378998
0.374420 0.379730 0.371094
0.495056 0.406586 0.378845
0.584747 0.426270 0.384033
0.666840 0.440521 0.382019
0.741608 0.454437 0.381958
0.810944 0.469208 0.384064
0.876465 0.483582 0.387268
0.936279 0.498688 0.397949
0.962555 0.512238 0.420959
0.981415 0.527863 0.454132
0.997223 0.542603 0.485474
0.242798 0.373566 0.538574
0.266205 0.381470 0.520203
0.290771 0.390839 0.497192
0.321075 0.404877 0.469543
0.353455 0.419983 0.437897
0.413696 0.433990 0.426727
0.483276 0.449127 0.418884
0.577972 0.476563 0.425568
0.658142 0.493622 0.423462
0.733917 0.507904 0.418213
0.802277 0.520416 0.411835
0.866943 0.532166 0.408203
0.928040 0.544922 0.409302
0.962494 0.556885 0.423615
0.981232 0.569763 0.453674
