Color Lookup Presets Effects/z1 (87).CUBE
#Created by: Adobe Photoshop Export Color Lookup Plugin
#Copyright: (C) Copyright 2015 www.zafizack.com
TITLE "zafizack-VG-13"
#LUT size
LUT_3D_SIZE 16
#data domain
DOMAIN_MIN 0.0 0.0 0.0
DOMAIN_MAX 1.0 1.0 1.0
#LUT data points
0.010712 0.000000 0.000000
0.073242 0.000000 0.002960
0.129059 0.003235 0.012665
0.220001 0.020844 0.015289
0.325897 0.039429 0.020172
0.432068 0.055878 0.030365
0.533356 0.074768 0.047363
0.629608 0.110992 0.063629
0.719849 0.147247 0.081146
0.785400 0.174286 0.095428
0.831726 0.193726 0.106049
0.874573 0.211761 0.116791
0.916931 0.229248 0.128326
0.958771 0.246033 0.140045
1.000000 0.262024 0.152161
1.000000 0.277344 0.164703
0.043091 0.008362 0.009277
0.096649 0.026611 0.014557
0.172638 0.050201 0.022491
0.270721 0.069519 0.021942
0.373138 0.089081 0.027954
0.472961 0.104462 0.038147
0.567230 0.127045 0.049927
0.656952 0.159088 0.061615
0.739105 0.190063 0.074524
0.796753 0.213043 0.085327
0.838348 0.229431 0.093719
0.879883 0.244659 0.102997
0.920654 0.260345 0.115051
0.960999 0.274689 0.126526
1.000000 0.288849 0.138336
1.000000 0.303772 0.151062
0.066498 0.053711 0.027283
0.126801 0.071777 0.029724
0.224518 0.095245 0.029053
0.323334 0.115662 0.031464
0.419464 0.133209 0.037140
0.511353 0.149353 0.045288
0.597870 0.176056 0.052765
0.679565 0.206177 0.061371
0.751617 0.234161 0.071045
0.804718 0.255920 0.079193
0.844452 0.272308 0.086731
0.884186 0.287628 0.095062
0.923767 0.303223 0.104248
0.962463 0.318848 0.114532
1.000000 0.334564 0.125824
1.000000 0.348663 0.136414
0.083923 0.099945 0.045807
0.150452 0.116974 0.045593
0.261475 0.150665 0.049316
0.362030 0.168152 0.044952
0.451233 0.184845 0.049500
0.536530 0.203094 0.054382
0.617737 0.229340 0.058502
0.694550 0.256378 0.064453
0.765991 0.282715 0.071747
0.811584 0.301727 0.077484
0.850616 0.318298 0.082092
0.888245 0.334869 0.087677
0.926208 0.351166 0.093689
0.963593 0.367340 0.102295
1.000000 0.382782 0.114319
1.000000 0.394012 0.123169
0.098511 0.143921 0.065704
0.177460 0.166168 0.065979
0.295593 0.205170 0.070770
0.392303 0.220917 0.066833
0.482178 0.234985 0.062256
0.561523 0.255646 0.065063
0.637024 0.279449 0.067413
0.708435 0.303345 0.070648
0.774139 0.326385 0.074310
0.820343 0.344086 0.077087
0.857025 0.359711 0.081024
0.893341 0.374420 0.083588
0.929352 0.389435 0.087372
0.965515 0.403839 0.091797
1.000000 0.418091 0.099091
1.000000 0.431213 0.108734
0.118561 0.187347 0.084900
0.212616 0.214203 0.085815
0.332031 0.255768 0.090881
0.423767 0.270996 0.087738
0.508392 0.285034 0.082428
0.587891 0.303406 0.074677
0.658356 0.324402 0.075043
0.724060 0.345337 0.075684
0.781555 0.364929 0.077087
0.829071 0.382111 0.079102
0.864105 0.395874 0.079895
0.898560 0.409729 0.082367
0.933197 0.423096 0.083710
0.967529 0.436615 0.086365
1.000000 0.449463 0.088287
1.000000 0.462555 0.097443
0.145233 0.227997 0.102844
0.255585 0.261139 0.104889
0.371521 0.302612 0.109070
0.457367 0.316376 0.105469
0.537018 0.330750 0.099152
0.611115 0.347107 0.091064
0.680298 0.364075 0.081696
0.741394 0.382904 0.081146
0.795624 0.400574 0.081299
0.838531 0.415314 0.081024
0.871399 0.427887 0.081604
0.904572 0.440094 0.081268
0.936951 0.452454 0.082306
0.969910 0.464600 0.082764
1.000000 0.476379 0.083923
1.000000 0.488342 0.087463
0.198151 0.269226 0.119690
0.309784 0.307190 0.122955
0.415131 0.342926 0.124664
0.494659 0.355988 0.120667
0.568115 0.370148 0.113892
0.637360 0.384949 0.105408
0.700653 0.400116 0.096283
0.760071 0.415222 0.085663
0.809662 0.430573 0.084229
0.847687 0.443512 0.083710
0.879669 0.454926 0.082947
0.910797 0.466400 0.082886
0.941681 0.477112 0.081757
0.972595 0.488373 0.082428
1.000000 0.498810 0.081085
1.000000 0.509705 0.081879
0.201111 0.329803 0.146729
0.312286 0.359772 0.145447
0.431702 0.404022 0.145599
0.516174 0.416412 0.140747
0.589386 0.423859 0.132660
0.655914 0.431580 0.122589
0.718231 0.439941 0.111847
0.776215 0.448486 0.100037
0.824890 0.455505 0.087036
0.859558 0.466919 0.085754
0.888702 0.476837 0.084137
0.917511 0.487061 0.083832
0.946472 0.496826 0.082245
0.975494 0.506836 0.081512
1.000000 0.516357 0.080414
1.000000 0.526093 0.078949
0.205353 0.395874 0.174896
0.297729 0.414886 0.173767
0.424377 0.453033 0.167480
0.530609 0.478760 0.160736
0.605530 0.482391 0.152802
0.671844 0.483521 0.141327
0.732269 0.484528 0.128326
0.789124 0.485901 0.114685
0.839264 0.486877 0.100342
0.870941 0.484680 0.087067
0.898041 0.493744 0.085236
0.924713 0.502716 0.084045
0.951660 0.511658 0.082672
0.978943 0.520477 0.080994
1.000000 0.529388 0.080139
1.000000 0.538269 0.078644
0.208740 0.471832 0.202759
0.291565 0.481934 0.201202
0.404114 0.500336 0.192383
0.532043 0.535431 0.182983
0.616882 0.542114 0.172668
0.684143 0.538574 0.161072
0.744568 0.533203 0.146759
0.799957 0.527863 0.131378
0.851471 0.523163 0.116089
0.880280 0.514374 0.101349
0.908081 0.505615 0.085876
0.932617 0.513519 0.084595
0.957489 0.521698 0.083344
0.982574 0.529541 0.081177
1.000000 0.537476 0.079865
1.000000 0.545593 0.078827
0.210510 0.550079 0.232117
0.284943 0.556458 0.229614
0.376831 0.564209 0.224182
0.493347 0.581512 0.210754
0.605377 0.607422 0.198761
0.681946 0.612549 0.187225
0.742493 0.607178 0.173920
0.796631 0.599884 0.158569
0.844604 0.592102 0.142059
0.885101 0.583466 0.125092
0.911682 0.572327 0.108002
0.937042 0.561707 0.090942
0.960480 0.568329 0.088043
0.983612 0.575012 0.085297
1.000000 0.581696 0.082703
1.000000 0.588501 0.079529
0.211273 0.630493 0.262756
0.278564 0.637238 0.259766
0.351776 0.644592 0.256409
0.437378 0.652527 0.249695
0.527710 0.660553 0.237152
0.629822 0.682739 0.222137
0.711548 0.699341 0.210388
0.774109 0.705872 0.198090
0.824097 0.703094 0.183929
0.868774 0.698944 0.168518
0.906555 0.693512 0.151459
0.933044 0.686676 0.134735
0.957581 0.679565 0.115753
0.979614 0.684570 0.111664
1.000000 0.689606 0.107086
1.000000 0.694672 0.101685
0.207916 0.713898 0.295135
0.270477 0.721405 0.291687
0.336609 0.728760 0.288116
0.406677 0.735992 0.283783
0.480072 0.744080 0.277008
0.554138 0.752441 0.267303
0.628632 0.760590 0.253662
0.708191 0.776703 0.238342
0.777618 0.792450 0.226654
0.838318 0.803680 0.213776
0.889343 0.809540 0.199127
0.923950 0.807922 0.184082
0.950592 0.805145 0.168976
0.973206 0.801605 0.152771
0.994812 0.805786 0.148407
1.000000 0.809937 0.143616
0.198242 0.801941 0.329590
0.255219 0.810089 0.326050
0.318665 0.817627 0.321899
0.379547 0.825226 0.317749
0.441101 0.833191 0.312500
0.502625 0.841431 0.306061
0.564453 0.849945 0.297974
0.626373 0.858551 0.288452
0.686005 0.866913 0.277008
0.744019 0.874542 0.263428
0.803162 0.886414 0.249023
0.861389 0.899475 0.232605
0.912659 0.911682 0.218109
0.953491 0.918274 0.199493
0.985107 0.922760 0.184692
1.000000 0.926910 0.179291
0.200287 0.888092 0.363678
0.258698 0.897034 0.360107
0.310547 0.905853 0.356140
0.365204 0.914459 0.350525
0.415558 0.922607 0.344879
0.469421 0.929596 0.334351
0.522827 0.936340 0.322296
0.575073 0.943298 0.309265
0.627747 0.950592 0.294647
0.679962 0.957794 0.278656
0.729767 0.965088 0.261230
0.779541 0.972321 0.241455
0.825714 0.978790 0.220276
0.870758 0.984924 0.196259
0.916748 0.990875 0.167419
0.956635 0.995331 0.135376
0.010712 0.000000 0.015747
0.076965 0.000000 0.033569
0.132782 0.001373 0.042938
0.224854 0.018921 0.049591
0.330872 0.036499 0.063538
0.436371 0.052582 0.080231
0.537170 0.072021 0.098358
0.632782 0.108795 0.114716
0.722351 0.145508 0.132355
0.786865 0.172394 0.145966
0.832733 0.191620 0.156189
0.875397 0.209778 0.166962
0.917542 0.227295 0.179321
0.959198 0.244019 0.192352
1.000000 0.259888 0.205688
1.000000 0.275146 0.219238
0.010101 0.002808 0.034271
0.058533 0.014374 0.037842
0.115204 0.036438 0.049835
0.210510 0.060730 0.058411
0.319336 0.082397 0.068207
0.425812 0.100342 0.082184
0.527802 0.117950 0.096527
0.625580 0.148346 0.110077
0.717194 0.180328 0.124390
0.782715 0.204895 0.135925
0.829224 0.222992 0.144806
0.872650 0.239960 0.153625
0.915253 0.257294 0.164978
0.957428 0.273773 0.176270
0.999237 0.289581 0.189301
1.000000 0.305084 0.203278
0.034424 0.050049 0.053528
0.080566 0.061157 0.057159
0.161041 0.085724 0.064453
0.263092 0.107910 0.069916
0.365509 0.128784 0.079590
0.463806 0.147034 0.090759
0.557800 0.168274 0.100800
0.649048 0.197113 0.111023
0.734131 0.226715 0.122772
0.792938 0.250183 0.132507
0.834900 0.268524 0.141388
0.876740 0.285889 0.150635
0.918060 0.301483 0.159973
0.958862 0.316101 0.169586
0.999451 0.329926 0.180054
1.000000 0.343323 0.191132
0.046844 0.099426 0.074158
0.096313 0.111664 0.078857
0.177979 0.133942 0.081726
0.296875 0.165344 0.085754
0.394928 0.184692 0.092438
0.487793 0.202148 0.099976
0.576080 0.225616 0.107574
0.659607 0.253540 0.115204
0.737457 0.281067 0.123566
0.798431 0.304413 0.132751
0.839966 0.321686 0.141357
0.880127 0.337616 0.149597
0.920441 0.351746 0.156799
0.959930 0.365570 0.164917
0.999207 0.379669 0.174408
1.000000 0.393494 0.185211
0.057343 0.147369 0.094147
0.103119 0.158905 0.100128
0.200012 0.185577 0.102112
0.322937 0.222473 0.107788
0.423096 0.238098 0.106049
0.511017 0.255646 0.111664
0.594055 0.279449 0.116028
0.672791 0.304077 0.120880
0.745544 0.328491 0.126190
0.806000 0.350128 0.131287
0.846161 0.366211 0.137207
0.884460 0.381714 0.144379
0.923004 0.397125 0.152283
0.960968 0.412354 0.161652
0.998932 0.427063 0.171448
1.000000 0.441864 0.182739
0.065063 0.190369 0.111176
0.119080 0.204193 0.119659
0.223480 0.232758 0.121552
0.351105 0.275635 0.128021
0.446991 0.290710 0.125763
0.535370 0.306824 0.121399
0.612976 0.328003 0.123962
0.686279 0.349762 0.126709
0.755035 0.371460 0.129669
0.812073 0.390442 0.132416
0.852692 0.406006 0.137146
0.889679 0.419861 0.140991
0.926270 0.434143 0.147369
0.962982 0.447754 0.153381
0.999084 0.461273 0.160553
1.000000 0.474579 0.169037
0.081207 0.230896 0.127655
0.140259 0.246002 0.137146
0.255676 0.278595 0.140167
0.381165 0.323181 0.145386
0.473267 0.338776 0.143219
0.557098 0.354492 0.137756
0.635010 0.371674 0.131104
0.702484 0.390594 0.131927
0.766144 0.409637 0.133118
0.818909 0.426636 0.134644
0.859741 0.440796 0.135773
0.894867 0.453735 0.138916
0.930084 0.466278 0.143555
0.964966 0.479065 0.149170
0.999817 0.491119 0.154083
1.000000 0.503571 0.160339
0.104095 0.267029 0.142761
0.180145 0.286560 0.155334
0.297394 0.321625 0.157379
0.417877 0.366608 0.161041
0.503723 0.380829 0.158203
0.581726 0.395355 0.152008
0.653839 0.410583 0.144714
0.720856 0.426300 0.136627
0.780029 0.443329 0.136749
0.829376 0.458313 0.137054
0.867523 0.470917 0.137177
0.901062 0.482605 0.138458
0.934082 0.493988 0.141205
0.967499 0.505341 0.144318
1.000000 0.516296 0.147736
1.000000 0.527283 0.151001
0.122528 0.329132 0.169312
0.190460 0.346100 0.179993
0.295868 0.370514 0.180176
0.422241 0.416107 0.180237
0.520660 0.437378 0.176392
0.599335 0.445770 0.169373
0.669739 0.454041 0.159882
0.734772 0.462585 0.149872
0.795715 0.471466 0.139008
0.842743 0.485077 0.138153
0.875824 0.495880 0.137970
0.907593 0.506378 0.137756
0.938690 0.516663 0.137482
0.970215 0.527100 0.141174
1.000000 0.536926 0.143188
1.000000 0.547180 0.146027
0.122620 0.390869 0.196838
0.193085 0.409790 0.207123
0.281616 0.427582 0.207733
0.412445 0.462097 0.200378
0.531830 0.495392 0.194946
0.612640 0.500214 0.187653
0.683167 0.501862 0.176849
0.747131 0.503540 0.164612
0.806152 0.505524 0.151917
0.855804 0.506348 0.138824
0.885101 0.515930 0.138519
0.914551 0.525299 0.137665
0.943970 0.534424 0.136749
0.973297 0.543884 0.140594
1.000000 0.552704 0.141571
1.000000 0.562012 0.143463
0.128265 0.462036 0.226135
0.192871 0.481476 0.234192
0.277252 0.492706 0.232849
0.388763 0.507721 0.225311
0.524872 0.543060 0.216034
0.620422 0.554932 0.205963
0.692383 0.553436 0.195160
0.756836 0.548645 0.181396
0.815399 0.543915 0.166412
0.864380 0.538574 0.151764
0.894989 0.530701 0.137939
0.922119 0.538879 0.136780
0.949524 0.546906 0.135681
0.976715 0.555389 0.137756
1.000000 0.563324 0.138641
1.000000 0.571533 0.138733
0.125793 0.538055 0.255768
0.191528 0.556122 0.262726
0.270355 0.563629 0.259796
0.365051 0.572876 0.255188
0.484161 0.588135 0.242889
0.604614 0.615143 0.230896
0.687531 0.622772 0.219147
0.752594 0.618805 0.206024
0.810760 0.612183 0.190857
0.860229 0.604675 0.174347
0.898254 0.596130 0.158478
0.926788 0.585327 0.141663
0.952240 0.592590 0.140137
0.977905 0.599518 0.137939
1.000000 0.606201 0.136993
1.000000 0.613464 0.135925
0.123077 0.617096 0.287018
0.188232 0.633118 0.292694
0.259460 0.640839 0.289337
0.337982 0.649658 0.285645
0.429230 0.658905 0.279388
0.526642 0.668732 0.267395
0.632660 0.689453 0.251587
0.719238 0.707397 0.240204
0.786560 0.714996 0.227631
0.839783 0.712708 0.212921
0.884216 0.708527 0.197418
0.922150 0.703033 0.180145
0.949249 0.696411 0.163544
0.974091 0.701752 0.159302
0.998749 0.707031 0.155487
1.000000 0.712524 0.151642
0.113586 0.699219 0.320129
0.180695 0.713531 0.324524
0.247253 0.721802 0.320526
0.314667 0.730225 0.316254
0.393372 0.738983 0.311646
0.473602 0.748383 0.304626
0.554871 0.758087 0.294617
0.635010 0.767090 0.280426
0.719330 0.784149 0.264648
0.793030 0.800964 0.252808
0.858124 0.813354 0.239349
0.908081 0.817444 0.223755
0.941895 0.815552 0.208344
0.967865 0.812561 0.192108
0.991638 0.816956 0.188324
1.000000 0.821472 0.184052
0.083862 0.785736 0.355225
0.160583 0.798431 0.358643
0.224976 0.807861 0.354370
0.292419 0.816498 0.349731
0.358856 0.825043 0.344818
0.428192 0.834137 0.338806
0.496857 0.843719 0.331970
0.566254 0.853638 0.323090
0.634369 0.863342 0.312408
0.699890 0.872650 0.299652
0.761383 0.880188 0.284149
0.828674 0.895538 0.268127
0.889679 0.909241 0.250671
0.940094 0.919373 0.232147
0.980743 0.925354 0.214111
1.000000 0.930298 0.208405
0.072021 0.869415 0.389526
0.153839 0.880615 0.391724
0.221985 0.891296 0.387604
0.283875 0.901306 0.383057
0.343475 0.910950 0.377167
0.401154 0.920258 0.370483
0.460480 0.928528 0.359955
0.520966 0.936096 0.346527
0.579987 0.943970 0.331787
0.639313 0.952209 0.315308
0.697632 0.960480 0.297211
0.753448 0.968567 0.277466
0.808319 0.976379 0.255280
0.858429 0.983215 0.231506
0.909180 0.990082 0.203491
0.954285 0.994995 0.173157
0.010712 0.000000 0.046051
0.076965 0.000000 0.063690
0.143860 0.001007 0.077728
0.236359 0.017700 0.087860
0.336639 0.033630 0.104706
0.441071 0.049408 0.125275
0.541412 0.069611 0.146240
0.636597 0.107086 0.165802
0.725647 0.144409 0.186615
0.788483 0.170715 0.202820
0.833740 0.189636 0.215240
0.876160 0.207855 0.228424
0.918060 0.225220 0.242096
0.959625 0.241943 0.256073
1.000000 0.257751 0.270477
1.000000 0.272919 0.285065
0.010071 0.002808 0.063843
0.058533 0.014374 0.068115
0.119141 0.035278 0.081879
0.215790 0.058807 0.092438
0.324493 0.080383 0.106476
0.431183 0.097443 0.123932
0.533417 0.114319 0.141510
0.629730 0.146118 0.158447
0.720276 0.178619 0.175964
0.784332 0.202759 0.190216
0.830231 0.220795 0.201782
0.873474 0.237640 0.213409
0.915802 0.255096 0.226959
0.957825 0.271484 0.240509
0.999542 0.287292 0.254425
1.000000 0.302734 0.269379
0.004089 0.047333 0.078125
0.049713 0.057495 0.083405
0.098969 0.069580 0.087952
0.197418 0.101471 0.104462
0.308899 0.124542 0.114380
0.416504 0.143402 0.126709
0.518982 0.160645 0.140900
0.615295 0.190338 0.155945
0.706604 0.221436 0.171631
0.778778 0.246552 0.185394
0.825470 0.263672 0.195496
0.869568 0.279633 0.205505
0.912781 0.295532 0.216492
0.955444 0.311798 0.228546
0.997742 0.327515 0.240814
1.000000 0.342773 0.253906
0.015259 0.101288 0.100403
0.055603 0.110992 0.106445
0.116119 0.125793 0.112640
0.225067 0.157867 0.118958
0.335815 0.183319 0.128174
0.437286 0.202332 0.138885
0.533356 0.222534 0.151428
0.624359 0.250397 0.163696
0.710968 0.277466 0.175537
0.786682 0.301331 0.186401
0.830353 0.316986 0.194855
0.872803 0.332397 0.204132
0.914886 0.348083 0.214478
0.956268 0.362823 0.224670
0.997589 0.376587 0.234467
1.000000 0.389801 0.244812
0.022003 0.152802 0.120758
0.062012 0.162140 0.126740
0.120331 0.176971 0.135071
0.236572 0.208771 0.138733
0.361145 0.240967 0.142883
0.457916 0.259064 0.150085
0.549164 0.279755 0.157837
0.634979 0.305084 0.167328
0.715149 0.330505 0.177765
0.783936 0.353882 0.188416
0.834961 0.372711 0.198578
0.875702 0.388916 0.208771
0.916595 0.404266 0.218781
0.956879 0.416779 0.226288
0.997040 0.428772 0.233765
1.000000 0.441254 0.243042
0.027496 0.199402 0.138214
0.064575 0.207520 0.143982
0.127716 0.223480 0.154297
0.251099 0.257904 0.158112
0.380310 0.296631 0.163391
0.479736 0.312256 0.161285
0.566437 0.332794 0.166260
0.647827 0.355011 0.171997
0.722900 0.377228 0.179596
0.790619 0.398468 0.187836
0.841187 0.415802 0.194855
0.880280 0.430389 0.202454
0.919403 0.444885 0.211212
0.958069 0.459076 0.220551
0.996613 0.472992 0.230621
1.000000 0.486938 0.241791
0.035706 0.241333 0.153412
0.084900 0.251587 0.160858
0.150726 0.268097 0.172638
0.271790 0.301514 0.176361
0.403381 0.347046 0.181000
0.498749 0.363037 0.178436
0.585480 0.379791 0.173431
0.661530 0.399109 0.177612
0.732635 0.418762 0.182251
0.799438 0.438171 0.187347
0.846008 0.453766 0.193787
0.885437 0.467194 0.199463
0.922791 0.480377 0.205688
0.960052 0.493134 0.212921
0.996887 0.505768 0.221039
1.000000 0.518372 0.229706
0.051300 0.277954 0.169342
0.101837 0.288483 0.177063
0.181702 0.308533 0.190796
0.301514 0.343414 0.193237
0.430481 0.390564 0.196472
0.522003 0.406952 0.193695
0.604401 0.422272 0.187836
0.678833 0.437866 0.181000
0.744629 0.455353 0.184113
0.806488 0.472504 0.187256
0.854950 0.487030 0.190186
0.890839 0.499054 0.194763
0.926514 0.510773 0.199921
0.962097 0.522644 0.206177
0.997406 0.533936 0.212463
1.000000 0.545563 0.219818
0.055847 0.334930 0.193665
0.114899 0.346161 0.202637
0.188873 0.364655 0.214630
0.295197 0.390381 0.215698
0.429901 0.435638 0.214844
0.535736 0.459198 0.210876
0.617859 0.468872 0.204071
0.691956 0.477966 0.195313
0.759644 0.487061 0.186615
0.816742 0.502136 0.189514
0.863281 0.515198 0.191498
0.897156 0.526245 0.193726
0.930939 0.536591 0.196869
0.964691 0.547333 0.201111
0.998077 0.557434 0.205780
1.000000 0.567719 0.211243
0.059174 0.395630 0.221924
0.116608 0.405518 0.229584
0.190613 0.426392 0.240295
0.282867 0.445587 0.240753
0.415924 0.477051 0.234650
0.544098 0.513306 0.229309
0.628876 0.519379 0.221069
0.702057 0.521515 0.210297
0.769318 0.523895 0.199036
0.830902 0.526489 0.187714
0.871857 0.537659 0.189301
0.904022 0.547302 0.190186
0.935516 0.556763 0.191040
0.967621 0.566071 0.194183
0.998962 0.575287 0.198486
1.000000 0.584625 0.202545
0.051025 0.461060 0.250641
0.118988 0.474518 0.257721
0.189301 0.494995 0.266541
0.276276 0.507019 0.264893
0.391388 0.523163 0.258484
0.533630 0.556152 0.248657
0.634216 0.569885 0.238678
0.710022 0.569092 0.227051
0.776337 0.565399 0.214111
0.836792 0.561096 0.200073
0.881287 0.554932 0.186340
0.911377 0.563385 0.187469
0.940887 0.572021 0.187531
0.970947 0.580414 0.189331
1.000000 0.588684 0.192871
1.000000 0.597137 0.195923
0.030823 0.532379 0.280365
0.113403 0.546997 0.286621
0.185547 0.565979 0.294312
0.268402 0.574402 0.291046
0.367371 0.584991 0.286224
0.492462 0.600433 0.273834
0.617126 0.626953 0.261841
0.703552 0.635315 0.249695
0.770905 0.631775 0.236328
0.831970 0.625610 0.220886
0.882233 0.618500 0.204559
0.915436 0.609070 0.189697
0.943604 0.616211 0.189148
0.971832 0.623352 0.187714
0.999664 0.630402 0.188019
1.000000 0.637512 0.188416
0.008514 0.609070 0.311981
0.103333 0.622253 0.317047
0.178253 0.639618 0.323456
0.255615 0.648438 0.319641
0.338379 0.658295 0.315399
0.435822 0.668610 0.308746
0.540161 0.679962 0.296082
0.649567 0.700928 0.280457
0.738373 0.718353 0.268707
0.808105 0.725403 0.255371
0.863525 0.723236 0.240265
0.906158 0.718903 0.224182
0.940887 0.713257 0.207581
0.967987 0.718933 0.204956
0.995239 0.724487 0.202240
1.000000 0.730225 0.199371
0.000000 0.686920 0.344513
0.085205 0.701202 0.349457
0.165283 0.716492 0.354340
0.239502 0.726196 0.349945
0.312958 0.735779 0.345215
0.396820 0.745605 0.339844
0.482635 0.755981 0.332062
0.570465 0.766968 0.321075
0.657288 0.777588 0.305756
0.745239 0.795929 0.290375
0.821625 0.812836 0.277924
0.888824 0.825470 0.263763
0.929016 0.825317 0.247742
0.961792 0.823273 0.231323
0.988556 0.828094 0.228333
1.000000 0.832947 0.224854
0.000000 0.771362 0.380066
0.022736 0.784363 0.383911
0.136597 0.798370 0.387939
0.210632 0.808746 0.382874
0.284485 0.818909 0.377838
0.357849 0.828674 0.372192
0.432068 0.838623 0.365387
0.506439 0.849213 0.357452
0.581116 0.860077 0.347626
0.655609 0.870911 0.335449
0.728088 0.880920 0.320618
0.796356 0.891693 0.303497
0.866608 0.906738 0.284027
0.927185 0.921112 0.267273
0.972809 0.927124 0.246277
1.000000 0.933777 0.240326
0.000000 0.852264 0.414246
0.000000 0.863647 0.416931
0.125793 0.876099 0.419678
0.199371 0.888031 0.414948
0.270447 0.899017 0.409821
0.338043 0.910126 0.403351
0.402924 0.920624 0.395599
0.468964 0.929565 0.383423
0.534393 0.937836 0.368591
0.598877 0.946594 0.352234
0.664612 0.955688 0.333893
0.728394 0.964905 0.313599
0.791229 0.973969 0.291016
0.847260 0.981720 0.267151
0.902985 0.989258 0.239746
0.951416 0.994690 0.210876
0.012268 0.000000 0.083588
0.078644 0.000000 0.105682
0.153748 0.002869 0.122986
0.270721 0.018768 0.144165
0.372406 0.034363 0.167603
0.448975 0.046265 0.178070
0.547028 0.067322 0.200134
0.641388 0.106049 0.222137
0.729889 0.143646 0.245544
0.790161 0.169128 0.263306
0.834778 0.187805 0.277283
0.876953 0.206055 0.292206
0.918701 0.223511 0.307190
0.960022 0.240234 0.322601
1.000000 0.255920 0.338165
1.000000 0.270996 0.353973
0.010559 0.002869 0.096405
0.059448 0.014740 0.104767
0.124268 0.036926 0.123901
0.244751 0.061035 0.141907
0.337982 0.079742 0.156891
0.437714 0.095520 0.174438
0.538910 0.112549 0.194244
0.634430 0.145233 0.213776
0.724426 0.177490 0.233795
0.786041 0.200928 0.249786
0.831177 0.218567 0.262848
0.874268 0.235504 0.276184
0.916473 0.252960 0.291199
0.958221 0.269409 0.306335
0.999695 0.285187 0.321533
1.000000 0.300598 0.337585
0.004089 0.047333 0.107788
0.049866 0.057495 0.115814
0.099701 0.069763 0.124268
0.215393 0.101074 0.145813
0.317017 0.121948 0.158051
0.424774 0.139771 0.174194
0.527161 0.156738 0.191498
0.623718 0.186432 0.208405
0.714417 0.217346 0.226379
0.781036 0.241760 0.241852
0.826752 0.259796 0.254211
0.870392 0.277008 0.266754
0.913361 0.293976 0.280029
0.955811 0.310333 0.293640
0.997894 0.326080 0.307556
1.000000 0.341492 0.321899
0.000000 0.105743 0.126831
0.024170 0.113617 0.133850
0.068024 0.124207 0.141998
0.153351 0.145691 0.151825
0.273712 0.180817 0.169922
0.389771 0.199615 0.181122
0.495728 0.217224 0.194611
0.594727 0.243134 0.209534
0.686890 0.272339 0.225677
0.765625 0.298981 0.241730
0.820129 0.317291 0.253052
0.865051 0.332245 0.262939
0.909119 0.346802 0.273224
0.952637 0.360504 0.283569
0.995758 0.374847 0.295044
1.000000 0.389648 0.307922
0.000000 0.160553 0.148468
0.027283 0.168030 0.154907
0.070923 0.178101 0.162079
0.153595 0.199219 0.174103
0.289703 0.237915 0.181213
0.403137 0.262756 0.193878
0.503296 0.281921 0.206512
0.596924 0.306946 0.219299
0.684601 0.332825 0.233185
0.764374 0.357208 0.246826
0.824371 0.374207 0.255951
0.867920 0.387238 0.263733
0.910919 0.400940 0.273071
0.953125 0.413849 0.282379
0.995178 0.427124 0.292603
1.000000 0.440125 0.303101
0.000000 0.209656 0.166687
0.029327 0.217468 0.173309
0.074554 0.226959 0.179932
0.153625 0.247162 0.194305
0.292969 0.285614 0.198456
0.420715 0.319153 0.203766
0.517456 0.338379 0.213013
0.606995 0.360321 0.222260
0.689972 0.382996 0.232849
0.766998 0.405731 0.244537
0.826599 0.425140 0.256195
0.870880 0.440857 0.267212
0.912506 0.455963 0.278656
0.953369 0.469757 0.289642
0.994415 0.481873 0.298737
1.000000 0.493011 0.306702
0.000000 0.254059 0.182831
0.033813 0.261536 0.188721
0.089874 0.272552 0.196747
0.170746 0.292755 0.212646
0.302673 0.330231 0.215851
0.435638 0.371918 0.221222
0.534271 0.388947 0.219421
0.619812 0.408630 0.225769
0.698120 0.428589 0.234009
0.770996 0.448547 0.242950
0.832184 0.466492 0.252228
0.875549 0.480743 0.260712
0.915375 0.494324 0.269958
0.954803 0.507477 0.279602
0.993988 0.520416 0.289734
1.000000 0.533386 0.301178
