Color Lookup Presets Effects/z1 (72).CUBE
#Created by: Adobe Photoshop Export Color Lookup Plugin
#Copyright: (C) Copyright 2016 www.zafizack.com
TITLE "zafizack pastel color preset"
#LUT size
LUT_3D_SIZE 6
#data domain
DOMAIN_MIN 0.0 0.0 0.0
DOMAIN_MAX 1.0 1.0 1.0
#LUT data points
0.048279 0.039490 0.038757
0.293579 0.124054 0.100861
0.551331 0.201935 0.174194
0.773468 0.257477 0.232239
0.905334 0.313873 0.288422
1.000000 0.370941 0.347076
0.093140 0.210938 0.085388
0.246124 0.237305 0.088196
0.522614 0.335144 0.126373
0.733734 0.395081 0.166077
0.906647 0.447388 0.224762
1.000000 0.494904 0.303925
0.174347 0.396118 0.183319
0.295471 0.425293 0.159119
0.483124 0.479279 0.154846
0.709442 0.558960 0.173676
0.905853 0.603058 0.184601
1.000000 0.628082 0.269714
0.201141 0.555450 0.223419
0.324371 0.567200 0.224396
0.505310 0.612122 0.219116
0.660675 0.668671 0.213043
0.883636 0.760803 0.226654
1.000000 0.776123 0.298615
0.200134 0.780548 0.224030
0.303284 0.790375 0.219177
0.491425 0.817230 0.231903
0.661255 0.847046 0.249298
0.827423 0.875702 0.271667
1.000000 0.933105 0.387451
0.190887 1.000000 0.217590
0.282196 0.997803 0.210297
0.470856 1.000000 0.223511
0.646179 1.000000 0.254578
0.811676 1.000000 0.341278
0.957855 1.000000 0.496399
0.050751 0.035156 0.136078
0.227539 0.054657 0.210724
0.489136 0.104645 0.263367
0.737457 0.156769 0.323792
0.896484 0.228485 0.374908
1.000000 0.298645 0.430023
0.086945 0.183655 0.242828
0.205963 0.203674 0.237213
0.466034 0.268677 0.259583
0.698730 0.322296 0.304932
0.898041 0.379669 0.363464
1.000000 0.437012 0.418518
0.169922 0.385925 0.357880
0.271057 0.403931 0.313110
0.444885 0.449860 0.298767
0.671204 0.519592 0.319427
0.888245 0.566864 0.332001
1.000000 0.595673 0.394745
0.201508 0.540924 0.406036
0.317719 0.549072 0.387512
0.472504 0.586517 0.353851
0.634216 0.646118 0.353333
0.863831 0.729980 0.363220
1.000000 0.751221 0.412262
0.201782 0.759399 0.403625
0.309082 0.772858 0.383698
0.458832 0.794830 0.356110
0.635742 0.829285 0.383453
0.815216 0.862183 0.410217
1.000000 0.919525 0.491211
0.192200 0.983887 0.393982
0.295868 0.988159 0.374634
0.436920 0.991638 0.336639
0.619537 1.000000 0.367432
0.800568 1.000000 0.453003
0.963654 1.000000 0.574982
0.056915 0.034790 0.257172
0.231659 0.049683 0.396515
0.475067 0.068878 0.436707
0.702301 0.109833 0.464600
0.888092 0.186096 0.496307
1.000000 0.266907 0.534546
0.081085 0.163055 0.409271
0.198364 0.182129 0.415863
0.429871 0.215454 0.410614
0.655060 0.261475 0.440491
0.888336 0.314484 0.481506
1.000000 0.384308 0.516663
0.151184 0.351501 0.505219
0.251007 0.379974 0.493683
0.404327 0.413361 0.464203
0.616547 0.451813 0.445526
0.862976 0.490997 0.448273
1.000000 0.532379 0.494629
0.195862 0.527161 0.604492
0.303284 0.538086 0.594971
0.450867 0.562286 0.544159
0.590515 0.608826 0.506805
0.830780 0.681580 0.501740
1.000000 0.715851 0.520081
0.197632 0.737305 0.604858
0.296112 0.756958 0.592010
0.456268 0.771057 0.572205
0.594482 0.798523 0.550323
0.792419 0.839966 0.567169
1.000000 0.900513 0.593536
0.188110 0.965424 0.599365
0.282928 0.975891 0.584961
0.443878 0.978973 0.566223
0.574158 0.990295 0.534454
0.778687 1.000000 0.574493
0.972687 1.000000 0.682312
0.062561 0.034485 0.381622
0.235565 0.045441 0.565338
0.479828 0.065979 0.619598
0.733215 0.090454 0.682007
0.879211 0.156616 0.642365
1.000000 0.241425 0.659058
0.076355 0.146637 0.531006
0.201538 0.171997 0.567474
0.435181 0.205597 0.578949
0.667175 0.226868 0.623627
0.879700 0.266235 0.622772
1.000000 0.352386 0.637909
0.141479 0.329498 0.631836
0.234741 0.354431 0.636932
0.393127 0.389862 0.617432
0.610382 0.422821 0.597870
0.840210 0.447174 0.584351
1.000000 0.496490 0.617920
0.193970 0.478668 0.727173
0.291016 0.499908 0.729340
0.435608 0.538788 0.687836
0.572571 0.584991 0.657166
0.804230 0.629578 0.623230
1.000000 0.663544 0.621307
0.195007 0.718536 0.769684
0.285706 0.742035 0.763336
0.445282 0.756531 0.747131
0.591980 0.779724 0.728455
0.777985 0.820343 0.711243
1.000000 0.877960 0.711884
0.185577 0.949158 0.770233
0.272552 0.964142 0.759918
0.432861 0.967255 0.744049
0.579773 0.977905 0.723694
0.758331 0.998779 0.706543
0.983124 1.000000 0.799896
0.066010 0.034302 0.452393
0.237610 0.043030 0.687408
0.480865 0.064789 0.745026
0.708832 0.095367 0.775940
0.893982 0.145142 0.779633
1.000000 0.225952 0.760437
0.073792 0.137756 0.615509
0.203278 0.165588 0.677460
0.438202 0.199249 0.702576
0.671661 0.219269 0.755646
0.896790 0.243713 0.768707
1.000000 0.331268 0.742523
0.135956 0.316650 0.723328
0.224426 0.337921 0.744751
0.394836 0.381104 0.734070
0.615173 0.416962 0.725830
0.862457 0.417145 0.738251
1.000000 0.472961 0.731567
0.193970 0.465637 0.834686
0.283997 0.487000 0.843231
0.426941 0.526154 0.805573
0.564148 0.570129 0.784454
0.807281 0.610107 0.756012
1.000000 0.642334 0.735504
0.194977 0.648193 0.845245
0.283447 0.675018 0.854492
0.440491 0.706818 0.853394
0.585327 0.746704 0.853271
0.772858 0.805054 0.845825
1.000000 0.852142 0.823578
0.183960 0.938629 0.897705
0.265198 0.955780 0.895569
0.424866 0.958862 0.883881
0.572052 0.969086 0.872101
0.764679 0.989685 0.866699
0.992279 1.000000 0.905701
0.069305 0.034088 0.525757
0.239014 0.041229 0.810883
0.472809 0.066864 0.837646
0.692657 0.100128 0.866821
0.905457 0.152161 0.905731
1.000000 0.211639 0.868713
0.071320 0.129425 0.701477
0.205048 0.159454 0.792389
0.440552 0.194092 0.825256
0.659760 0.226379 0.853180
0.884430 0.257507 0.872833
1.000000 0.312225 0.852722
0.130829 0.304749 0.814758
0.214905 0.322754 0.853088
0.397919 0.374237 0.849579
0.618835 0.412262 0.849182
0.850250 0.421326 0.849243
1.000000 0.451813 0.849609
0.194000 0.453979 0.938446
0.276764 0.475830 0.952454
0.419403 0.515045 0.918091
0.556915 0.557343 0.904541
0.811554 0.604584 0.883942
1.000000 0.622681 0.854919
0.194977 0.630615 0.950439
0.280762 0.654938 0.968018
0.437073 0.688629 0.970520
0.580811 0.727478 0.975983
0.765503 0.787903 0.970917
1.000000 0.830292 0.935425
0.188599 0.822357 0.956818
0.265320 0.860809 0.968231
0.422760 0.891785 0.969208
0.568298 0.924530 0.974396
0.758148 0.963867 0.986816
1.000000 1.000000 1.000000
