Color Lookup Presets Effects/z1 (88).CUBE
#Created by: Adobe Photoshop Export Color Lookup Plugin
#Copyright: (C) Copyright 2015 www.zafizack.com
TITLE "zafizack-VG-14"
#LUT size
LUT_3D_SIZE 16
#data domain
DOMAIN_MIN 0.0 0.0 0.0
DOMAIN_MAX 1.0 1.0 1.0
#LUT data points
0.000000 0.000000 0.000000
0.084351 0.000000 0.000000
0.157715 0.000000 0.000000
0.229218 0.000336 0.000000
0.299255 0.004852 0.000000
0.368744 0.006104 0.000000
0.437744 0.005157 0.000000
0.506409 0.006622 0.000031
0.574554 0.018494 0.000031
0.642426 0.035645 0.000031
0.709869 0.054626 0.000031
0.777039 0.072021 0.000061
0.843903 0.087524 0.000061
0.910553 0.102448 0.000061
0.976898 0.115753 0.000092
1.000000 0.126678 0.000092
0.000000 0.016113 0.028870
0.119904 0.038269 0.021637
0.190308 0.052826 0.022278
0.259277 0.063538 0.018768
0.326599 0.073212 0.015900
0.393433 0.080383 0.011505
0.459839 0.086090 0.005646
0.525726 0.094269 0.000031
0.591156 0.108185 0.000031
0.656403 0.122314 0.000031
0.721222 0.136353 0.000031
0.785889 0.150269 0.000031
0.850311 0.163605 0.000061
0.914490 0.176605 0.000061
0.978455 0.188446 0.000061
1.000000 0.198730 0.000092
0.000000 0.075867 0.074127
0.099609 0.091125 0.063965
0.224304 0.112518 0.051331
0.290405 0.122742 0.049835
0.354919 0.131378 0.047913
0.418732 0.138550 0.045227
0.482239 0.145569 0.040894
0.545380 0.155884 0.034241
0.608215 0.168579 0.025238
0.670715 0.181580 0.015045
0.733063 0.194641 0.002777
0.795013 0.207581 0.000031
0.856873 0.220184 0.000061
0.918518 0.232117 0.000061
0.980042 0.243042 0.000061
1.000000 0.252930 0.000061
0.000000 0.134674 0.118622
0.077454 0.144165 0.110687
0.196259 0.161591 0.099945
0.322296 0.174072 0.082153
0.383820 0.182068 0.081970
0.444977 0.189392 0.080933
0.505737 0.197144 0.078888
0.566010 0.208282 0.075195
0.626007 0.219910 0.070313
0.685516 0.231964 0.064240
0.744934 0.243805 0.056366
0.804382 0.255432 0.046051
0.863586 0.266754 0.032440
0.922791 0.277527 0.016663
0.981781 0.287781 0.000061
1.000000 0.297302 0.000061
0.000000 0.191650 0.160950
0.051758 0.195343 0.152496
0.161255 0.206696 0.144287
0.297058 0.225159 0.132690
0.414063 0.226868 0.113098
0.472229 0.234100 0.112549
0.529999 0.242950 0.110992
0.587311 0.253326 0.108826
0.644318 0.264160 0.106201
0.701172 0.274994 0.102509
0.757813 0.285645 0.097748
0.814423 0.296173 0.091797
0.870728 0.306580 0.085205
0.927155 0.316559 0.076782
0.983459 0.325928 0.066528
1.000000 0.334656 0.053375
0.000000 0.247681 0.201050
0.020538 0.247253 0.192139
0.130554 0.252502 0.185638
0.257935 0.267365 0.176056
0.388153 0.276093 0.162323
0.500488 0.273987 0.141632
0.555237 0.282745 0.140442
0.609222 0.292328 0.139160
0.663239 0.301971 0.137177
0.717224 0.311676 0.134735
0.771088 0.321625 0.131744
0.824677 0.331329 0.128235
0.878174 0.340637 0.123932
0.931824 0.349609 0.118683
0.985443 0.358246 0.112762
1.000000 0.366516 0.106140
0.000000 0.302826 0.240295
0.000000 0.299011 0.232056
0.105713 0.299957 0.225006
0.214172 0.306427 0.218445
0.355316 0.322052 0.206268
0.474121 0.320435 0.190063
0.581329 0.317017 0.168274
0.632355 0.325867 0.167572
0.683258 0.334534 0.166290
0.734100 0.343170 0.164429
0.784698 0.352173 0.162720
0.835510 0.361053 0.160400
0.886139 0.369324 0.157410
0.936768 0.377533 0.154144
0.987427 0.385559 0.150635
1.000000 0.392944 0.146240
0.000000 0.357452 0.283264
0.000000 0.350494 0.273621
0.076294 0.347626 0.266174
0.183655 0.347992 0.259552
0.309113 0.358490 0.248901
0.443756 0.366852 0.234894
0.553864 0.359589 0.215973
0.656036 0.353821 0.194550
0.703827 0.361664 0.193756
0.751434 0.369537 0.192657
0.798920 0.377472 0.191589
0.846588 0.385345 0.190155
0.894226 0.393066 0.188354
0.941803 0.400452 0.186371
0.989655 0.407593 0.183868
1.000000 0.414459 0.181030
0.000000 0.411530 0.328979
0.000000 0.401611 0.318085
0.030304 0.395355 0.309021
0.156281 0.391174 0.300964
0.261963 0.393524 0.292694
0.401825 0.405853 0.277527
0.523651 0.402893 0.261902
0.627228 0.392670 0.241943
0.725067 0.383606 0.220337
0.769623 0.390717 0.219940
0.813812 0.397949 0.219391
0.858368 0.404846 0.218414
0.902863 0.411987 0.217712
0.947418 0.418518 0.216309
0.992218 0.424896 0.214630
1.000000 0.431244 0.213287
0.000000 0.465240 0.376251
0.000000 0.452454 0.363861
0.000000 0.443054 0.353180
0.125763 0.435577 0.343475
0.228851 0.432800 0.334259
0.348724 0.438660 0.321686
0.489166 0.445831 0.304840
0.596100 0.432617 0.287567
0.694641 0.419312 0.267242
0.788208 0.406830 0.246124
0.829224 0.413452 0.246246
0.870483 0.419464 0.245667
0.911713 0.425751 0.245453
0.953186 0.431732 0.244659
0.994781 0.437439 0.243896
1.000000 0.443115 0.243134
0.000000 0.518555 0.424896
0.000000 0.509399 0.412476
0.000000 0.503418 0.401337
0.069244 0.500519 0.390442
0.187134 0.500061 0.380219
0.286713 0.503174 0.369965
0.409088 0.510834 0.355804
0.546783 0.519409 0.336914
0.651672 0.511230 0.319641
0.747925 0.501068 0.297943
0.838531 0.491302 0.275391
0.877533 0.496399 0.274323
0.916168 0.501709 0.273468
0.955322 0.506744 0.272186
0.994385 0.511658 0.270935
1.000000 0.516479 0.269531
0.000000 0.572906 0.474915
0.000000 0.568390 0.462372
0.000000 0.567383 0.450714
0.000000 0.568115 0.439209
0.134705 0.569977 0.428101
0.238190 0.573700 0.417389
0.337463 0.579895 0.406281
0.460052 0.588013 0.391541
0.592560 0.597107 0.370697
0.700409 0.596527 0.351959
0.794067 0.589905 0.330414
0.883118 0.582581 0.306000
0.919403 0.586792 0.304413
0.956268 0.591034 0.302826
0.992920 0.595062 0.300873
1.000000 0.599060 0.298798
0.000000 0.632874 0.525635
0.000000 0.631836 0.513306
0.000000 0.634644 0.501495
0.000000 0.637970 0.489655
0.037964 0.642090 0.478058
0.182404 0.647339 0.466614
0.280457 0.654175 0.455139
0.382538 0.662415 0.443207
0.502930 0.671875 0.428131
0.630829 0.681335 0.405640
0.739227 0.687103 0.385254
0.834900 0.685516 0.363678
0.921295 0.681152 0.338654
0.955688 0.684692 0.336792
0.990173 0.687866 0.334412
1.000000 0.691284 0.332031
0.000000 0.695557 0.577454
0.000000 0.697601 0.565552
0.000000 0.703339 0.553864
0.000000 0.709534 0.542084
0.000000 0.716156 0.530090
0.096466 0.723633 0.518127
0.217896 0.732086 0.506073
0.315674 0.741516 0.493896
0.420624 0.751434 0.480804
0.536255 0.762390 0.465332
0.657074 0.773956 0.444885
0.772461 0.783356 0.421387
0.880249 0.788757 0.397614
0.953064 0.787292 0.373505
0.985382 0.790253 0.371460
1.000000 0.793060 0.369263
0.000000 0.759613 0.630646
0.000000 0.764832 0.619171
0.000000 0.773712 0.607849
0.000000 0.782806 0.596191
0.000000 0.792267 0.584229
0.000000 0.802185 0.571960
0.125702 0.812805 0.559448
0.241302 0.824188 0.546722
0.341797 0.835815 0.533508
0.449493 0.847443 0.519257
0.561584 0.860291 0.502869
0.682465 0.874756 0.483429
0.823517 0.889893 0.457489
0.918488 0.897552 0.432678
0.977631 0.899567 0.408356
1.000000 0.902557 0.406128
0.000000 0.825195 0.685272
0.000000 0.833649 0.674347
0.000000 0.845642 0.663422
0.000000 0.857880 0.652069
0.000000 0.870300 0.640259
0.000000 0.882996 0.628052
0.000000 0.896179 0.615387
0.133240 0.909851 0.602264
0.250854 0.924072 0.588684
0.360718 0.937408 0.574402
0.468445 0.950226 0.557281
0.590027 0.961639 0.531189
0.756287 0.978882 0.497986
0.877228 0.990814 0.464630
0.954926 0.997009 0.433502
1.000000 1.000000 0.404755
0.000000 0.000000 0.030579
0.088959 0.000000 0.047302
0.162384 0.000000 0.052429
0.233276 0.000000 0.055115
0.302856 0.000824 0.059692
0.371887 0.000946 0.063446
0.440582 0.000000 0.066376
0.508911 0.000000 0.068298
0.576721 0.010498 0.068329
0.644257 0.026428 0.066986
0.711426 0.045532 0.064148
0.778290 0.063721 0.060394
0.844879 0.079865 0.054626
0.911194 0.095184 0.049377
0.977203 0.108521 0.041412
1.000000 0.119385 0.031921
0.000000 0.019226 0.047607
0.069641 0.029297 0.050385
0.144745 0.050690 0.060577
0.219147 0.063019 0.061218
0.290588 0.073975 0.063263
0.361176 0.082733 0.064972
0.431152 0.089142 0.065369
0.500702 0.095734 0.064545
0.569611 0.108429 0.061249
0.638153 0.122742 0.056427
0.706268 0.137329 0.049500
0.774017 0.151611 0.040710
0.841522 0.165466 0.029114
0.908661 0.178925 0.017334
0.975555 0.191132 0.003479
1.000000 0.201843 0.000092
0.000000 0.080658 0.090851
0.054230 0.089478 0.095856
0.176636 0.110809 0.089020
0.248322 0.124451 0.091949
0.317535 0.134460 0.093109
0.385651 0.143005 0.094086
0.453125 0.150269 0.094452
0.520050 0.158539 0.093750
0.586273 0.171478 0.091766
0.652161 0.185089 0.089203
0.717621 0.198608 0.085510
0.782867 0.212006 0.080475
0.847778 0.224915 0.074402
0.912537 0.237244 0.066528
0.977020 0.248474 0.056061
1.000000 0.258667 0.042511
0.000000 0.138794 0.132690
0.031433 0.145416 0.137421
0.146454 0.160309 0.130493
0.278839 0.179016 0.121368
0.345673 0.188263 0.122437
0.411194 0.195831 0.123047
0.475677 0.203491 0.123566
0.539551 0.213776 0.123230
0.603058 0.225647 0.121948
0.666382 0.237885 0.119873
0.729279 0.250092 0.117096
0.791962 0.262146 0.113434
0.854401 0.273956 0.108856
0.916565 0.285278 0.103485
0.978577 0.295837 0.096985
1.000000 0.305664 0.088928
0.000000 0.195404 0.172302
0.005646 0.200073 0.176300
0.113281 0.208618 0.171265
0.243713 0.226196 0.162903
0.374756 0.235931 0.150665
0.437286 0.243408 0.151337
0.499146 0.251343 0.151672
0.560394 0.261688 0.151123
0.621124 0.272430 0.149933
0.681610 0.283386 0.148254
0.741577 0.294617 0.146271
0.801422 0.305725 0.143494
0.861145 0.316437 0.140045
0.920685 0.326691 0.135956
0.980164 0.336334 0.130951
1.000000 0.345276 0.124908
0.000000 0.250916 0.209961
0.000000 0.255096 0.213562
0.085938 0.258545 0.207947
0.200897 0.268707 0.202972
0.345245 0.287079 0.193665
0.464600 0.285583 0.178284
0.523407 0.293976 0.178070
0.581848 0.303284 0.177429
0.639771 0.313110 0.176575
0.697174 0.323303 0.175598
0.754395 0.333374 0.173889
0.811523 0.343262 0.171661
0.868500 0.352966 0.168915
0.925232 0.362457 0.166046
0.981934 0.371399 0.162689
1.000000 0.379822 0.158386
0.000000 0.305725 0.246857
0.000000 0.309509 0.251251
0.053558 0.308838 0.245361
0.167297 0.312683 0.240845
0.299774 0.326599 0.232513
0.434998 0.334778 0.221039
0.549164 0.331085 0.203857
0.604370 0.339386 0.203125
0.658936 0.348389 0.202545
0.713470 0.357513 0.201691
0.767883 0.366577 0.200409
0.822021 0.375488 0.198792
0.875824 0.384430 0.196899
0.929779 0.392944 0.194641
0.983765 0.401001 0.191803
1.000000 0.408783 0.188568
0.000000 0.359924 0.287750
0.000000 0.363342 0.292023
0.005096 0.359100 0.285034
0.139282 0.358307 0.279541
0.248993 0.362579 0.273926
0.396454 0.378906 0.261139
0.519073 0.376617 0.246918
0.627777 0.370209 0.228302
0.679138 0.378357 0.228058
0.730438 0.386475 0.227325
0.781860 0.394531 0.226288
0.832977 0.402985 0.225464
0.883881 0.410889 0.223938
0.934967 0.418488 0.222076
0.985962 0.425934 0.220123
1.000000 0.433105 0.217865
0.000000 0.413666 0.331238
0.000000 0.416809 0.335205
0.000000 0.409210 0.326599
0.107422 0.404602 0.319427
0.215668 0.403778 0.312836
0.343628 0.414001 0.302338
0.485016 0.422150 0.288300
0.596954 0.412323 0.271637
0.700195 0.403168 0.252899
0.748322 0.410431 0.252411
0.796356 0.417664 0.251678
0.844238 0.425171 0.251068
0.892303 0.432312 0.250031
0.940216 0.439148 0.248657
0.988159 0.445953 0.247345
1.000000 0.452484 0.245575
0.000000 0.467041 0.376129
0.000000 0.469879 0.379822
0.000000 0.459229 0.369690
0.062775 0.451294 0.360596
0.184235 0.447906 0.352264
0.293396 0.449799 0.343872
0.436768 0.458832 0.328644
0.563080 0.455078 0.314209
0.668030 0.441864 0.295807
0.766693 0.429382 0.276825
0.811401 0.435852 0.276245
0.856049 0.442413 0.275879
0.901001 0.448853 0.275208
0.945679 0.455017 0.274353
0.990601 0.461029 0.273315
1.000000 0.466736 0.272003
0.000000 0.519989 0.422333
0.000000 0.522583 0.425873
0.000000 0.516052 0.415314
0.000000 0.511841 0.405518
0.139923 0.511658 0.396149
0.245331 0.513885 0.387268
0.356140 0.520172 0.377441
0.500885 0.529358 0.359985
0.622620 0.529358 0.344360
0.724823 0.519897 0.325714
0.820801 0.510010 0.304901
0.862854 0.515503 0.303864
0.905426 0.520935 0.302521
0.947784 0.526245 0.301147
0.990234 0.531372 0.299438
1.000000 0.536438 0.297668
0.000000 0.574127 0.469910
0.000000 0.578583 0.472870
0.000000 0.576355 0.462067
0.000000 0.576691 0.451752
0.069794 0.578491 0.441650
0.197021 0.581970 0.432037
0.298492 0.587616 0.422455
0.414703 0.595825 0.411285
0.554810 0.605286 0.392242
0.673889 0.609955 0.375061
0.774902 0.604767 0.356598
0.868469 0.597839 0.334625
0.908630 0.602234 0.332642
0.948669 0.606812 0.330719
0.988953 0.610840 0.328156
1.000000 0.615295 0.326111
0.000000 0.633881 0.518066
0.000000 0.638092 0.520782
0.000000 0.639465 0.510010
0.000000 0.643005 0.499542
0.000000 0.647217 0.489044
0.132996 0.652527 0.478699
0.243896 0.659302 0.468689
0.345825 0.667664 0.458344
0.464081 0.677216 0.446075
0.596222 0.687897 0.427673
0.717285 0.696442 0.407654
0.819122 0.696472 0.388000
0.909821 0.692749 0.365906
0.948151 0.696442 0.363434
0.985901 0.699951 0.360718
1.000000 0.703491 0.357849
0.000000 0.696167 0.567413
0.000000 0.700073 0.569885
0.000000 0.704376 0.559387
0.000000 0.710876 0.548981
0.000000 0.717834 0.538361
0.000000 0.725403 0.527649
0.175629 0.734009 0.516937
0.281250 0.743713 0.506104
0.386932 0.754181 0.494843
0.504852 0.765442 0.481476
0.629456 0.777740 0.464417
0.753265 0.788330 0.441864
0.867920 0.795502 0.420502
0.945313 0.794983 0.398651
0.981415 0.798187 0.396210
1.000000 0.801300 0.393524
0.000000 0.759888 0.617981
0.000000 0.763489 0.620270
0.000000 0.770844 0.610138
0.000000 0.780334 0.599884
0.000000 0.790131 0.589386
0.000000 0.800354 0.578522
0.049042 0.811279 0.567505
0.204529 0.822968 0.556213
0.308380 0.835419 0.544525
0.420593 0.847382 0.532074
0.536011 0.860565 0.517639
0.661835 0.875671 0.500427
0.809143 0.891876 0.476471
0.910095 0.900116 0.452789
0.973694 0.902557 0.430176
1.000000 0.905884 0.427368
0.000000 0.825195 0.669952
0.000000 0.828430 0.671967
0.000000 0.838806 0.662384
0.000000 0.851410 0.652588
0.000000 0.864288 0.642273
0.000000 0.877380 0.631500
0.000000 0.890991 0.620361
0.069092 0.905060 0.608704
0.219513 0.919647 0.596649
0.333466 0.933899 0.583893
0.445465 0.947388 0.568848
0.570099 0.959656 0.545715
0.741577 0.977264 0.514496
0.868256 0.989990 0.482910
0.950958 0.996765 0.453461
1.000000 1.000000 0.426697
0.000000 0.000000 0.082184
0.088959 0.000000 0.099823
0.166901 0.000000 0.106812
0.237335 0.000000 0.113373
0.306427 0.000000 0.121338
0.375092 0.000000 0.128815
0.443359 0.000000 0.135651
0.511322 0.000000 0.141663
0.578827 0.003387 0.146759
0.646057 0.018311 0.151123
0.712860 0.036926 0.154999
0.779480 0.056213 0.158478
0.845764 0.072632 0.161285
0.911774 0.088165 0.164642
0.977570 0.101288 0.167694
1.000000 0.112213 0.170502
0.000000 0.019226 0.099121
0.069611 0.029205 0.103516
0.149719 0.047699 0.116241
0.223450 0.058838 0.119476
0.294373 0.069733 0.125244
0.364471 0.078064 0.130859
0.434021 0.084229 0.135803
0.503204 0.090698 0.139923
0.571777 0.103577 0.143066
0.639984 0.117859 0.145508
0.707825 0.132324 0.147369
0.775299 0.146515 0.149048
0.842438 0.160248 0.150513
0.909332 0.173737 0.152191
0.975922 0.185913 0.153564
1.000000 0.196625 0.154388
0.000000 0.085327 0.112000
0.055969 0.094574 0.117493
0.127411 0.106140 0.121490
0.205139 0.125153 0.129303
0.279755 0.137207 0.132660
0.352112 0.147003 0.135895
0.423431 0.154755 0.138824
0.494049 0.162476 0.141266
0.563904 0.174744 0.142761
0.633301 0.188385 0.143829
0.702118 0.202209 0.144440
0.770599 0.216095 0.144440
0.838715 0.229370 0.144012
0.906525 0.242004 0.143311
0.973969 0.253784 0.141846
1.000000 0.264313 0.139954
0.000000 0.142914 0.151154
0.032806 0.149811 0.156281
0.098694 0.160004 0.162567
0.231842 0.180420 0.156830
0.305847 0.193512 0.160400
0.376129 0.202393 0.162659
0.445068 0.210266 0.164642
0.513092 0.219299 0.166382
0.580475 0.231323 0.167480
0.647278 0.243713 0.168152
0.713531 0.256500 0.168549
0.779419 0.269073 0.168396
0.845062 0.281281 0.167877
0.910339 0.292938 0.166962
0.975433 0.303833 0.165436
1.000000 0.313812 0.163544
0.000000 0.198975 0.188141
0.006439 0.204010 0.192291
0.068878 0.212067 0.198090
0.190643 0.226654 0.194000
0.333344 0.244293 0.187134
0.401398 0.252625 0.188965
0.467834 0.260376 0.190216
0.532928 0.269989 0.191406
0.597412 0.280914 0.192139
0.661499 0.292206 0.192535
0.725159 0.303589 0.192505
0.788452 0.314911 0.192200
0.851532 0.325989 0.191498
0.914398 0.336639 0.190460
0.976929 0.346741 0.189056
1.000000 0.356171 0.187256
0.000000 0.254150 0.223297
0.000000 0.258514 0.227112
0.034607 0.265442 0.232330
0.152344 0.272461 0.229828
0.292480 0.290070 0.223938
0.427795 0.297485 0.214142
0.491180 0.305359 0.215302
0.553741 0.314758 0.216034
0.615479 0.324524 0.216400
0.676819 0.334656 0.216583
0.737701 0.344849 0.216339
0.798187 0.355316 0.216156
0.858459 0.365417 0.215637
0.918549 0.375214 0.214752
0.978424 0.384399 0.213379
1.000000 0.393036 0.211578
0.000000 0.308594 0.257935
0.000000 0.312531 0.262695
0.000000 0.318542 0.268341
0.123505 0.320618 0.264923
0.242462 0.329590 0.261475
0.393738 0.347900 0.252563
0.515625 0.345215 0.239502
0.575195 0.353668 0.239960
0.634247 0.362488 0.240173
0.692688 0.371643 0.240265
0.750488 0.381042 0.240326
0.808197 0.390320 0.240021
0.865662 0.399445 0.239471
0.923004 0.408203 0.238525
0.980164 0.416748 0.237335
1.000000 0.424774 0.235901
0.000000 0.362396 0.296967
0.000000 0.366028 0.301483
0.000000 0.371307 0.306854
0.090607 0.369232 0.302155
0.204987 0.371674 0.298309
0.341949 0.385529 0.289703
0.482483 0.393402 0.279053
0.598175 0.387177 0.263763
0.654053 0.395081 0.263702
0.709229 0.403534 0.263947
0.764191 0.411987 0.264038
0.818939 0.420349 0.263611
0.873474 0.428497 0.262909
0.927734 0.436554 0.262329
0.982056 0.444244 0.261353
1.000000 0.451599 0.260040
0.000000 0.415802 0.338104
0.000000 0.419098 0.342346
0.000000 0.423737 0.347229
0.041534 0.418152 0.340851
0.172974 0.416351 0.335297
0.287201 0.421753 0.329437
0.438690 0.435760 0.316620
0.564819 0.432190 0.303589
0.674591 0.422607 0.286865
0.726410 0.430267 0.286957
0.778229 0.437805 0.286926
0.830017 0.445313 0.286621
0.881348 0.452728 0.286224
0.932739 0.459900 0.285675
0.984161 0.466797 0.284821
1.000000 0.473480 0.283813
0.000000 0.468811 0.380646
0.000000 0.471802 0.384674
0.000000 0.475922 0.389099
0.000000 0.467743 0.380798
0.138153 0.461731 0.373474
0.248566 0.462891 0.366547
0.379028 0.470276 0.356262
0.527100 0.476898 0.341858
0.640533 0.464447 0.326874
0.744659 0.451904 0.309631
0.793121 0.458588 0.309601
0.841705 0.465332 0.309418
0.889893 0.472107 0.309326
0.938171 0.478485 0.308807
0.986572 0.484680 0.308136
1.000000 0.490845 0.307465
0.000000 0.521484 0.424561
0.000000 0.524170 0.428253
0.000000 0.528656 0.432251
0.000000 0.525604 0.423248
0.080780 0.523682 0.415009
0.204529 0.525360 0.407196
0.312408 0.530243 0.399536
0.450684 0.539398 0.386780
0.591461 0.546936 0.370575
0.701141 0.538605 0.355621
0.802216 0.528992 0.337128
0.848480 0.534546 0.336090
0.894318 0.540466 0.335388
0.940216 0.545898 0.334198
0.986176 0.551239 0.332764
1.000000 0.556549 0.331512
0.000000 0.575317 0.469666
0.000000 0.580109 0.472870
0.000000 0.584991 0.476318
0.000000 0.585602 0.467041
0.000000 0.587433 0.458160
0.151367 0.590515 0.449524
0.261383 0.595978 0.441467
0.372284 0.603668 0.432739
0.510803 0.613678 0.418701
0.646912 0.622894 0.401093
0.754669 0.619629 0.385010
0.853668 0.613007 0.365417
0.897339 0.617859 0.364014
0.941101 0.622467 0.362183
0.984619 0.626953 0.360229
1.000000 0.631470 0.358124
0.000000 0.634827 0.515320
0.000000 0.639343 0.518341
0.000000 0.644348 0.521362
0.000000 0.648254 0.512146
0.000000 0.652679 0.502838
0.065674 0.658020 0.493805
0.204559 0.664673 0.484924
0.310944 0.673187 0.476105
0.427094 0.682922 0.466309
0.560425 0.694092 0.452087
0.691986 0.704041 0.432587
0.803284 0.707184 0.414856
0.898438 0.704224 0.395447
0.940247 0.708282 0.393219
0.981689 0.712036 0.390747
1.000000 0.715668 0.388092
0.000000 0.696869 0.562164
0.000000 0.701111 0.564880
0.000000 0.705475 0.567627
0.000000 0.712372 0.558563
0.000000 0.719574 0.549377
0.000000 0.727448 0.539886
0.126740 0.736206 0.530518
0.246735 0.746124 0.521210
0.352570 0.757019 0.511475
0.473480 0.768524 0.500366
0.601685 0.781372 0.485901
0.732788 0.793213 0.465607
0.855530 0.802307 0.446167
0.937561 0.802521 0.426270
0.977295 0.806122 0.424164
1.000000 0.809509 0.421753
0.000000 0.760284 0.610229
0.000000 0.764252 0.612671
0.000000 0.768127 0.615173
0.000000 0.777893 0.606384
0.000000 0.788116 0.597351
0.000000 0.798706 0.587921
0.000000 0.809906 0.578186
0.163971 0.821869 0.568237
0.278137 0.834808 0.558197
0.391907 0.847443 0.547516
0.510620 0.860901 0.535187
0.640991 0.876556 0.520111
0.794800 0.893860 0.498260
0.901611 0.902771 0.475800
0.969818 0.905609 0.454803
1.000000 0.909210 0.452057
0.000000 0.825195 0.659546
0.000000 0.828796 0.661835
0.000000 0.832428 0.664124
0.000000 0.845001 0.655731
0.000000 0.858276 0.647003
0.000000 0.871826 0.637787
0.000000 0.885773 0.627991
0.000000 0.900208 0.617828
0.184875 0.915314 0.607330
0.305298 0.930359 0.596191
0.422150 0.944641 0.583221
0.550385 0.957886 0.563110
0.726776 0.975739 0.533783
0.859283 0.989197 0.504028
0.947021 0.996429 0.476440
1.000000 1.000000 0.451569
0.000000 0.000000 0.132690
0.088959 0.000000 0.150482
0.166901 0.000000 0.158234
0.241394 0.000000 0.166260
0.309967 0.000000 0.175781
0.378326 0.000000 0.184784
0.446228 0.000000 0.193268
0.513794 0.000000 0.201019
0.580933 0.000000 0.208282
0.647858 0.010559 0.215118
0.714417 0.027893 0.221680
0.780609 0.047852 0.228027
0.846649 0.064972 0.234039
0.912384 0.081085 0.240570
0.977905 0.094330 0.246735
1.000000 0.105103 0.252594
0.000000 0.019226 0.149597
0.069550 0.029083 0.154388
0.149689 0.047546 0.167816
0.227814 0.054382 0.172119
0.298096 0.065277 0.179749
0.367828 0.073547 0.187073
0.436981 0.079193 0.193878
0.505768 0.085724 0.200012
0.574005 0.098877 0.205505
0.641846 0.113312 0.210846
0.709320 0.127655 0.215729
0.776520 0.141846 0.220734
0.843353 0.155518 0.225647
0.909973 0.168976 0.230927
0.976288 0.181061 0.236115
1.000000 0.191681 0.240906
0.000000 0.085327 0.163147
0.055786 0.094421 0.168915
0.127228 0.105896 0.173553
0.210266 0.122314 0.182678
0.283813 0.133698 0.187195
0.355652 0.143219 0.192230
0.426483 0.150940 0.197235
0.496704 0.158447 0.201813
0.566162 0.170837 0.206055
0.635193 0.184631 0.210052
0.703735 0.198334 0.213959
0.771881 0.212006 0.217682
0.839661 0.225250 0.221344
0.907196 0.237915 0.224915
0.974335 0.249573 0.228241
1.000000 0.260071 0.231262
0.000000 0.147095 0.173798
0.034058 0.154114 0.179169
0.102997 0.164795 0.185944
0.181732 0.178925 0.190552
0.264435 0.197540 0.197083
0.340607 0.208649 0.200836
0.413971 0.217163 0.204254
0.486115 0.225586 0.207458
0.557159 0.237335 0.210236
0.627594 0.249908 0.212799
0.697388 0.262970 0.215027
0.766693 0.275818 0.217194
0.835571 0.288330 0.219055
0.904083 0.300354 0.220703
0.972229 0.311615 0.221954
1.000000 0.321899 0.222900
0.000000 0.202667 0.208252
0.007233 0.207764 0.212677
0.073273 0.216370 0.218872
0.139038 0.227234 0.226013
0.286896 0.248718 0.222351
0.363647 0.261414 0.226257
0.435089 0.269836 0.228912
0.504913 0.278748 0.231110
0.573578 0.289459 0.233032
0.641479 0.300873 0.234863
0.708801 0.312469 0.236542
0.775543 0.324341 0.238159
0.841888 0.335876 0.239532
0.907867 0.346924 0.240540
0.973541 0.357330 0.241302
1.000000 0.366882 0.241577
0.000000 0.257355 0.241028
0.000000 0.261993 0.245056
0.040070 0.269409 0.250702
0.110046 0.278412 0.257507
0.238617 0.292206 0.255981
0.388458 0.308929 0.250549
0.457764 0.317291 0.252960
0.525024 0.325989 0.254547
0.590790 0.335907 0.256104
0.655914 0.346283 0.257538
0.720459 0.356812 0.258759
0.784576 0.367401 0.259857
0.848328 0.377808 0.260620
0.911774 0.387787 0.261108
0.974945 0.397247 0.261322
1.000000 0.406128 0.261108
0.000000 0.311340 0.273590
0.000000 0.315582 0.278687
0.000000 0.322052 0.284821
0.077332 0.329651 0.291656
0.195496 0.335358 0.290680
0.342041 0.353241 0.284790
0.481476 0.359344 0.276398
0.545685 0.367889 0.277863
0.608826 0.376892 0.278961
0.671204 0.386139 0.279938
0.733063 0.395569 0.280731
0.794464 0.405029 0.281250
0.855408 0.414459 0.281860
0.916016 0.423767 0.282196
0.976440 0.432526 0.282288
1.000000 0.440674 0.281982
