Color Lookup Presets Effects/z1 (81).CUBE
#Created by: Adobe Photoshop Export Color Lookup Plugin
#Copyright: (C) Copyright 2015 www.zafizack.com
TITLE "zafizack-wd-01.JPG"
#LUT size
LUT_3D_SIZE 16
#data domain
DOMAIN_MIN 0.0 0.0 0.0
DOMAIN_MAX 1.0 1.0 1.0
#LUT data points
0.125153 0.081940 0.114899
0.135193 0.084259 0.116364
0.258087 0.103485 0.125549
0.390747 0.124542 0.129913
0.493591 0.153320 0.155792
0.588684 0.179901 0.184387
0.678467 0.221436 0.207428
0.760651 0.255554 0.227386
0.814514 0.275299 0.240387
0.851807 0.287811 0.249542
0.886261 0.298767 0.257843
0.918610 0.308868 0.267395
0.949829 0.317871 0.276672
0.979980 0.325989 0.285645
1.000000 0.333649 0.294800
1.000000 0.341766 0.304596
0.123535 0.087738 0.117371
0.131744 0.089539 0.117615
0.255341 0.111664 0.127716
0.389069 0.132904 0.130646
0.492188 0.162079 0.155914
0.587189 0.187866 0.183868
0.677460 0.227966 0.207275
0.759979 0.261047 0.227112
0.813934 0.280334 0.240021
0.851349 0.292633 0.249146
0.885864 0.303345 0.257446
0.918274 0.313324 0.266663
0.949677 0.322235 0.275604
0.979767 0.330292 0.284637
1.000000 0.337891 0.293579
1.000000 0.345856 0.303375
0.093353 0.155365 0.140228
0.100067 0.157257 0.140869
0.195770 0.177002 0.142914
0.357697 0.219666 0.151733
0.468384 0.245148 0.165405
0.563599 0.265198 0.187653
0.655975 0.291107 0.206970
0.740875 0.315887 0.224731
0.806915 0.333923 0.237946
0.845795 0.343872 0.246582
0.881165 0.352570 0.254517
0.914490 0.359680 0.261749
0.946594 0.366913 0.269104
0.977417 0.373993 0.276398
1.000000 0.380371 0.283875
1.000000 0.387329 0.292267
0.046356 0.235687 0.159088
0.051575 0.237213 0.159698
0.106445 0.255463 0.162506
0.261749 0.287506 0.159637
0.425018 0.332397 0.194580
0.526520 0.345856 0.205383
0.620270 0.362335 0.218048
0.706390 0.380859 0.230133
0.782440 0.397705 0.241364
0.837250 0.410828 0.250732
0.873810 0.420013 0.258942
0.908234 0.428284 0.266693
0.941437 0.434204 0.272400
0.973511 0.439667 0.277588
1.000000 0.445618 0.283630
1.000000 0.452820 0.291321
0.009674 0.311340 0.181427
0.014038 0.312408 0.181885
0.063629 0.325348 0.187561
0.132996 0.342072 0.189087
0.321686 0.376129 0.194427
0.481110 0.420135 0.221680
0.579651 0.431091 0.241211
0.670593 0.443176 0.244843
0.750214 0.456818 0.250641
0.819611 0.470520 0.256226
0.866455 0.481079 0.260712
0.901978 0.489777 0.265869
0.936096 0.498138 0.271545
0.968933 0.506287 0.277740
1.000000 0.513977 0.283539
1.000000 0.523041 0.291107
0.000000 0.374512 0.205139
0.000000 0.375122 0.206177
0.030212 0.384430 0.215485
0.094269 0.395966 0.220398
0.191742 0.415100 0.218445
0.373810 0.447418 0.229614
0.533630 0.499908 0.245300
0.630035 0.509033 0.265076
0.714691 0.520386 0.268066
0.789093 0.532166 0.268494
0.854340 0.544189 0.270111
0.895264 0.552856 0.271820
0.930542 0.560699 0.274078
0.964386 0.568573 0.276978
0.997284 0.575806 0.280548
1.000000 0.584351 0.286102
0.000000 0.426239 0.235443
0.000000 0.426788 0.236542
0.000000 0.433685 0.247253
0.069733 0.443634 0.252533
0.136841 0.454987 0.254456
0.256104 0.478485 0.247375
0.417603 0.514191 0.258484
0.579254 0.571198 0.267639
0.677643 0.584076 0.275116
0.756653 0.594635 0.283966
0.826935 0.605072 0.283020
0.883362 0.614319 0.281860
0.924408 0.622162 0.282043
0.959503 0.629059 0.282349
0.993225 0.635834 0.282562
1.000000 0.643585 0.285248
0.000000 0.470428 0.265442
0.000000 0.470886 0.266327
0.000000 0.477448 0.275513
0.040497 0.485718 0.281982
0.111145 0.496429 0.283722
0.198578 0.515564 0.279938
0.315491 0.546661 0.274231
0.460663 0.581635 0.280365
0.623138 0.634674 0.283417
0.723145 0.652832 0.281677
0.799408 0.662781 0.290710
0.866913 0.672455 0.293152
0.916351 0.680115 0.292023
0.954315 0.686249 0.290619
0.989075 0.692230 0.289337
1.000000 0.699219 0.289001
0.000000 0.509460 0.291382
0.000000 0.509949 0.292267
0.000000 0.517120 0.300049
0.006317 0.525818 0.307037
0.087708 0.537872 0.308228
0.152588 0.553009 0.306030
0.254883 0.583008 0.294800
0.369812 0.614349 0.294464
0.515228 0.646484 0.296570
0.669312 0.693207 0.295258
0.769440 0.715210 0.292816
0.844116 0.725189 0.295349
0.903748 0.733154 0.297974
0.948853 0.739685 0.298248
0.984772 0.745239 0.297760
1.000000 0.751343 0.296173
0.000000 0.546326 0.313904
0.000000 0.546783 0.314636
0.000000 0.556519 0.321106
0.000000 0.567596 0.327057
0.057800 0.580566 0.329254
0.126923 0.594513 0.327240
0.212860 0.618530 0.319611
0.306030 0.649506 0.303650
0.431091 0.678955 0.310089
0.574463 0.707916 0.308380
0.717712 0.748749 0.304596
0.817169 0.772491 0.301575
0.890656 0.782776 0.299591
0.943176 0.789307 0.301941
0.980316 0.794373 0.302063
1.000000 0.800201 0.300629
0.000000 0.585602 0.332977
0.000000 0.586517 0.333618
0.000000 0.597961 0.339050
0.000000 0.609711 0.344208
0.015991 0.621948 0.348175
0.102692 0.635742 0.346069
0.175476 0.654083 0.340607
0.266449 0.683533 0.327209
0.367218 0.712738 0.318756
0.499542 0.739929 0.321594
0.635803 0.765961 0.317322
0.767853 0.801910 0.312439
0.866241 0.826141 0.309052
0.932648 0.836395 0.304688
0.975677 0.841583 0.306000
1.000000 0.847015 0.305359
0.000000 0.626282 0.349915
0.000000 0.627228 0.350525
0.000000 0.638855 0.355469
0.000000 0.650848 0.359985
0.000000 0.662842 0.364227
0.072845 0.676056 0.363617
0.142700 0.690887 0.359161
0.231537 0.717590 0.348206
0.315125 0.746368 0.330627
0.436127 0.772217 0.330963
0.569946 0.797668 0.330383
0.697845 0.820953 0.324615
0.818787 0.853088 0.319611
0.912140 0.877441 0.316467
0.970764 0.888092 0.312592
1.000000 0.893311 0.309998
0.000000 0.666534 0.365784
0.000000 0.667511 0.366302
0.000000 0.679352 0.370758
0.000000 0.691376 0.374847
0.000000 0.703552 0.378571
0.027893 0.715973 0.380493
0.113495 0.729462 0.376312
0.197693 0.751953 0.367432
0.279724 0.779633 0.352631
0.379425 0.805176 0.339020
0.509583 0.829102 0.340424
0.639740 0.852661 0.337677
0.758789 0.873657 0.331146
0.870605 0.903503 0.326599
0.956177 0.923370 0.319824
1.000000 0.930603 0.314728
0.000000 0.707092 0.380981
0.000000 0.708069 0.381500
0.000000 0.720032 0.385468
0.000000 0.732147 0.389221
0.000000 0.744354 0.392609
0.000000 0.756378 0.395660
0.081696 0.769379 0.393066
0.161987 0.787170 0.386047
0.246155 0.813385 0.373108
0.329407 0.838776 0.353363
0.452881 0.861328 0.349548
0.581818 0.883728 0.348572
0.705811 0.905609 0.344177
0.818481 0.922699 0.333557
0.929413 0.946655 0.321228
1.000000 0.955231 0.307922
0.000000 0.746429 0.395325
0.000000 0.747437 0.395752
0.000000 0.759491 0.399658
0.000000 0.771667 0.403076
0.000000 0.783813 0.406097
0.000000 0.795837 0.408936
0.034698 0.808044 0.409424
0.123474 0.822174 0.403900
0.213989 0.846893 0.392365
0.293488 0.871674 0.375916
0.401154 0.893341 0.357941
0.532654 0.912842 0.354736
0.659790 0.932404 0.348480
0.778961 0.950043 0.337494
0.883484 0.963379 0.322723
0.995331 0.977356 0.302399
0.000000 0.781281 0.407837
0.000000 0.782288 0.408356
0.000000 0.794373 0.412048
0.000000 0.806580 0.415375
0.000000 0.818634 0.418304
0.000000 0.830658 0.420898
0.000000 0.842560 0.423035
0.087372 0.854858 0.419403
0.186279 0.877686 0.408936
0.265350 0.901886 0.394531
0.359772 0.923187 0.368286
0.493652 0.940338 0.360962
0.626587 0.955261 0.348206
0.751129 0.970734 0.333099
0.860748 0.984650 0.317139
0.954681 0.995361 0.301788
0.125244 0.081482 0.119934
0.135284 0.083801 0.121460
0.258118 0.103210 0.131653
0.390747 0.124420 0.137238
0.493591 0.153229 0.163727
0.588684 0.179810 0.192444
0.678711 0.220032 0.213745
0.760803 0.254181 0.233521
0.814606 0.273956 0.246368
0.851868 0.286469 0.255615
0.886322 0.297394 0.264160
0.918640 0.307526 0.273621
0.949829 0.316498 0.282837
0.980011 0.324646 0.291779
1.000000 0.332336 0.300873
1.000000 0.340515 0.310822
0.123627 0.087189 0.122620
0.131836 0.089020 0.122803
0.255432 0.111359 0.133911
0.389252 0.132324 0.137787
0.492615 0.160522 0.162689
0.587830 0.186462 0.190704
0.677795 0.226501 0.213043
0.760162 0.259888 0.232727
0.814026 0.279205 0.245544
0.851410 0.291473 0.254791
0.885925 0.302124 0.263214
0.918304 0.312073 0.272522
0.949677 0.320953 0.281586
0.979797 0.329041 0.290466
1.000000 0.336639 0.299500
1.000000 0.344696 0.309326
0.093109 0.155914 0.146210
0.099701 0.157715 0.147003
0.196045 0.177643 0.150055
0.357880 0.219177 0.158539
0.468689 0.244385 0.171844
0.563843 0.264343 0.194061
0.656219 0.290161 0.213440
0.741516 0.314575 0.230927
0.807404 0.331879 0.243622
0.846039 0.341309 0.251740
0.881409 0.349579 0.259216
0.914673 0.356934 0.266571
0.946747 0.364502 0.274017
0.977478 0.371704 0.281311
1.000000 0.378296 0.289063
1.000000 0.385651 0.297607
0.046082 0.236206 0.165314
0.051239 0.237701 0.165985
0.106110 0.255798 0.169800
0.262268 0.288300 0.166412
0.425262 0.332092 0.200836
0.526733 0.345520 0.211304
0.620514 0.361786 0.223724
0.706696 0.380219 0.235962
0.782745 0.396973 0.247253
0.837311 0.409973 0.257019
0.873871 0.419098 0.265381
0.908295 0.427307 0.273254
0.941528 0.432678 0.278473
0.973572 0.437897 0.283417
1.000000 0.443359 0.289093
1.000000 0.450073 0.296204
0.009460 0.311829 0.187500
0.013824 0.312836 0.188019
0.063477 0.325714 0.194092
0.133545 0.342651 0.196625
0.321930 0.376831 0.200653
0.481323 0.420013 0.227631
0.579865 0.430786 0.246521
0.670837 0.442810 0.249847
0.750488 0.456360 0.255768
0.819824 0.469971 0.261841
0.866516 0.480408 0.266693
0.902008 0.489044 0.272217
0.936157 0.497314 0.277924
0.968964 0.505524 0.284149
1.000000 0.513123 0.290131
1.000000 0.522186 0.297913
0.000000 0.374878 0.211060
0.000000 0.375488 0.211975
0.029999 0.384766 0.221527
0.094147 0.396332 0.226776
0.192352 0.415588 0.225647
0.374023 0.448059 0.235016
0.533905 0.499817 0.249878
0.630249 0.508911 0.270142
0.714844 0.520172 0.272705
0.789337 0.531830 0.273438
0.854401 0.543762 0.275299
0.895355 0.552368 0.277618
0.930573 0.560181 0.280182
0.964417 0.567963 0.283234
0.997284 0.575134 0.286896
1.000000 0.583710 0.292694
0.000000 0.426605 0.241089
0.000000 0.427094 0.242035
0.000000 0.434021 0.252594
0.069611 0.443909 0.258057
0.137177 0.455414 0.260254
0.255066 0.479034 0.252441
0.417847 0.514771 0.263214
0.579712 0.571320 0.271851
0.677856 0.583923 0.279785
0.756775 0.594543 0.288635
0.827087 0.604828 0.287689
0.883392 0.613983 0.286865
0.924469 0.621765 0.287415
0.959503 0.628632 0.287994
0.993225 0.635284 0.288544
1.000000 0.642975 0.291718
0.000000 0.470642 0.270538
0.000000 0.471130 0.271301
0.000000 0.477692 0.280273
0.040314 0.485992 0.286835
0.111053 0.496674 0.288757
0.198730 0.515869 0.285431
0.314880 0.547241 0.278809
0.460938 0.582214 0.284790
0.623535 0.634888 0.287567
0.723358 0.652710 0.285675
0.799530 0.662598 0.295135
0.867065 0.672333 0.297577
0.916382 0.679810 0.296875
0.954346 0.685974 0.295624
0.989075 0.691895 0.294586
1.000000 0.698822 0.294922
0.000000 0.509705 0.296021
0.000000 0.510162 0.296875
0.000000 0.517334 0.304565
0.005951 0.526123 0.311462
0.087555 0.538177 0.312805
0.152344 0.553253 0.310883
0.255005 0.583374 0.300201
0.369263 0.614899 0.298737
0.515747 0.647095 0.300659
0.669647 0.693329 0.299347
0.769653 0.715118 0.296753
0.844269 0.724976 0.299683
0.903809 0.732971 0.302338
0.948883 0.739441 0.302917
0.984772 0.744873 0.302551
1.000000 0.751068 0.301453
0.000000 0.546539 0.318085
0.000000 0.546997 0.318909
0.000000 0.556763 0.325226
0.000000 0.567871 0.331146
0.057648 0.580780 0.333466
0.126801 0.594818 0.331665
0.212585 0.618652 0.324402
0.305481 0.649841 0.308472
0.430878 0.679382 0.314056
0.574982 0.708435 0.312256
0.718018 0.748901 0.308746
0.817352 0.772430 0.305634
0.890747 0.782593 0.303955
0.943176 0.789154 0.306458
0.980316 0.794159 0.306641
1.000000 0.799957 0.305389
0.000000 0.585846 0.337067
0.000000 0.586700 0.337677
0.000000 0.598175 0.343048
0.000000 0.609894 0.348236
0.015778 0.622162 0.352142
0.102539 0.635956 0.350159
0.174988 0.654144 0.345032
0.266144 0.683655 0.332214
0.366058 0.713043 0.322632
0.499298 0.740387 0.325500
0.636292 0.766388 0.321289
0.768127 0.802063 0.316559
0.866394 0.826080 0.313232
0.932739 0.836243 0.308838
0.975677 0.841370 0.310455
1.000000 0.846832 0.309937
0.000000 0.626495 0.353851
0.000000 0.627472 0.354401
0.000000 0.639099 0.359222
0.000000 0.651031 0.363861
0.000000 0.663116 0.368042
0.072662 0.676300 0.367584
0.142548 0.691132 0.363312
0.231140 0.717712 0.352722
0.314728 0.746460 0.335876
0.435120 0.772522 0.334808
0.569550 0.798035 0.334442
0.697937 0.821381 0.328705
0.819092 0.853241 0.323853
0.912262 0.877441 0.320770
0.970764 0.888000 0.316956
1.000000 0.893066 0.314362
0.000000 0.666779 0.369598
0.000000 0.667725 0.370117
0.000000 0.679596 0.374512
0.000000 0.691650 0.378632
0.000000 0.703796 0.382355
0.027466 0.716248 0.384216
0.113342 0.729645 0.380310
0.197235 0.752075 0.371796
0.279358 0.779694 0.357513
0.377686 0.805420 0.342926
0.508575 0.829315 0.344482
0.639374 0.852936 0.341827
0.758850 0.873962 0.335358
0.870789 0.903625 0.331024
0.956390 0.923340 0.324310
1.000000 0.930542 0.319275
0.000000 0.707336 0.384674
0.000000 0.708313 0.385254
0.000000 0.720337 0.389221
0.000000 0.732422 0.392944
0.000000 0.744537 0.396362
0.000000 0.756683 0.399384
0.081512 0.769592 0.396973
0.161438 0.787323 0.390228
0.245758 0.813599 0.377777
0.328949 0.839020 0.358643
0.451416 0.861572 0.353577
0.580963 0.884003 0.352722
0.705505 0.905914 0.348480
0.818542 0.922974 0.337891
0.929565 0.946747 0.325775
1.000000 0.955170 0.312531
0.000000 0.746674 0.399078
0.000000 0.747681 0.399536
0.000000 0.759827 0.403351
0.000000 0.771942 0.406860
0.000000 0.784058 0.409912
0.000000 0.796082 0.412689
0.034241 0.808411 0.413300
0.122833 0.822357 0.407990
0.213501 0.847046 0.396851
0.292969 0.871857 0.380981
0.399231 0.893646 0.361938
0.531342 0.913025 0.358887
0.659180 0.932648 0.352692
0.778595 0.950256 0.341797
0.883545 0.963623 0.327209
0.995331 0.977325 0.307190
0.000000 0.781281 0.411560
0.000000 0.782288 0.411987
0.000000 0.794373 0.415710
0.000000 0.806580 0.419067
0.000000 0.818634 0.421997
0.000000 0.830658 0.424561
0.000000 0.842560 0.426758
0.087372 0.854858 0.423340
0.186249 0.877716 0.413177
0.265350 0.901886 0.399231
0.359772 0.923187 0.373779
0.492737 0.940338 0.365204
0.626038 0.955292 0.352539
0.750885 0.970764 0.337494
0.860901 0.984680 0.321716
0.954926 0.995422 0.306488
0.121887 0.074860 0.167877
0.133514 0.077209 0.171143
0.270630 0.100403 0.193298
0.393341 0.123566 0.205261
0.494476 0.152191 0.232666
0.589752 0.179108 0.258575
0.679840 0.218384 0.276917
0.762329 0.250305 0.292542
0.814941 0.268646 0.303711
0.852173 0.280640 0.312805
0.886597 0.291168 0.321289
0.918854 0.301208 0.330841
0.949951 0.310303 0.340057
0.980042 0.318604 0.349213
1.000000 0.326569 0.358917
1.000000 0.335266 0.369690
0.119141 0.080261 0.169739
0.128479 0.081970 0.171509
0.265808 0.107819 0.194519
0.390991 0.131012 0.205109
0.493439 0.159363 0.231689
0.588806 0.185638 0.257202
0.679138 0.223694 0.275146
0.761719 0.255005 0.290741
0.814484 0.272949 0.301971
0.851776 0.284760 0.310944
0.886230 0.295074 0.319458
0.918549 0.304962 0.328796
0.949829 0.313904 0.337921
0.979858 0.322144 0.347046
1.000000 0.330078 0.356598
1.000000 0.338654 0.367310
0.085144 0.153931 0.195709
0.091370 0.155426 0.197266
0.201599 0.175201 0.207367
0.359802 0.215729 0.219360
0.473846 0.234528 0.230469
0.571320 0.250336 0.247742
0.663605 0.277222 0.263611
0.747772 0.302948 0.278931
0.808777 0.320129 0.291077
0.846893 0.330414 0.299683
0.882080 0.339569 0.307861
0.915070 0.347778 0.316223
0.946960 0.355499 0.324127
0.977631 0.362579 0.332001
1.000000 0.369476 0.340271
1.000000 0.377350 0.349823
0.043915 0.240143 0.216309
0.049225 0.241730 0.217560
0.103149 0.259705 0.227081
0.264465 0.292969 0.227417
0.427216 0.330078 0.256409
0.529388 0.342133 0.266052
0.623444 0.357483 0.278290
0.710419 0.374268 0.289429
0.786804 0.388550 0.299530
0.839233 0.396667 0.305237
0.875610 0.402161 0.310150
0.910004 0.406921 0.314575
0.942963 0.411896 0.319153
0.974518 0.417847 0.325043
1.000000 0.423676 0.331024
1.000000 0.431305 0.339264
0.007751 0.315552 0.235901
0.012177 0.316620 0.236664
0.061523 0.329285 0.244904
0.136292 0.346985 0.252930
0.323792 0.381897 0.252594
0.482910 0.418488 0.281647
0.582214 0.428772 0.294739
0.673462 0.439880 0.299072
0.753174 0.452545 0.305725
0.822601 0.465424 0.312836
0.867157 0.474945 0.319733
0.902527 0.483215 0.326782
0.936493 0.491150 0.333801
0.969269 0.497101 0.338867
1.000000 0.501984 0.343048
1.000000 0.507996 0.348572
0.000000 0.378052 0.257629
0.000000 0.378662 0.258453
0.028107 0.387756 0.267914
0.092957 0.399200 0.274933
0.197327 0.419525 0.279999
0.375244 0.452881 0.279602
0.536438 0.498230 0.290222
0.632080 0.507965 0.317566
0.717285 0.518005 0.317871
0.791870 0.528931 0.319946
0.855347 0.540100 0.323547
0.895874 0.548157 0.327972
0.930939 0.555481 0.332855
0.964691 0.562836 0.338104
0.997314 0.569641 0.343323
1.000000 0.578278 0.351440
0.000000 0.429260 0.284302
0.000000 0.429810 0.285156
0.000000 0.436707 0.294342
0.068146 0.446442 0.300629
0.140717 0.458771 0.305054
0.258942 0.482880 0.303223
0.418793 0.519745 0.302551
0.583160 0.572296 0.309753
0.679871 0.582642 0.322510
0.758789 0.593201 0.333313
0.829224 0.602692 0.332306
0.884094 0.611145 0.333221
0.924805 0.618439 0.336029
0.959747 0.624908 0.339050
0.993378 0.631104 0.342651
1.000000 0.638702 0.348480
0.000000 0.472900 0.309937
0.000000 0.473328 0.310791
0.000000 0.479889 0.318726
0.038300 0.488281 0.325043
0.109528 0.499207 0.328339
0.201965 0.519684 0.328430
0.310913 0.552032 0.317841
0.463440 0.587280 0.321106
0.626892 0.636414 0.323486
0.725616 0.651611 0.322968
0.801392 0.661316 0.337616
0.868866 0.670685 0.342743
0.917084 0.677612 0.342102
0.954559 0.683289 0.343292
0.989166 0.688751 0.345184
1.000000 0.695465 0.349060
0.000000 0.511658 0.332611
0.000000 0.512146 0.333282
0.000000 0.519501 0.340210
0.004059 0.528381 0.346741
0.086121 0.540405 0.349091
0.154633 0.556396 0.348969
0.257660 0.586914 0.342743
0.366425 0.619476 0.333832
0.519104 0.651794 0.335114
0.672668 0.694885 0.333832
0.771667 0.714478 0.332428
0.845856 0.723694 0.340363
0.904510 0.731262 0.346497
0.949127 0.737579 0.349243
0.984894 0.742615 0.350189
1.000000 0.748535 0.352386
0.000000 0.548492 0.352600
0.000000 0.549042 0.353241
0.000000 0.558929 0.359131
0.000000 0.569977 0.364685
0.055634 0.582916 0.367523
0.125671 0.596893 0.367096
0.214203 0.621552 0.362701
0.307892 0.653137 0.351501
0.430206 0.683655 0.347748
0.579071 0.712738 0.346008
0.720581 0.750397 0.342682
0.819061 0.772003 0.341370
0.891479 0.781281 0.343536
0.943481 0.787506 0.349274
0.980469 0.792328 0.352234
1.000000 0.797943 0.354095
0.000000 0.587830 0.370087
0.000000 0.588715 0.370636
0.000000 0.600189 0.375763
0.000000 0.611969 0.380554
0.013580 0.624207 0.384583
0.101105 0.637878 0.383881
0.175537 0.656586 0.380554
0.267517 0.686432 0.371521
0.359528 0.716766 0.356049
0.499847 0.744202 0.358887
0.640045 0.770203 0.355255
0.770569 0.803406 0.351257
0.867950 0.825806 0.349426
0.933319 0.834869 0.346863
0.975891 0.839661 0.352264
1.000000 0.844910 0.354462
0.000000 0.628387 0.385864
0.000000 0.629364 0.386444
0.000000 0.641052 0.391052
0.000000 0.652954 0.395477
0.000000 0.665009 0.399536
0.070770 0.678192 0.399933
0.140778 0.692719 0.397247
0.231049 0.719818 0.389801
0.316162 0.749084 0.377045
0.431274 0.775848 0.368317
0.570282 0.801422 0.368439
0.701080 0.824707 0.363617
0.821167 0.854462 0.359741
0.913422 0.877136 0.357605
0.970978 0.886749 0.355011
1.000000 0.891418 0.354645
0.000000 0.668671 0.400970
0.000000 0.669678 0.401459
0.000000 0.681488 0.405762
0.000000 0.693573 0.409790
0.000000 0.705688 0.413544
0.024963 0.718140 0.415863
0.111969 0.731537 0.413300
0.195557 0.753723 0.407288
0.278717 0.781616 0.396790
0.370758 0.808228 0.378265
0.505585 0.832306 0.378906
0.639832 0.856018 0.377014
0.761292 0.877045 0.371552
0.872894 0.904846 0.368103
0.957092 0.923187 0.362213
1.000000 0.929626 0.357941
0.000000 0.709412 0.415802
0.000000 0.710388 0.416290
0.000000 0.722351 0.420349
0.000000 0.734497 0.424133
0.000000 0.746613 0.427643
0.000000 0.758759 0.430817
0.079468 0.771606 0.429565
0.158264 0.788788 0.424927
0.243927 0.815247 0.415863
0.327881 0.840881 0.401367
0.443756 0.864166 0.388428
0.577911 0.886719 0.388306
0.705353 0.908752 0.385010
0.820648 0.925659 0.375031
0.931396 0.947388 0.363770
1.000000 0.954773 0.351501
0.000000 0.748779 0.430115
0.000000 0.749725 0.430634
0.000000 0.761780 0.434540
0.000000 0.773926 0.438202
0.000000 0.786041 0.441437
0.000000 0.798096 0.444519
0.031128 0.810303 0.445892
0.118286 0.823608 0.442291
0.210968 0.848511 0.434113
0.291138 0.873535 0.422028
0.389923 0.895752 0.399139
0.525482 0.915039 0.394348
0.656860 0.934540 0.388519
0.779236 0.952118 0.378235
0.885956 0.965393 0.364471
0.996460 0.977234 0.346436
0.000000 0.781281 0.442169
0.000000 0.782288 0.442627
0.000000 0.794373 0.446594
0.000000 0.806580 0.450165
0.000000 0.818634 0.453430
0.000000 0.830658 0.456329
0.000000 0.842560 0.458862
0.087372 0.854858 0.456604
0.186218 0.877716 0.448975
0.266022 0.902100 0.438202
0.361816 0.923584 0.417572
0.489807 0.940948 0.400635
0.627075 0.956116 0.388336
0.753601 0.971527 0.374115
0.865356 0.985474 0.359253
0.960052 0.996002 0.345215
0.117615 0.065369 0.230011
0.130920 0.067902 0.234161
0.282898 0.096252 0.266388
0.417023 0.128052 0.287842
0.508636 0.154510 0.309845
0.591644 0.178772 0.323730
0.681793 0.218384 0.340393
0.764313 0.250275 0.355438
0.815125 0.268005 0.366211
0.852173 0.279968 0.375366
0.886597 0.290466 0.384186
0.918884 0.300568 0.393982
0.949982 0.309784 0.403687
0.980042 0.317993 0.413666
1.000000 0.326050 0.424316
1.000000 0.334656 0.436218
0.113739 0.070221 0.231323
0.123596 0.071960 0.233765
0.278046 0.102539 0.267700
0.414032 0.135101 0.287018
0.504883 0.161072 0.307190
0.590576 0.185303 0.322510
0.680908 0.223785 0.338776
0.763550 0.255035 0.353699
0.814636 0.272430 0.364594
0.851746 0.284241 0.373718
0.886230 0.294556 0.382477
0.918518 0.304474 0.392181
0.949829 0.313385 0.401672
0.979858 0.321686 0.411591
1.000000 0.329529 0.422150
1.000000 0.338013 0.434052
0.077057 0.144196 0.249359
0.082947 0.145447 0.251465
0.190186 0.158325 0.270142
0.372742 0.211975 0.287445
0.475098 0.233368 0.297760
0.571808 0.250153 0.313049
0.664368 0.276398 0.326538
0.748810 0.300873 0.339813
0.809113 0.317291 0.350647
0.847076 0.327118 0.359131
0.882233 0.336060 0.367462
0.915161 0.344269 0.375977
0.946991 0.351837 0.384521
0.977600 0.359039 0.393250
1.000000 0.366119 0.402679
1.000000 0.374329 0.413818
0.039886 0.242798 0.272308
0.044983 0.244232 0.273743
0.104034 0.261658 0.289368
0.273773 0.294678 0.304047
0.429993 0.327484 0.315613
0.535828 0.335327 0.322388
0.634186 0.346191 0.328430
0.722015 0.361481 0.336517
0.796509 0.375671 0.345551
0.840607 0.384064 0.352417
0.876587 0.391357 0.359192
0.910583 0.397919 0.365784
0.943268 0.404449 0.372467
0.974609 0.410950 0.379761
1.000000 0.417114 0.387054
1.000000 0.425415 0.397095
0.006042 0.319275 0.286041
0.010345 0.320313 0.287109
0.059631 0.332764 0.298401
0.140167 0.351624 0.309906
0.324066 0.385223 0.312927
0.483795 0.418182 0.344208
0.585449 0.426941 0.349854
0.677063 0.437347 0.355347
0.756958 0.449097 0.362274
0.826233 0.460663 0.369812
0.868317 0.465790 0.372833
0.903992 0.468994 0.374481
0.937866 0.472839 0.377258
0.970673 0.476440 0.380280
1.000000 0.480499 0.383972
1.000000 0.486237 0.390076
0.000000 0.381195 0.302460
0.000000 0.381805 0.303406
0.026398 0.390778 0.313324
0.091797 0.402100 0.320648
0.203278 0.423645 0.333771
0.376068 0.456909 0.331726
0.539307 0.495850 0.341980
0.635101 0.506653 0.369476
0.720764 0.515930 0.371307
0.795441 0.526276 0.374817
0.856476 0.536377 0.380005
0.896332 0.544006 0.386169
0.931335 0.551056 0.392578
0.964905 0.558044 0.399719
0.997467 0.563995 0.406128
1.000000 0.571869 0.415161
0.000000 0.431885 0.324280
0.000000 0.432434 0.325226
0.000000 0.439301 0.332092
0.066437 0.448914 0.339233
0.145355 0.462250 0.348114
0.264191 0.487305 0.354218
0.419495 0.524658 0.349274
0.587921 0.572845 0.355316
0.682617 0.581696 0.376099
0.761932 0.591827 0.384918
0.832428 0.600677 0.386292
0.885223 0.608398 0.389648
0.925201 0.615112 0.394348
0.959961 0.621246 0.399597
0.993469 0.626984 0.405273
1.000000 0.634644 0.413757
