Color Lookup Presets Effects/z1 (1).CUBE
#Created by: Adobe Photoshop Export Color Lookup Plugin
#Copyright: (C) Copyright 2014 www.zafizack.com
TITLE "Bluemaroon"
#LUT size
LUT_3D_SIZE 16
#data domain
DOMAIN_MIN 0.0 0.0 0.0
DOMAIN_MAX 1.0 1.0 1.0
#LUT data points
0.000000 0.000000 0.000000
0.085938 0.024811 0.003937
0.169250 0.045715 0.005524
0.249786 0.064148 0.004944
0.327301 0.082092 0.006042
0.402039 0.098297 0.007507
0.474060 0.112335 0.009003
0.543365 0.124207 0.010498
0.609924 0.134094 0.011932
0.673828 0.141724 0.013397
0.734985 0.147064 0.014984
0.793427 0.150085 0.016632
0.849121 0.150818 0.018402
0.902130 0.149200 0.020264
0.952454 0.145111 0.022278
1.000000 0.138428 0.024353
0.000000 0.043304 0.066162
0.065613 0.071198 0.074005
0.152191 0.089996 0.071228
0.236023 0.099335 0.054718
0.314667 0.112701 0.046600
0.390228 0.127441 0.045837
0.463165 0.140472 0.046570
0.533508 0.151428 0.048096
0.601166 0.160187 0.050079
0.666229 0.166565 0.052277
0.728638 0.170593 0.054749
0.788300 0.172150 0.057312
0.845276 0.171173 0.060059
0.899567 0.167542 0.062744
0.951141 0.161163 0.065552
1.000000 0.151703 0.068420
0.000000 0.082458 0.126038
0.050385 0.110260 0.138885
0.127289 0.141510 0.148621
0.219360 0.157684 0.142365
0.302521 0.160431 0.124115
0.379700 0.167664 0.114655
0.453735 0.175934 0.109680
0.525024 0.183502 0.107361
0.593689 0.189606 0.106720
0.659729 0.193756 0.107178
0.723083 0.195709 0.108307
0.783844 0.195190 0.109955
0.841858 0.191986 0.111908
0.897278 0.185974 0.114136
0.950012 0.195557 0.116516
1.000000 0.218689 0.119080
0.000000 0.117584 0.179749
0.032501 0.145142 0.195953
0.092194 0.175232 0.212524
0.179138 0.209290 0.223846
0.285095 0.228271 0.217255
0.367554 0.228180 0.201904
0.444153 0.228302 0.189362
0.517059 0.229462 0.180908
0.586853 0.230530 0.175659
0.653900 0.230652 0.172638
0.718231 0.229156 0.171204
0.779907 0.225616 0.170898
0.838898 0.226929 0.171387
0.895294 0.245728 0.172485
0.948975 0.266785 0.174011
1.000000 0.289856 0.175903
0.000000 0.148651 0.227142
0.020447 0.176331 0.245789
0.064270 0.206268 0.265961
0.129456 0.238434 0.285095
0.229614 0.275909 0.297760
0.348785 0.301117 0.294373
0.431793 0.298370 0.280853
0.507874 0.293243 0.267487
0.579681 0.288086 0.257050
0.648163 0.282806 0.249573
0.713623 0.276886 0.244537
0.776306 0.287750 0.241364
0.836243 0.302155 0.239594
0.893494 0.319550 0.238922
0.948059 0.339600 0.239044
1.000000 0.362000 0.239838
0.000000 0.175598 0.274078
0.015961 0.203766 0.294830
0.053162 0.234009 0.316620
0.108643 0.266113 0.338593
0.182739 0.301178 0.358307
0.288269 0.342621 0.371582
0.412018 0.374207 0.370667
0.495331 0.369965 0.359833
0.570801 0.361176 0.347076
0.641571 0.357758 0.336060
0.708710 0.360962 0.327362
0.772614 0.368805 0.321014
0.833618 0.380737 0.316528
0.891785 0.396179 0.313599
0.947266 0.414642 0.311829
1.000000 0.435852 0.311127
0.000000 0.198456 0.338074
0.013977 0.226929 0.356720
0.045685 0.256989 0.376465
0.094147 0.288788 0.397003
0.155487 0.323059 0.417114
0.236511 0.362671 0.434784
0.346802 0.410889 0.446564
0.475067 0.447876 0.446228
0.558380 0.446960 0.438232
0.633118 0.445343 0.427032
0.702728 0.446808 0.416412
0.768433 0.452118 0.407471
0.830750 0.461639 0.400513
0.890015 0.474945 0.395233
0.946411 0.491547 0.391510
1.000000 0.511230 0.389069
0.000000 0.217224 0.405151
0.012238 0.246216 0.421997
0.039429 0.276520 0.439575
0.082886 0.308136 0.458191
0.136261 0.349915 0.477142
0.203857 0.392639 0.495392
0.291504 0.436737 0.511169
0.410004 0.482727 0.521301
0.538177 0.522736 0.521210
0.621155 0.527222 0.515991
0.694855 0.530060 0.506744
0.763184 0.534821 0.497223
0.827332 0.542908 0.488800
0.888031 0.554474 0.481812
0.945496 0.569427 0.476349
1.000000 0.587494 0.472260
0.000000 0.231934 0.475281
0.010681 0.261566 0.490387
0.033997 0.300690 0.506134
0.073578 0.343292 0.522644
0.121185 0.384979 0.539795
0.179901 0.426422 0.556946
0.253754 0.468231 0.573212
0.355255 0.510437 0.587158
0.477875 0.554779 0.595703
0.601654 0.596405 0.595642
0.683685 0.605896 0.593048
0.756226 0.613037 0.585907
0.823029 0.621429 0.577850
0.885559 0.632416 0.570374
0.944397 0.646301 0.563904
1.000000 0.663177 0.558685
0.000000 0.248840 0.548492
0.009125 0.294952 0.562073
0.029358 0.339142 0.575958
0.065247 0.381622 0.590454
0.108551 0.422791 0.605560
0.160736 0.463196 0.621033
0.224976 0.503479 0.636292
0.315247 0.543091 0.650848
0.427094 0.584290 0.662628
0.547943 0.627533 0.669861
0.664673 0.668121 0.670166
0.746307 0.683167 0.669434
0.817261 0.694427 0.664368
0.882385 0.706299 0.657959
0.943085 0.720184 0.651672
1.000000 0.736542 0.646057
0.000000 0.289642 0.624725
0.007599 0.335876 0.636780
0.025269 0.380066 0.649048
0.057587 0.422424 0.661682
0.097351 0.463226 0.674744
0.144531 0.502899 0.688202
0.201538 0.541962 0.701752
0.283783 0.579590 0.715485
0.387695 0.617889 0.727783
0.502167 0.658752 0.737518
0.619812 0.700745 0.743652
0.728394 0.738892 0.744751
0.809052 0.758972 0.745178
0.878174 0.773987 0.741943
0.941315 0.789215 0.737183
1.000000 0.805878 0.732178
0.000000 0.333130 0.704102
0.006104 0.379333 0.714691
0.021698 0.423462 0.725403
0.050323 0.465759 0.736267
0.087067 0.506287 0.747406
0.130127 0.545410 0.758759
0.181519 0.583405 0.770325
0.257813 0.619385 0.782379
0.355835 0.655243 0.793854
0.464630 0.693359 0.803802
0.579773 0.733734 0.811646
0.693146 0.774170 0.817017
0.794067 0.810120 0.818970
0.872162 0.833557 0.820343
0.938995 0.851837 0.818756
1.000000 0.870087 0.815460
0.000000 0.379181 0.786438
0.004639 0.425323 0.795654
0.018463 0.469330 0.804901
0.043335 0.511536 0.814087
0.077362 0.551880 0.823425
0.117096 0.590515 0.832825
0.163788 0.627777 0.842346
0.235535 0.662323 0.852264
0.329041 0.695984 0.862061
0.433197 0.731415 0.870941
0.545197 0.769348 0.878662
0.659363 0.808868 0.884979
0.767456 0.847534 0.889771
0.861328 0.881622 0.892639
0.935760 0.907074 0.894958
1.000000 0.928131 0.894714
0.000000 0.427917 0.871918
0.003235 0.473938 0.879822
0.015564 0.517731 0.887573
0.036652 0.559814 0.895294
0.068207 0.600006 0.902893
0.104828 0.638336 0.910431
0.147675 0.675018 0.917938
0.215820 0.708282 0.925598
0.305908 0.739929 0.933136
0.406281 0.772858 0.940186
0.515228 0.808014 0.946564
0.628723 0.845520 0.952301
0.740082 0.883911 0.957397
0.842377 0.920654 0.961853
0.929626 0.953186 0.965790
1.000000 0.979706 0.969269
0.000000 0.479248 0.960449
0.001801 0.525085 0.966980
0.012939 0.568634 0.973419
0.030426 0.610596 0.979614
0.059265 0.650635 0.985657
0.093262 0.688721 0.991486
0.132690 0.724945 0.997070
0.198547 0.755737 1.000000
0.287354 0.782318 1.000000
0.386475 0.809906 1.000000
0.494843 0.839935 1.000000
0.609131 0.872772 1.000000
0.723328 0.907562 1.000000
0.830536 0.942108 1.000000
0.924042 0.973663 1.000000
1.000000 1.000000 1.000000
0.000000 0.502472 1.000000
0.001251 0.544647 1.000000
0.012207 0.584595 1.000000
0.029083 0.622986 1.000000
0.057739 0.659485 1.000000
0.092102 0.694031 1.000000
0.132141 0.726807 1.000000
0.198547 0.755737 1.000000
0.287354 0.782318 1.000000
0.386475 0.809906 1.000000
0.494843 0.839935 1.000000
0.609131 0.872772 1.000000
0.723328 0.907562 1.000000
0.830536 0.942108 1.000000
0.924042 0.973663 1.000000
1.000000 1.000000 1.000000
0.000000 0.000000 0.000000
0.085938 0.024811 0.003937
0.169250 0.045715 0.005524
0.249786 0.064148 0.004944
0.327301 0.082092 0.006042
0.402039 0.098297 0.007507
0.474060 0.112335 0.009003
0.543365 0.124207 0.010498
0.609924 0.134094 0.011932
0.673828 0.141724 0.013397
0.734985 0.147064 0.014984
0.793427 0.150085 0.016632
0.849121 0.150818 0.018402
0.902130 0.149200 0.020264
0.952454 0.145111 0.022278
1.000000 0.138428 0.024353
0.000000 0.043304 0.066162
0.065613 0.071198 0.074005
0.152191 0.089996 0.071228
0.236023 0.099335 0.054718
0.314667 0.112701 0.046600
0.390228 0.127441 0.045837
0.463165 0.140472 0.046570
0.533508 0.151428 0.048096
0.601166 0.160187 0.050079
0.666229 0.166565 0.052277
0.728638 0.170593 0.054749
0.788300 0.172150 0.057312
0.845276 0.171173 0.060059
0.899567 0.167542 0.062744
0.951141 0.161163 0.065552
1.000000 0.151703 0.068420
0.000000 0.082458 0.126038
0.050385 0.110260 0.138885
0.127289 0.141510 0.148621
0.219360 0.157684 0.142365
0.302521 0.160431 0.124115
0.379700 0.167664 0.114655
0.453735 0.175934 0.109680
0.525024 0.183502 0.107361
0.593689 0.189606 0.106720
0.659729 0.193756 0.107178
0.723083 0.195709 0.108307
0.783844 0.195190 0.109955
0.841858 0.191986 0.111908
0.897278 0.185974 0.114136
0.950012 0.195557 0.116516
1.000000 0.218689 0.119080
0.000000 0.117584 0.179749
0.032501 0.145142 0.195953
0.092194 0.175232 0.212524
0.179138 0.209290 0.223846
0.285095 0.228271 0.217255
0.367554 0.228180 0.201904
0.444153 0.228302 0.189362
0.517059 0.229462 0.180908
0.586853 0.230530 0.175659
0.653900 0.230652 0.172638
0.718231 0.229156 0.171204
0.779907 0.225616 0.170898
0.838898 0.226929 0.171387
0.895294 0.245728 0.172485
0.948975 0.266785 0.174011
1.000000 0.289856 0.175903
0.000000 0.148651 0.227142
0.020447 0.176331 0.245789
0.064270 0.206268 0.265961
0.129456 0.238434 0.285095
0.229614 0.275909 0.297760
0.348785 0.301117 0.294373
0.431793 0.298370 0.280853
0.507874 0.293243 0.267487
0.579681 0.288086 0.257050
0.648163 0.282806 0.249573
0.713623 0.276886 0.244537
0.776306 0.287750 0.241364
0.836243 0.302155 0.239594
0.893494 0.319550 0.238922
0.948059 0.339600 0.239044
1.000000 0.362000 0.239838
0.000000 0.175598 0.274078
0.015961 0.203766 0.294830
0.053162 0.234009 0.316620
0.108643 0.266113 0.338593
0.182739 0.301178 0.358307
0.288269 0.342621 0.371582
0.412018 0.374207 0.370667
0.495331 0.369965 0.359833
0.570801 0.361176 0.347076
0.641571 0.357758 0.336060
0.708710 0.360962 0.327362
0.772614 0.368805 0.321014
0.833618 0.380737 0.316528
0.891785 0.396179 0.313599
0.947266 0.414642 0.311829
1.000000 0.435852 0.311127
0.000000 0.198456 0.338074
0.013977 0.226929 0.356720
0.045685 0.256989 0.376465
0.094147 0.288788 0.397003
0.155487 0.323059 0.417114
0.236511 0.362671 0.434784
0.346802 0.410889 0.446564
0.475067 0.447876 0.446228
0.558380 0.446960 0.438232
0.633118 0.445343 0.427032
0.702728 0.446808 0.416412
0.768433 0.452118 0.407471
0.830750 0.461639 0.400513
0.890015 0.474945 0.395233
0.946411 0.491547 0.391510
1.000000 0.511230 0.389069
0.000000 0.217224 0.405151
0.012238 0.246216 0.421997
0.039429 0.276520 0.439575
0.082886 0.308136 0.458191
0.136261 0.349915 0.477142
0.203857 0.392639 0.495392
0.291504 0.436737 0.511169
0.410004 0.482727 0.521301
0.538177 0.522736 0.521210
0.621155 0.527222 0.515991
0.694855 0.530060 0.506744
0.763184 0.534821 0.497223
0.827332 0.542908 0.488800
0.888031 0.554474 0.481812
0.945496 0.569427 0.476349
1.000000 0.587494 0.472260
0.000000 0.231934 0.475281
0.010681 0.261566 0.490387
0.033997 0.300690 0.506134
0.073578 0.343292 0.522644
0.121185 0.384979 0.539795
0.179901 0.426422 0.556946
0.253754 0.468231 0.573212
0.355255 0.510437 0.587158
0.477875 0.554779 0.595703
0.601654 0.596405 0.595642
0.683685 0.605896 0.593048
0.756226 0.613037 0.585907
0.823029 0.621429 0.577850
0.885559 0.632416 0.570374
0.944397 0.646301 0.563904
1.000000 0.663177 0.558685
0.000000 0.248840 0.548492
0.009125 0.294952 0.562073
0.029358 0.339142 0.575958
0.065247 0.381622 0.590454
0.108551 0.422791 0.605560
0.160736 0.463196 0.621033
0.224976 0.503479 0.636292
0.315247 0.543091 0.650848
0.427094 0.584290 0.662628
0.547943 0.627533 0.669861
0.664673 0.668121 0.670166
0.746307 0.683167 0.669434
0.817261 0.694427 0.664368
0.882385 0.706299 0.657959
0.943085 0.720184 0.651672
1.000000 0.736542 0.646057
0.000000 0.289642 0.624725
0.007599 0.335876 0.636780
0.025269 0.380066 0.649048
0.057587 0.422424 0.661682
0.097351 0.463226 0.674744
0.144531 0.502899 0.688202
0.201538 0.541962 0.701752
0.283783 0.579590 0.715485
0.387695 0.617889 0.727783
0.502167 0.658752 0.737518
0.619812 0.700745 0.743652
0.728394 0.738892 0.744751
0.809052 0.758972 0.745178
0.878174 0.773987 0.741943
0.941315 0.789215 0.737183
1.000000 0.805878 0.732178
0.000000 0.333130 0.704102
0.006104 0.379333 0.714691
0.021698 0.423462 0.725403
0.050323 0.465759 0.736267
0.087067 0.506287 0.747406
0.130127 0.545410 0.758759
0.181519 0.583405 0.770325
0.257813 0.619385 0.782379
0.355835 0.655243 0.793854
0.464630 0.693359 0.803802
0.579773 0.733734 0.811646
0.693146 0.774170 0.817017
0.794067 0.810120 0.818970
0.872162 0.833557 0.820343
0.938995 0.851837 0.818756
1.000000 0.870087 0.815460
0.000000 0.379181 0.786438
0.004639 0.425323 0.795654
0.018463 0.469330 0.804901
0.043335 0.511536 0.814087
0.077362 0.551880 0.823425
0.117096 0.590515 0.832825
0.163788 0.627777 0.842346
0.235535 0.662323 0.852264
0.329041 0.695984 0.862061
0.433197 0.731415 0.870941
0.545197 0.769348 0.878662
0.659363 0.808868 0.884979
0.767456 0.847534 0.889771
0.861328 0.881622 0.892639
0.935760 0.907074 0.894958
1.000000 0.928131 0.894714
0.000000 0.427917 0.871918
0.003235 0.473938 0.879822
0.015564 0.517731 0.887573
0.036652 0.559814 0.895294
0.068207 0.600006 0.902893
0.104828 0.638336 0.910431
0.147675 0.675018 0.917938
0.215820 0.708282 0.925598
0.305908 0.739929 0.933136
0.406281 0.772858 0.940186
0.515228 0.808014 0.946564
0.628723 0.845520 0.952301
0.740082 0.883911 0.957397
0.842377 0.920654 0.961853
0.929626 0.953186 0.965790
1.000000 0.979706 0.969269
0.000000 0.479248 0.960449
0.001801 0.525085 0.966980
0.012939 0.568634 0.973419
0.030426 0.610596 0.979614
0.059265 0.650635 0.985657
0.093262 0.688721 0.991486
0.132690 0.724945 0.997070
0.198547 0.755737 1.000000
0.287354 0.782318 1.000000
0.386475 0.809906 1.000000
0.494843 0.839935 1.000000
0.609131 0.872772 1.000000
0.723328 0.907562 1.000000
0.830536 0.942108 1.000000
0.924042 0.973663 1.000000
1.000000 1.000000 1.000000
0.000000 0.502472 1.000000
0.001251 0.544647 1.000000
0.012207 0.584595 1.000000
0.029083 0.622986 1.000000
0.057739 0.659485 1.000000
0.092102 0.694031 1.000000
0.132141 0.726807 1.000000
0.198547 0.755737 1.000000
0.287354 0.782318 1.000000
0.386475 0.809906 1.000000
0.494843 0.839935 1.000000
0.609131 0.872772 1.000000
0.723328 0.907562 1.000000
0.830536 0.942108 1.000000
0.924042 0.973663 1.000000
1.000000 1.000000 1.000000
0.000000 0.000000 0.000000
0.085938 0.024811 0.003937
0.169250 0.045715 0.005524
0.249786 0.064148 0.004944
0.327301 0.082092 0.006042
0.402039 0.098297 0.007507
0.474060 0.112335 0.009003
0.543365 0.124207 0.010498
0.609924 0.134094 0.011932
0.673828 0.141724 0.013397
0.734985 0.147064 0.014984
0.793427 0.150085 0.016632
0.849121 0.150818 0.018402
0.902130 0.149200 0.020264
0.952454 0.145111 0.022278
1.000000 0.138428 0.024353
0.000000 0.043304 0.066162
0.065613 0.071198 0.074005
0.152191 0.089996 0.071228
0.236023 0.099335 0.054718
0.314667 0.112701 0.046600
0.390228 0.127441 0.045837
0.463165 0.140472 0.046570
0.533508 0.151428 0.048096
0.601166 0.160187 0.050079
0.666229 0.166565 0.052277
0.728638 0.170593 0.054749
0.788300 0.172150 0.057312
0.845276 0.171173 0.060059
0.899567 0.167542 0.062744
0.951141 0.161163 0.065552
1.000000 0.151703 0.068420
0.000000 0.082458 0.126038
0.050385 0.110260 0.138885
0.127289 0.141510 0.148621
0.219360 0.157684 0.142365
0.302521 0.160431 0.124115
0.379700 0.167664 0.114655
0.453735 0.175934 0.109680
0.525024 0.183502 0.107361
0.593689 0.189606 0.106720
0.659729 0.193756 0.107178
0.723083 0.195709 0.108307
0.783844 0.195190 0.109955
0.841858 0.191986 0.111908
0.897278 0.185974 0.114136
0.950012 0.195557 0.116516
1.000000 0.218689 0.119080
0.000000 0.117584 0.179749
0.032501 0.145142 0.195953
0.092194 0.175232 0.212524
0.179138 0.209290 0.223846
0.285095 0.228271 0.217255
0.367554 0.228180 0.201904
0.444153 0.228302 0.189362
0.517059 0.229462 0.180908
0.586853 0.230530 0.175659
0.653900 0.230652 0.172638
0.718231 0.229156 0.171204
0.779907 0.225616 0.170898
0.838898 0.226929 0.171387
0.895294 0.245728 0.172485
0.948975 0.266785 0.174011
1.000000 0.289856 0.175903
0.000000 0.148651 0.227142
0.020447 0.176331 0.245789
0.064270 0.206268 0.265961
0.129456 0.238434 0.285095
0.229614 0.275909 0.297760
0.348785 0.301117 0.294373
0.431793 0.298370 0.280853
0.507874 0.293243 0.267487
0.579681 0.288086 0.257050
0.648163 0.282806 0.249573
0.713623 0.276886 0.244537
0.776306 0.287750 0.241364
0.836243 0.302155 0.239594
0.893494 0.319550 0.238922
0.948059 0.339600 0.239044
1.000000 0.362000 0.239838
0.000000 0.175598 0.274078
0.015961 0.203766 0.294830
0.053162 0.234009 0.316620
0.108643 0.266113 0.338593
0.182739 0.301178 0.358307
0.288269 0.342621 0.371582
0.412018 0.374207 0.370667
0.495331 0.369965 0.359833
0.570801 0.361176 0.347076
0.641571 0.357758 0.336060
0.708710 0.360962 0.327362
0.772614 0.368805 0.321014
0.833618 0.380737 0.316528
0.891785 0.396179 0.313599
0.947266 0.414642 0.311829
1.000000 0.435852 0.311127
0.000000 0.198456 0.338074
0.013977 0.226929 0.356720
0.045685 0.256989 0.376465
0.094147 0.288788 0.397003
0.155487 0.323059 0.417114
0.236511 0.362671 0.434784
0.346802 0.410889 0.446564
0.475067 0.447876 0.446228
0.558380 0.446960 0.438232
0.633118 0.445343 0.427032
0.702728 0.446808 0.416412
0.768433 0.452118 0.407471
0.830750 0.461639 0.400513
0.890015 0.474945 0.395233
0.946411 0.491547 0.391510
1.000000 0.511230 0.389069
0.000000 0.217224 0.405151
0.012238 0.246216 0.421997
0.039429 0.276520 0.439575
0.082886 0.308136 0.458191
0.136261 0.349915 0.477142
0.203857 0.392639 0.495392
0.291504 0.436737 0.511169
0.410004 0.482727 0.521301
0.538177 0.522736 0.521210
0.621155 0.527222 0.515991
0.694855 0.530060 0.506744
0.763184 0.534821 0.497223
0.827332 0.542908 0.488800
0.888031 0.554474 0.481812
0.945496 0.569427 0.476349
1.000000 0.587494 0.472260
0.000000 0.231934 0.475281
0.010681 0.261566 0.490387
0.033997 0.300690 0.506134
0.073578 0.343292 0.522644
0.121185 0.384979 0.539795
0.179901 0.426422 0.556946
0.253754 0.468231 0.573212
0.355255 0.510437 0.587158
0.477875 0.554779 0.595703
0.601654 0.596405 0.595642
0.683685 0.605896 0.593048
0.756226 0.613037 0.585907
0.823029 0.621429 0.577850
0.885559 0.632416 0.570374
0.944397 0.646301 0.563904
1.000000 0.663177 0.558685
0.000000 0.248840 0.548492
0.009125 0.294952 0.562073
0.029358 0.339142 0.575958
0.065247 0.381622 0.590454
0.108551 0.422791 0.605560
0.160736 0.463196 0.621033
0.224976 0.503479 0.636292
0.315247 0.543091 0.650848
0.427094 0.584290 0.662628
0.547943 0.627533 0.669861
0.664673 0.668121 0.670166
0.746307 0.683167 0.669434
0.817261 0.694427 0.664368
0.882385 0.706299 0.657959
0.943085 0.720184 0.651672
1.000000 0.736542 0.646057
0.000000 0.289642 0.624725
0.007599 0.335876 0.636780
0.025269 0.380066 0.649048
0.057587 0.422424 0.661682
0.097351 0.463226 0.674744
0.144531 0.502899 0.688202
0.201538 0.541962 0.701752
0.283783 0.579590 0.715485
0.387695 0.617889 0.727783
0.502167 0.658752 0.737518
0.619812 0.700745 0.743652
0.728394 0.738892 0.744751
0.809052 0.758972 0.745178
0.878174 0.773987 0.741943
0.941315 0.789215 0.737183
1.000000 0.805878 0.732178
0.000000 0.333130 0.704102
0.006104 0.379333 0.714691
0.021698 0.423462 0.725403
0.050323 0.465759 0.736267
0.087067 0.506287 0.747406
0.130127 0.545410 0.758759
0.181519 0.583405 0.770325
0.257813 0.619385 0.782379
0.355835 0.655243 0.793854
0.464630 0.693359 0.803802
0.579773 0.733734 0.811646
0.693146 0.774170 0.817017
0.794067 0.810120 0.818970
0.872162 0.833557 0.820343
0.938995 0.851837 0.818756
1.000000 0.870087 0.815460
0.000000 0.379181 0.786438
0.004639 0.425323 0.795654
0.018463 0.469330 0.804901
0.043335 0.511536 0.814087
0.077362 0.551880 0.823425
0.117096 0.590515 0.832825
0.163788 0.627777 0.842346
0.235535 0.662323 0.852264
0.329041 0.695984 0.862061
0.433197 0.731415 0.870941
0.545197 0.769348 0.878662
0.659363 0.808868 0.884979
0.767456 0.847534 0.889771
0.861328 0.881622 0.892639
0.935760 0.907074 0.894958
1.000000 0.928131 0.894714
0.000000 0.427917 0.871918
0.003235 0.473938 0.879822
0.015564 0.517731 0.887573
0.036652 0.559814 0.895294
0.068207 0.600006 0.902893
0.104828 0.638336 0.910431
0.147675 0.675018 0.917938
0.215820 0.708282 0.925598
0.305908 0.739929 0.933136
0.406281 0.772858 0.940186
0.515228 0.808014 0.946564
0.628723 0.845520 0.952301
0.740082 0.883911 0.957397
0.842377 0.920654 0.961853
0.929626 0.953186 0.965790
1.000000 0.979706 0.969269
0.000000 0.479248 0.960449
0.001801 0.525085 0.966980
0.012939 0.568634 0.973419
0.030426 0.610596 0.979614
0.059265 0.650635 0.985657
0.093262 0.688721 0.991486
0.132690 0.724945 0.997070
0.198547 0.755737 1.000000
0.287354 0.782318 1.000000
0.386475 0.809906 1.000000
0.494843 0.839935 1.000000
0.609131 0.872772 1.000000
0.723328 0.907562 1.000000
0.830536 0.942108 1.000000
0.924042 0.973663 1.000000
1.000000 1.000000 1.000000
0.000000 0.502472 1.000000
0.001251 0.544647 1.000000
0.012207 0.584595 1.000000
0.029083 0.622986 1.000000
0.057739 0.659485 1.000000
0.092102 0.694031 1.000000
0.132141 0.726807 1.000000
0.198547 0.755737 1.000000
0.287354 0.782318 1.000000
0.386475 0.809906 1.000000
0.494843 0.839935 1.000000
0.609131 0.872772 1.000000
0.723328 0.907562 1.000000
0.830536 0.942108 1.000000
0.924042 0.973663 1.000000
1.000000 1.000000 1.000000
0.000000 0.000000 0.000000
0.085938 0.024811 0.003937
0.169250 0.045715 0.005524
0.249786 0.064148 0.004944
0.327301 0.082092 0.006042
0.402039 0.098297 0.007507
0.474060 0.112335 0.009003
0.543365 0.124207 0.010498
0.609924 0.134094 0.011932
0.673828 0.141724 0.013397
0.734985 0.147064 0.014984
0.793427 0.150085 0.016632
0.849121 0.150818 0.018402
0.902130 0.149200 0.020264
0.952454 0.145111 0.022278
1.000000 0.138428 0.024353
0.000000 0.043304 0.066162
0.065613 0.071198 0.074005
0.152191 0.089996 0.071228
0.236023 0.099335 0.054718
0.314667 0.112701 0.046600
0.390228 0.127441 0.045837
0.463165 0.140472 0.046570
0.533508 0.151428 0.048096
0.601166 0.160187 0.050079
0.666229 0.166565 0.052277
0.728638 0.170593 0.054749
0.788300 0.172150 0.057312
0.845276 0.171173 0.060059
0.899567 0.167542 0.062744
0.951141 0.161163 0.065552
1.000000 0.151703 0.068420
0.000000 0.082458 0.126038
0.050385 0.110260 0.138885
0.127289 0.141510 0.148621
0.219360 0.157684 0.142365
0.302521 0.160431 0.124115
0.379700 0.167664 0.114655
0.453735 0.175934 0.109680
0.525024 0.183502 0.107361
0.593689 0.189606 0.106720
0.659729 0.193756 0.107178
0.723083 0.195709 0.108307
0.783844 0.195190 0.109955
0.841858 0.191986 0.111908
0.897278 0.185974 0.114136
0.950012 0.195557 0.116516
1.000000 0.218689 0.119080
0.000000 0.117584 0.179749
0.032501 0.145142 0.195953
0.092194 0.175232 0.212524
0.179138 0.209290 0.223846
0.285095 0.228271 0.217255
0.367554 0.228180 0.201904
0.444153 0.228302 0.189362
0.517059 0.229462 0.180908
0.586853 0.230530 0.175659
0.653900 0.230652 0.172638
0.718231 0.229156 0.171204
0.779907 0.225616 0.170898
0.838898 0.226929 0.171387
0.895294 0.245728 0.172485
0.948975 0.266785 0.174011
1.000000 0.289856 0.175903
0.000000 0.148651 0.227142
0.020447 0.176331 0.245789
0.064270 0.206268 0.265961
0.129456 0.238434 0.285095
0.229614 0.275909 0.297760
0.348785 0.301117 0.294373
0.431793 0.298370 0.280853
0.507874 0.293243 0.267487
0.579681 0.288086 0.257050
0.648163 0.282806 0.249573
0.713623 0.276886 0.244537
0.776306 0.287750 0.241364
0.836243 0.302155 0.239594
0.893494 0.319550 0.238922
0.948059 0.339600 0.239044
1.000000 0.362000 0.239838
0.000000 0.175598 0.274078
0.015961 0.203766 0.294830
0.053162 0.234009 0.316620
0.108643 0.266113 0.338593
0.182739 0.301178 0.358307
0.288269 0.342621 0.371582
0.412018 0.374207 0.370667
0.495331 0.369965 0.359833
0.570801 0.361176 0.347076
0.641571 0.357758 0.336060
0.708710 0.360962 0.327362
0.772614 0.368805 0.321014
0.833618 0.380737 0.316528
0.891785 0.396179 0.313599
0.947266 0.414642 0.311829
1.000000 0.435852 0.311127
0.000000 0.198456 0.338074
0.013977 0.226929 0.356720
0.045685 0.256989 0.376465
0.094147 0.288788 0.397003
0.155487 0.323059 0.417114
0.236511 0.362671 0.434784
0.346802 0.410889 0.446564
0.475067 0.447876 0.446228
0.558380 0.446960 0.438232
0.633118 0.445343 0.427032
0.702728 0.446808 0.416412
0.768433 0.452118 0.407471
0.830750 0.461639 0.400513
0.890015 0.474945 0.395233
0.946411 0.491547 0.391510
1.000000 0.511230 0.389069
