Color Lookup Presets Effects/z1 (96).CUBE
#Created by: Adobe Photoshop Export Color Lookup Plugin
#Copyright: (C) Copyright 2014 www.zafizack.com
TITLE "Dinda"
#LUT size
LUT_3D_SIZE 16
#data domain
DOMAIN_MIN 0.0 0.0 0.0
DOMAIN_MAX 1.0 1.0 1.0
#LUT data points
0.000000 0.000000 0.038330
0.000061 0.000000 0.038330
0.147736 0.031433 0.056610
0.265991 0.057648 0.073090
0.350403 0.081573 0.090759
0.428741 0.104523 0.109406
0.505615 0.126678 0.128357
0.581909 0.147827 0.147308
0.652374 0.148010 0.138397
0.715027 0.147156 0.128510
0.771515 0.145660 0.118774
0.822998 0.143555 0.109436
0.870331 0.141754 0.101318
0.914032 0.140381 0.094879
0.954926 0.139374 0.090240
0.993652 0.138947 0.087799
0.000000 0.000031 0.038330
0.000061 0.000031 0.038330
0.147736 0.031464 0.056610
0.265991 0.057709 0.073120
0.350403 0.081665 0.090759
0.428772 0.104614 0.109406
0.505676 0.126709 0.128357
0.581848 0.147919 0.147308
0.652374 0.148071 0.138397
0.715027 0.147186 0.128510
0.771515 0.145721 0.118774
0.822998 0.143585 0.109467
0.870331 0.141815 0.101318
0.914032 0.140411 0.094879
0.954926 0.139435 0.090271
0.993652 0.139008 0.087799
0.005066 0.089447 0.048462
0.005188 0.089386 0.048462
0.193085 0.102936 0.070557
0.294067 0.129242 0.090210
0.373718 0.152435 0.110229
0.449127 0.174042 0.130310
0.523895 0.194366 0.150116
0.596741 0.213593 0.169495
0.664276 0.213013 0.159912
0.724518 0.211182 0.148804
0.778839 0.209167 0.137878
0.828400 0.207092 0.127441
0.874115 0.205109 0.117889
0.916412 0.203247 0.109436
0.956085 0.201599 0.102325
0.993652 0.200256 0.096893
0.006287 0.192535 0.056641
0.006378 0.192535 0.056671
0.230103 0.175476 0.087463
0.324646 0.194824 0.110535
0.400482 0.214905 0.131622
0.473389 0.233551 0.152191
0.546112 0.251221 0.171967
0.614471 0.268127 0.191040
0.678040 0.268311 0.181732
0.735107 0.267181 0.170776
0.786957 0.265839 0.159790
0.834442 0.264343 0.148926
0.878296 0.262787 0.138397
0.919006 0.261200 0.128571
0.957275 0.259705 0.119568
0.993652 0.258362 0.111694
0.011139 0.282013 0.067932
0.011261 0.281982 0.067963
0.226837 0.251251 0.100311
0.356415 0.246124 0.132721
0.428558 0.263824 0.154297
0.499023 0.280579 0.174744
0.568848 0.296509 0.194214
0.632477 0.311829 0.212921
0.692169 0.312592 0.204010
0.746124 0.312073 0.193390
0.795349 0.311279 0.182587
0.840607 0.310272 0.171722
0.882629 0.309174 0.160889
0.921753 0.307922 0.150452
0.958527 0.306732 0.140320
0.993652 0.305481 0.130890
0.016022 0.368469 0.081238
0.016083 0.368469 0.081268
0.229004 0.326324 0.117188
0.358673 0.307251 0.148560
0.457764 0.301697 0.177368
0.525757 0.317108 0.197479
0.591492 0.332001 0.216553
0.650635 0.346558 0.234894
0.706482 0.347626 0.226257
0.757355 0.347443 0.215912
0.803864 0.347076 0.205536
0.846985 0.346405 0.194916
0.887024 0.345551 0.184235
0.924469 0.344574 0.173584
0.959869 0.343506 0.163055
0.993652 0.342407 0.152893
0.020752 0.460358 0.096558
0.020844 0.460358 0.096558
0.231720 0.404907 0.135376
0.356354 0.371155 0.163239
0.464661 0.352173 0.194427
0.553345 0.344604 0.220184
0.613892 0.358673 0.238892
0.668640 0.372498 0.257263
0.720764 0.373779 0.248566
0.768555 0.373993 0.238342
0.812561 0.373810 0.228149
0.853394 0.373413 0.217957
0.891571 0.372833 0.207550
0.927338 0.372009 0.197083
0.961182 0.371216 0.186615
0.993652 0.370300 0.176208
0.025513 0.555664 0.113251
0.025574 0.555634 0.113251
0.234924 0.497772 0.154602
0.358185 0.457642 0.180725
0.462463 0.432281 0.208923
0.561523 0.412415 0.237457
0.635986 0.404572 0.261902
0.686584 0.417816 0.280548
0.735107 0.419434 0.271515
0.779938 0.420044 0.261169
0.821320 0.420288 0.250916
0.859863 0.420197 0.240723
0.896149 0.419922 0.230530
0.930206 0.419434 0.220428
0.962585 0.418793 0.210205
0.993652 0.418121 0.199890
0.030273 0.639862 0.130920
0.030334 0.639832 0.130951
0.238525 0.595184 0.174316
0.363251 0.562683 0.200684
0.460602 0.532074 0.223419
0.559692 0.515381 0.252228
0.642487 0.498627 0.279968
0.704254 0.491455 0.304474
0.749359 0.493591 0.295319
0.791199 0.494629 0.284637
0.830139 0.495361 0.274017
0.866486 0.495758 0.263641
0.900879 0.495972 0.253510
0.933167 0.495880 0.243439
0.964020 0.495636 0.233368
0.993652 0.495239 0.223328
0.034729 0.707245 0.129028
0.034790 0.707214 0.129028
0.243286 0.674377 0.173248
0.369293 0.650360 0.200470
0.468689 0.627563 0.224060
0.560272 0.608093 0.247589
0.642914 0.596313 0.275299
0.710327 0.584229 0.302185
0.763580 0.575470 0.319611
0.802521 0.577057 0.308777
0.838928 0.578217 0.298004
0.873169 0.579010 0.287292
0.905487 0.579590 0.276794
0.936127 0.579865 0.266541
0.965393 0.580017 0.256378
0.993652 0.580048 0.246460
0.039215 0.764435 0.116852
0.039246 0.764404 0.116882
0.248322 0.741241 0.160370
0.375366 0.724060 0.188660
0.476685 0.707794 0.213440
0.567291 0.691956 0.235992
0.644562 0.679688 0.259796
0.711578 0.671631 0.286377
0.767456 0.663452 0.312317
0.813812 0.656433 0.333527
0.847717 0.657837 0.322479
0.879791 0.658966 0.311646
0.910217 0.659912 0.300873
0.939148 0.660522 0.290222
0.966858 0.660980 0.279785
0.993652 0.661285 0.269653
0.043854 0.815979 0.105804
0.043915 0.815979 0.105835
0.253143 0.800079 0.147034
0.380829 0.788086 0.176117
0.483704 0.776947 0.201904
0.575714 0.766083 0.225311
0.650146 0.755493 0.247192
0.712860 0.747375 0.270477
0.768494 0.742371 0.296112
0.815704 0.737366 0.321381
0.856323 0.732239 0.346344
0.886505 0.733307 0.336517
0.915009 0.734497 0.325500
0.942200 0.735321 0.314606
0.968323 0.736053 0.303925
0.993652 0.736633 0.293396
0.048798 0.863159 0.096405
0.048859 0.863159 0.096405
0.257843 0.852753 0.133820
0.385742 0.844788 0.163055
0.489868 0.837433 0.189636
0.582977 0.830353 0.213989
0.657745 0.823486 0.236511
0.718475 0.816772 0.258057
0.769562 0.810822 0.279907
0.816559 0.808075 0.304901
0.856995 0.805359 0.329437
0.892029 0.802551 0.353882
0.919830 0.802856 0.350830
0.945190 0.803925 0.339661
0.969788 0.804871 0.328705
0.993652 0.805664 0.317841
0.053925 0.906860 0.089264
0.054016 0.906860 0.089264
0.262451 0.900726 0.121429
0.390442 0.895996 0.149933
0.495422 0.891510 0.176880
0.589294 0.887329 0.202057
0.664307 0.883270 0.225311
0.725342 0.879333 0.247345
0.776093 0.875458 0.268616
0.819061 0.871643 0.289856
0.857666 0.869385 0.312683
0.892517 0.868347 0.336670
0.923004 0.867279 0.360779
0.948364 0.867401 0.365509
0.971222 0.868500 0.354126
0.993652 0.869476 0.342987
0.059387 0.948364 0.085175
0.059479 0.948364 0.085205
0.267303 0.945587 0.110535
0.394897 0.943359 0.137238
0.500549 0.941345 0.164093
0.594788 0.939423 0.189697
0.670013 0.937592 0.213654
0.731201 0.935822 0.236267
0.782318 0.934021 0.257813
0.825623 0.932281 0.278992
0.862732 0.930634 0.300201
0.894592 0.928925 0.321259
0.923340 0.928009 0.343201
0.949768 0.928253 0.366852
0.972778 0.928680 0.380463
0.993652 0.929749 0.368988
0.065155 0.988647 0.083405
0.065186 0.988647 0.083405
0.272430 0.988647 0.101959
0.399292 0.988647 0.125641
0.505493 0.988647 0.151428
0.599792 0.988647 0.177185
0.674927 0.988647 0.201721
0.736359 0.988647 0.224915
0.787628 0.988647 0.246887
0.831146 0.988647 0.268188
0.868500 0.988647 0.289337
0.900879 0.988647 0.310486
0.928955 0.988647 0.331604
0.953369 0.988647 0.352783
0.974823 0.988647 0.374237
0.993652 0.988647 0.395874
0.004333 0.010284 0.070496
0.004364 0.010284 0.070496
0.144989 0.030029 0.077881
0.263519 0.056091 0.097961
0.348419 0.079926 0.117554
0.426971 0.102936 0.136932
0.503967 0.125000 0.155792
0.580566 0.146210 0.174194
0.651306 0.146454 0.165741
0.714203 0.145569 0.155975
0.770782 0.144806 0.146454
0.822235 0.144135 0.137360
0.869720 0.143707 0.128876
0.913574 0.143463 0.121094
0.954712 0.142029 0.113190
0.993652 0.140991 0.106628
0.004333 0.010315 0.070496
0.004364 0.010315 0.070496
0.144958 0.030090 0.077881
0.263519 0.056122 0.097961
0.348419 0.079956 0.117584
0.426971 0.102966 0.136932
0.503967 0.125031 0.155823
0.580566 0.146271 0.174194
0.651306 0.146484 0.165741
0.714203 0.145630 0.155975
0.770782 0.144806 0.146484
0.822235 0.144196 0.137360
0.869720 0.143829 0.128876
0.913574 0.143494 0.121094
0.954712 0.142090 0.113190
0.993652 0.141022 0.106628
0.005066 0.089447 0.068329
0.005127 0.089386 0.068359
0.163757 0.111328 0.092957
0.274445 0.138855 0.115601
0.356842 0.162109 0.136383
0.434235 0.183350 0.156250
0.510498 0.203125 0.175293
0.585968 0.221954 0.193665
0.655365 0.222809 0.185974
0.717529 0.221680 0.176208
0.773499 0.219971 0.165955
0.824432 0.218170 0.155762
0.871399 0.216339 0.145844
0.914673 0.214508 0.136292
0.955261 0.212799 0.127380
0.993652 0.211182 0.119446
0.006287 0.192535 0.080231
0.006378 0.192535 0.080261
0.204346 0.184357 0.111633
0.306122 0.205078 0.136139
0.384064 0.225464 0.157349
0.458374 0.244232 0.177399
0.532410 0.261932 0.196503
0.603638 0.278900 0.214783
0.669342 0.279602 0.206665
0.728333 0.278961 0.196899
0.781677 0.278015 0.186951
0.830444 0.276855 0.176849
0.875519 0.275543 0.166748
0.917328 0.274231 0.156860
0.956512 0.272797 0.147217
0.993652 0.271423 0.138153
0.011139 0.282013 0.094360
0.011200 0.282013 0.094391
0.204285 0.262085 0.126160
0.338226 0.257355 0.157745
0.412354 0.275513 0.178802
0.484100 0.292450 0.198547
0.555756 0.308655 0.217255
0.622070 0.324280 0.235260
0.683807 0.325439 0.227417
0.739471 0.325409 0.217957
0.790161 0.325073 0.208252
0.836731 0.324402 0.198486
0.879852 0.323608 0.188568
0.920074 0.322632 0.178650
0.957764 0.321625 0.168732
0.993652 0.320496 0.159149
0.016022 0.368469 0.109863
0.016022 0.368469 0.109894
0.208099 0.340332 0.143890
0.340912 0.319550 0.172516
0.441711 0.315247 0.200500
0.510895 0.331207 0.219879
0.579041 0.346497 0.238342
0.640594 0.361511 0.256409
0.698395 0.362976 0.248535
0.750885 0.363251 0.239105
0.798859 0.363190 0.229645
0.843170 0.362915 0.220123
0.884399 0.362335 0.210480
0.922791 0.361572 0.200806
0.959137 0.360748 0.191040
0.993652 0.359924 0.181244
0.020752 0.460358 0.126282
0.020813 0.460358 0.126312
0.211517 0.422791 0.162079
0.339081 0.386078 0.186218
0.448700 0.368225 0.216309
0.538666 0.361359 0.241394
0.601990 0.375977 0.260010
0.658997 0.390289 0.278381
0.712891 0.392090 0.270264
0.762238 0.392670 0.260620
0.807648 0.392883 0.251129
0.849701 0.392822 0.241669
0.888977 0.392548 0.232208
0.925659 0.392059 0.222717
0.960449 0.391418 0.213226
0.993652 0.390778 0.203644
0.025513 0.555664 0.143341
0.025543 0.555664 0.143372
0.215240 0.516754 0.180817
0.344086 0.476776 0.204926
0.446808 0.448486 0.229889
0.547089 0.429474 0.258209
0.624573 0.422150 0.282562
0.677185 0.435944 0.301117
0.727478 0.438049 0.292725
0.773773 0.439087 0.282928
0.816498 0.439636 0.273163
0.856232 0.439972 0.263458
0.893524 0.439972 0.253967
0.928589 0.439819 0.244568
0.961823 0.439484 0.235168
0.993652 0.439026 0.225830
0.030273 0.639862 0.160797
0.030273 0.639862 0.160797
0.219086 0.609650 0.199890
0.349304 0.578308 0.224152
0.447876 0.548737 0.245728
0.545319 0.530243 0.272552
0.631256 0.514465 0.300110
0.695221 0.507660 0.324371
0.741974 0.510345 0.315857
0.785156 0.511932 0.305878
0.825439 0.513092 0.295898
0.862946 0.513855 0.285919
0.898254 0.514313 0.276123
0.931519 0.514496 0.266541
0.963165 0.514496 0.257111
0.993652 0.514404 0.247742
0.034729 0.707245 0.158875
0.034790 0.707245 0.158875
0.223999 0.684937 0.199310
0.355347 0.661591 0.224487
0.455811 0.639496 0.246704
0.545898 0.618317 0.268097
0.631744 0.607605 0.295532
0.701355 0.596405 0.322174
0.756317 0.588226 0.339600
0.796722 0.590088 0.329346
0.834320 0.591583 0.319183
0.869629 0.592651 0.309143
0.903015 0.593506 0.299103
0.934509 0.594116 0.289124
0.964600 0.594482 0.279358
0.993652 0.594727 0.269806
0.039215 0.764435 0.146667
0.039246 0.764435 0.146667
0.229218 0.748657 0.187622
0.361450 0.731934 0.213867
0.463623 0.716064 0.236938
0.555328 0.700592 0.258514
0.633179 0.687073 0.280640
0.702606 0.679779 0.306885
0.760284 0.672150 0.332550
0.808105 0.665649 0.353577
0.843262 0.667297 0.343140
0.876373 0.668640 0.332794
0.907745 0.669861 0.322479
0.937561 0.670715 0.312378
0.966034 0.671356 0.302368
0.993652 0.671814 0.292511
0.043854 0.815979 0.134857
0.043915 0.815979 0.134857
0.234222 0.805176 0.175323
0.366974 0.793427 0.202606
0.470551 0.782410 0.226471
0.563904 0.771759 0.248596
0.640594 0.761444 0.269775
0.703857 0.752411 0.291504
0.761292 0.747833 0.316864
0.809998 0.743195 0.341705
0.851898 0.738434 0.366516
0.883118 0.739777 0.357178
0.912567 0.741058 0.346649
0.940613 0.742188 0.336212
0.967560 0.742981 0.325928
0.993652 0.743774 0.315857
0.048798 0.863159 0.123566
0.048859 0.863159 0.123566
0.239136 0.856049 0.162628
0.372009 0.848267 0.190674
0.476868 0.840942 0.215454
0.571381 0.833984 0.238098
0.648468 0.827240 0.259583
0.710815 0.820587 0.280640
0.762512 0.814026 0.301300
0.810852 0.811554 0.325623
0.852539 0.809082 0.350006
0.888672 0.806519 0.374329
0.917389 0.806976 0.371521
0.943634 0.808228 0.360779
0.968994 0.809296 0.350159
0.993652 0.810181 0.339752
0.053925 0.906860 0.113373
0.054016 0.906860 0.113403
0.243866 0.902771 0.149872
0.376740 0.898041 0.178375
0.482574 0.893677 0.203888
0.577972 0.889465 0.227264
0.655182 0.885437 0.249115
0.717957 0.881561 0.270294
0.770050 0.877655 0.291229
0.814087 0.873932 0.311798
0.853241 0.871277 0.333588
0.889221 0.870483 0.357361
0.920624 0.869598 0.381317
0.946808 0.869843 0.386230
0.970520 0.871063 0.375275
0.993652 0.872101 0.364441
0.059387 0.948364 0.104736
0.059479 0.948364 0.104736
0.248749 0.946503 0.137543
0.381317 0.944336 0.165894
0.487793 0.942322 0.191956
0.583771 0.940399 0.216034
0.661133 0.938538 0.238434
0.723999 0.936707 0.259796
0.776520 0.934998 0.280731
0.820923 0.933319 0.301636
0.858978 0.931610 0.322205
0.891724 0.929901 0.342712
0.920929 0.928833 0.364044
0.948242 0.929230 0.387543
0.972046 0.929779 0.401154
0.993652 0.930969 0.390045
0.065155 0.988647 0.098267
0.065186 0.988647 0.098267
0.253723 0.988647 0.126221
0.385742 0.988647 0.153625
0.492828 0.988647 0.179840
0.589050 0.988647 0.204559
0.666351 0.988647 0.227539
0.729462 0.988647 0.249268
0.782013 0.988647 0.270203
0.826691 0.988647 0.291077
0.865051 0.988647 0.311859
0.898132 0.988647 0.332520
0.927063 0.988647 0.353271
0.952179 0.988647 0.374115
0.974243 0.988647 0.395203
0.993652 0.988647 0.416412
0.004883 0.018036 0.130981
0.004974 0.018036 0.130951
0.141541 0.028168 0.111023
0.260254 0.054016 0.132172
0.345764 0.077820 0.151550
0.424652 0.100800 0.170074
0.501984 0.122833 0.187866
0.578735 0.144135 0.205017
0.649994 0.144287 0.197418
0.713135 0.143463 0.188568
0.769928 0.142731 0.179718
0.821655 0.142212 0.170990
0.869324 0.141785 0.162445
0.913391 0.141571 0.154236
0.954559 0.141571 0.146271
0.993652 0.141663 0.138824
0.004883 0.018036 0.130951
0.004974 0.018066 0.130951
0.141541 0.028198 0.111023
0.260223 0.054077 0.132172
0.345764 0.077850 0.151550
0.424652 0.100830 0.170074
0.501923 0.122864 0.187866
0.578766 0.144165 0.205048
0.649994 0.144318 0.197418
0.713135 0.143555 0.188568
0.769928 0.142792 0.179749
0.821655 0.142273 0.171021
0.869324 0.141815 0.162445
0.913330 0.141663 0.154266
0.954559 0.141571 0.146271
0.993652 0.141693 0.138855
0.004883 0.093109 0.118713
0.004944 0.093109 0.118713
0.146576 0.113953 0.125458
0.262604 0.141693 0.149170
0.347015 0.164886 0.169617
0.425537 0.186188 0.188721
0.502594 0.206024 0.206818
0.579285 0.224762 0.224121
0.650269 0.225739 0.217438
0.713196 0.225616 0.209381
0.770020 0.225342 0.201202
0.821655 0.224915 0.193115
0.869293 0.224579 0.184967
0.913422 0.222992 0.175934
0.954590 0.221313 0.166901
0.993652 0.219727 0.158173
0.006287 0.192535 0.120514
0.006378 0.192535 0.120514
0.172089 0.196442 0.144501
0.282990 0.217651 0.169037
0.363342 0.238342 0.189758
0.439484 0.257385 0.209045
0.515015 0.275208 0.227325
0.589539 0.292023 0.244781
0.658020 0.293823 0.238342
0.719360 0.293854 0.230103
0.774780 0.293457 0.221619
0.825348 0.292847 0.212982
0.871918 0.292023 0.204102
0.915039 0.291077 0.195282
0.955383 0.290009 0.186371
0.993652 0.288910 0.177460
0.011139 0.282013 0.135590
0.011200 0.282013 0.135590
0.175812 0.277893 0.161194
0.315674 0.271240 0.189148
0.391937 0.290009 0.209534
0.465302 0.307526 0.228607
0.538513 0.324127 0.246887
0.608337 0.340240 0.264832
0.672852 0.342072 0.257904
0.730804 0.342590 0.249512
0.783447 0.342773 0.241119
0.831665 0.342590 0.232574
0.876373 0.342224 0.223938
0.917755 0.341614 0.215332
0.956696 0.340912 0.206635
0.993652 0.340088 0.197845
0.016022 0.368469 0.151154
0.016022 0.368469 0.151154
0.179657 0.359863 0.178406
0.318787 0.335663 0.202545
0.421356 0.332611 0.229675
0.492035 0.349335 0.248810
0.562592 0.365326 0.267303
0.627441 0.381012 0.285461
0.687683 0.383209 0.278320
0.742371 0.384094 0.269745
0.792297 0.384583 0.261108
0.838226 0.384674 0.252563
0.880920 0.384552 0.244049
0.920593 0.384125 0.235504
0.958099 0.383636 0.226929
0.993652 0.383057 0.218353
0.020752 0.460358 0.166992
0.020813 0.460358 0.166992
0.182465 0.447937 0.195313
0.321320 0.410522 0.218170
0.428619 0.389038 0.244568
0.519684 0.383209 0.269775
0.586212 0.398529 0.288391
0.646210 0.413544 0.306610
0.702606 0.415985 0.299438
0.753967 0.417297 0.290680
0.801208 0.418030 0.281830
0.844818 0.418365 0.273010
0.885498 0.418549 0.264282
0.923492 0.418396 0.255676
0.959381 0.418121 0.247192
0.993652 0.417755 0.238739
0.025513 0.555664 0.183167
0.025543 0.555664 0.183167
0.184723 0.543182 0.212219
0.326569 0.502289 0.236389
0.427094 0.469543 0.257660
0.528320 0.451660 0.285980
0.609528 0.445190 0.310181
0.664948 0.459564 0.328461
0.717468 0.462402 0.321106
0.765686 0.464050 0.312225
0.810211 0.465149 0.303253
0.851471 0.465973 0.294250
0.890137 0.466431 0.285309
0.926453 0.466614 0.276428
0.960785 0.466675 0.267639
0.993652 0.466522 0.259125
0.030273 0.639862 0.199280
0.030273 0.639862 0.199280
0.186646 0.630432 0.228973
0.331940 0.598297 0.255249
0.432037 0.570007 0.276001
0.526703 0.548798 0.299683
0.616455 0.534485 0.326996
0.683441 0.528656 0.351013
0.732208 0.531830 0.343475
0.777344 0.533966 0.334351
0.819214 0.535553 0.325226
0.858276 0.536804 0.316040
0.894928 0.537750 0.306885
0.929413 0.538361 0.297821
0.962189 0.538727 0.288849
0.993652 0.538879 0.279968
0.034729 0.707245 0.197601
0.034790 0.707245 0.197601
0.191864 0.700134 0.228790
0.337891 0.676025 0.255951
0.439606 0.654785 0.277374
0.530365 0.634216 0.297607
0.616943 0.621674 0.322601
0.689575 0.611572 0.349030
0.746918 0.604279 0.366547
0.789001 0.606567 0.357178
0.828247 0.608429 0.347870
0.864990 0.609985 0.338379
0.899719 0.611206 0.329041
0.932434 0.612061 0.319794
0.963623 0.612762 0.310608
0.993652 0.613251 0.301514
0.039215 0.764435 0.186371
0.039246 0.764435 0.186371
0.198944 0.759155 0.219452
0.343811 0.742004 0.246338
0.447144 0.726685 0.268280
0.539948 0.711761 0.289093
0.619171 0.697113 0.308960
0.690704 0.689972 0.334320
0.750885 0.683105 0.359802
0.800598 0.677185 0.380798
0.837341 0.679291 0.371155
0.871826 0.680969 0.361481
0.904541 0.682373 0.351807
0.935486 0.683502 0.342285
0.965027 0.684479 0.332886
0.993652 0.685242 0.323517
0.043854 0.815979 0.175110
0.043915 0.815979 0.175110
0.206146 0.812164 0.210052
0.349304 0.800293 0.236389
0.453979 0.789581 0.258545
0.548645 0.779236 0.279785
0.628265 0.769165 0.300201
0.692474 0.759155 0.320068
0.751770 0.754822 0.344543
0.802551 0.750641 0.369415
0.846100 0.746368 0.394043
0.878632 0.747925 0.385315
0.909363 0.749512 0.375427
0.938507 0.750793 0.365570
0.966522 0.751923 0.355865
0.993652 0.752808 0.346222
0.048798 0.863159 0.164001
0.048859 0.863159 0.164001
0.213287 0.860535 0.200531
0.354492 0.852783 0.225983
0.460327 0.845673 0.248627
0.556396 0.838837 0.270050
0.636353 0.832153 0.290833
0.701019 0.825623 0.311066
0.754456 0.819183 0.330811
0.803375 0.815948 0.353760
0.846710 0.813873 0.377960
0.884308 0.811554 0.402069
0.914215 0.812256 0.399750
0.941620 0.813721 0.389679
0.968048 0.814972 0.379578
0.993652 0.816071 0.369598
0.053925 0.906860 0.153046
0.054016 0.906860 0.153046
0.218445 0.905487 0.188873
0.359344 0.900726 0.215149
0.466064 0.896423 0.238312
0.563232 0.892273 0.259918
0.643402 0.888306 0.280945
0.708405 0.884430 0.301514
0.762238 0.880646 0.321686
0.807770 0.876862 0.341522
0.847382 0.873688 0.362000
0.884827 0.873138 0.385620
0.917480 0.872437 0.409302
0.944763 0.872955 0.414459
0.969574 0.874329 0.404022
0.993652 0.875488 0.393799
0.059387 0.948364 0.142609
0.059479 0.948364 0.142609
0.223511 0.947754 0.177002
0.363983 0.945587 0.203979
0.471588 0.943512 0.227783
0.569366 0.941620 0.249817
0.649597 0.939789 0.270813
0.714783 0.938049 0.291473
0.768951 0.936249 0.311890
0.814850 0.934570 0.331970
0.854126 0.932953 0.352020
0.888062 0.931305 0.372101
0.917786 0.929840 0.392487
0.946228 0.930450 0.415741
0.971039 0.931152 0.429443
0.993652 0.932495 0.418762
0.065155 0.988647 0.132782
0.065186 0.988647 0.132782
0.228699 0.988647 0.165222
0.368622 0.988647 0.192627
0.476746 0.988647 0.217072
0.574982 0.988647 0.239563
0.655151 0.988647 0.260803
0.720428 0.988647 0.281372
0.774750 0.988647 0.301880
0.820892 0.988647 0.322113
0.860504 0.988647 0.342377
0.894684 0.988647 0.362579
0.924530 0.988647 0.382843
0.950592 0.988647 0.403259
0.973450 0.988647 0.423920
0.993652 0.988647 0.444611
0.008911 0.029510 0.200287
0.008972 0.029510 0.200256
0.133606 0.033051 0.162750
0.256561 0.051758 0.166351
0.342834 0.075470 0.184387
0.422089 0.098419 0.201538
0.499634 0.120514 0.218018
0.576813 0.141785 0.234131
0.648468 0.142029 0.227203
0.712006 0.141174 0.219177
0.769104 0.140503 0.211273
0.821045 0.140015 0.203522
0.868835 0.139648 0.195740
0.913055 0.139465 0.188171
0.954407 0.139496 0.180664
0.993652 0.139709 0.173340
0.008911 0.029510 0.200256
0.008972 0.029572 0.200256
0.133606 0.033081 0.162781
0.256561 0.051819 0.166351
0.342834 0.075470 0.184418
0.422089 0.098450 0.201538
0.499603 0.120544 0.218048
0.576813 0.141815 0.234131
0.648468 0.142059 0.227234
0.712006 0.141235 0.219208
0.769104 0.140564 0.211304
0.821045 0.140015 0.203522
0.868835 0.139648 0.195770
0.913055 0.139496 0.188171
0.954407 0.139557 0.180695
0.993652 0.139740 0.173370
0.008179 0.099518 0.189056
0.008270 0.099518 0.189056
0.141754 0.117920 0.177429
0.259003 0.139465 0.183228
0.344086 0.162750 0.202667
0.422974 0.184113 0.220764
0.500275 0.204010 0.237976
0.577332 0.222839 0.254700
0.648682 0.223785 0.248566
0.712067 0.223602 0.241119
0.769104 0.223389 0.233795
0.820953 0.222992 0.226471
0.868774 0.222595 0.219269
0.913025 0.222229 0.212158
0.954407 0.221832 0.204987
0.993652 0.221497 0.197906
0.007385 0.192352 0.176575
0.007416 0.192352 0.176575
0.154449 0.204437 0.192291
0.265991 0.225220 0.203308
0.348297 0.245819 0.223114
0.425903 0.264801 0.241852
0.502594 0.282532 0.259857
0.579071 0.299500 0.277313
0.649719 0.301880 0.271759
0.712677 0.303162 0.264893
0.769440 0.304077 0.257965
0.821167 0.304901 0.251282
0.868988 0.304565 0.243713
0.913177 0.303955 0.236206
0.954529 0.303314 0.228607
0.993652 0.302551 0.220978
0.011139 0.282013 0.182587
0.011200 0.282013 0.182587
0.160095 0.285522 0.199890
0.292847 0.287079 0.223450
0.370544 0.305756 0.243164
0.445282 0.323792 0.262360
0.519775 0.341125 0.280823
0.593170 0.357697 0.298492
0.660431 0.360565 0.292999
0.720978 0.361755 0.285675
0.775879 0.362488 0.278107
0.825989 0.362823 0.270386
0.872345 0.362915 0.262726
0.915253 0.362732 0.255188
0.955475 0.362366 0.247620
0.993652 0.361877 0.240173
0.016022 0.368469 0.196838
0.016022 0.368469 0.196899
0.163300 0.370300 0.216583
0.298065 0.356750 0.237518
0.400024 0.352020 0.262817
0.472015 0.369476 0.281982
0.544189 0.386383 0.300476
0.612640 0.402802 0.318512
0.675781 0.405731 0.312683
0.732819 0.407440 0.305206
0.784882 0.408447 0.297455
0.832642 0.409149 0.289642
0.876984 0.409485 0.281769
0.918121 0.409637 0.273956
0.956879 0.409485 0.266296
0.993652 0.409180 0.258728
0.020752 0.460358 0.211426
0.020813 0.460358 0.211456
0.165771 0.461395 0.233124
0.302734 0.438690 0.254608
0.407654 0.412598 0.277252
0.499512 0.407501 0.302185
0.568726 0.423706 0.320770
0.632019 0.439484 0.338898
0.691071 0.442780 0.332825
0.744751 0.444763 0.325226
0.793915 0.446167 0.317413
0.839417 0.447235 0.309479
0.881653 0.447815 0.301483
0.921082 0.448242 0.293457
0.958282 0.448334 0.285492
0.993652 0.448273 0.277649
