Color Lookup Presets Effects/z1 (75).CUBE
#Created by: Adobe Photoshop Export Color Lookup Plugin
#Copyright: (C) Copyright 2016 www.zafizack.com
TITLE "zafizack pastel color preset"
#LUT size
LUT_3D_SIZE 16
#data domain
DOMAIN_MIN 0.0 0.0 0.0
DOMAIN_MAX 1.0 1.0 1.0
#LUT data points
0.054749 0.045410 0.043457
0.125031 0.069611 0.066193
0.200378 0.092804 0.087311
0.291718 0.118317 0.111450
0.391937 0.144775 0.137421
0.478333 0.168549 0.160706
0.551941 0.190094 0.181732
0.626343 0.209869 0.200714
0.701233 0.228394 0.217987
0.776337 0.246918 0.234711
0.825256 0.268402 0.256378
0.863251 0.292114 0.280365
0.901825 0.317627 0.304291
0.940948 0.343231 0.327820
0.972748 0.363495 0.346313
1.000000 0.380524 0.361755
0.052826 0.092041 0.036469
0.112885 0.100281 0.046265
0.194000 0.131287 0.066010
0.283081 0.157806 0.088959
0.380066 0.185089 0.113342
0.470978 0.209991 0.136749
0.542603 0.232178 0.156921
0.614807 0.253418 0.176788
0.687347 0.274231 0.195892
0.760162 0.294647 0.214264
0.828094 0.315002 0.233429
0.864960 0.338623 0.261383
0.902618 0.363251 0.288116
0.940948 0.388641 0.314056
0.973175 0.409119 0.335205
1.000000 0.426331 0.352051
0.050751 0.148560 0.030609
0.110352 0.156708 0.039093
0.175995 0.165283 0.048676
0.276947 0.203827 0.069489
0.371735 0.231598 0.092529
0.465973 0.257782 0.115265
0.535736 0.279755 0.134644
0.605988 0.301117 0.153625
0.676666 0.321747 0.172302
0.747833 0.342346 0.190399
0.818939 0.362305 0.207855
0.867310 0.383881 0.234314
0.903748 0.407318 0.264069
0.941254 0.431183 0.292542
0.973602 0.451477 0.315704
1.000000 0.467682 0.333893
0.049713 0.217712 0.025909
0.105042 0.223969 0.031830
0.169983 0.232300 0.040070
0.250214 0.242767 0.051910
0.365784 0.289093 0.072906
0.461090 0.316711 0.094910
0.531403 0.339630 0.113556
0.599945 0.361420 0.131653
0.668732 0.382477 0.149506
0.737793 0.403076 0.166840
0.806763 0.423157 0.183441
0.870361 0.442810 0.202454
0.905426 0.464233 0.235931
0.941772 0.486420 0.267334
0.974121 0.500366 0.293976
1.000000 0.510559 0.314331
0.052490 0.296753 0.024048
0.102020 0.300385 0.026245
0.163940 0.308075 0.032562
0.242340 0.317230 0.042267
0.330017 0.328888 0.055725
0.455292 0.382629 0.076233
0.529419 0.407379 0.094849
0.596130 0.429474 0.112030
0.663025 0.450714 0.128876
0.730011 0.471191 0.145203
0.796783 0.489258 0.161224
0.863342 0.503937 0.176788
0.907043 0.516571 0.208160
0.942169 0.529572 0.244080
0.974579 0.541595 0.274017
1.000000 0.550995 0.295990
0.055298 0.382233 0.021820
0.098236 0.384033 0.021149
0.159363 0.390778 0.026855
0.236450 0.398926 0.035065
0.321655 0.408142 0.045898
0.410950 0.419678 0.059845
0.527832 0.473877 0.078522
0.593231 0.491241 0.096039
0.658264 0.507111 0.112640
0.723480 0.522369 0.128693
0.788391 0.537018 0.144196
0.853241 0.551208 0.158997
0.908630 0.563934 0.181183
0.942566 0.574341 0.221893
0.975037 0.585083 0.255737
1.000000 0.593353 0.279663
0.057526 0.457672 0.020142
0.094604 0.459412 0.017212
0.154266 0.465149 0.022461
0.230255 0.472107 0.029663
0.314270 0.479462 0.039124
0.401459 0.487518 0.050873
0.491241 0.496735 0.065552
0.589905 0.541565 0.082489
0.654388 0.558105 0.099121
0.718353 0.573212 0.114655
0.781921 0.587372 0.129425
0.845337 0.601166 0.143494
0.908112 0.614563 0.156281
0.943024 0.622559 0.200378
0.975464 0.631378 0.239197
1.000000 0.638611 0.265442
0.059265 0.520721 0.019073
0.089935 0.521271 0.014282
0.148712 0.526154 0.019165
0.223816 0.532471 0.025635
0.306763 0.538879 0.034149
0.392609 0.545929 0.044434
0.481354 0.553925 0.057220
0.548462 0.561310 0.069977
0.645935 0.605865 0.086243
0.714722 0.626373 0.102264
0.777191 0.640594 0.116577
0.839233 0.653809 0.130005
0.900543 0.666565 0.142059
0.943512 0.674103 0.179535
0.975861 0.680786 0.224670
1.000000 0.686462 0.253845
0.060974 0.585907 0.017731
0.085449 0.585358 0.011566
0.142914 0.589478 0.016083
0.217621 0.595032 0.022034
0.299866 0.600586 0.029724
0.384674 0.606628 0.038940
0.472198 0.613556 0.050232
0.541779 0.620331 0.061829
0.604980 0.627289 0.074341
0.697754 0.667755 0.089874
0.773712 0.696228 0.105164
0.834717 0.709259 0.118256
0.894897 0.721375 0.129822
0.944061 0.729187 0.159088
0.976257 0.732635 0.212769
1.000000 0.737030 0.245514
0.062714 0.653351 0.017365
0.080933 0.652008 0.009125
0.137421 0.655090 0.013275
0.211578 0.659760 0.018829
0.292908 0.664459 0.025696
0.376984 0.669617 0.034058
0.463348 0.675446 0.044128
0.535889 0.681519 0.054718
0.598511 0.688080 0.066071
0.661133 0.694733 0.078766
0.748230 0.730499 0.093292
0.831360 0.767151 0.107849
0.890594 0.779266 0.119202
0.944794 0.787964 0.138763
0.976318 0.787598 0.203766
1.000000 0.789978 0.241699
0.064453 0.722748 0.017700
0.076019 0.720581 0.006897
0.131683 0.722748 0.010681
0.205719 0.726410 0.015869
0.286407 0.730377 0.022095
0.369812 0.734467 0.029663
0.455292 0.739319 0.038727
0.530182 0.744568 0.048462
0.592163 0.750397 0.058563
0.654510 0.756989 0.070190
0.716278 0.763214 0.083160
0.798218 0.794312 0.096558
0.887451 0.839478 0.109802
0.944794 0.849884 0.120117
0.975861 0.844635 0.198242
1.000000 0.845032 0.244171
0.066162 0.794403 0.018066
0.071960 0.791626 0.005005
0.126099 0.792816 0.008331
0.199860 0.795380 0.013123
0.279938 0.798492 0.018768
0.362671 0.801575 0.025635
0.447296 0.805298 0.033813
0.524841 0.809814 0.042877
0.586029 0.814758 0.051849
0.647888 0.820679 0.062317
0.709625 0.827148 0.074585
0.770752 0.833038 0.087250
0.846710 0.858673 0.099060
0.941803 0.912506 0.111603
0.975403 0.903992 0.198608
1.000000 0.901520 0.256165
0.067535 0.850677 0.018280
0.070038 0.848663 0.004059
0.120941 0.849762 0.006622
0.194824 0.852386 0.011047
0.274658 0.855530 0.016296
0.356567 0.858673 0.022552
0.440521 0.862488 0.030029
0.520142 0.866974 0.038452
0.580933 0.872070 0.046539
0.642181 0.878174 0.055969
0.703430 0.885040 0.066956
0.764526 0.892090 0.079498
0.824097 0.898224 0.091034
0.898529 0.924103 0.102295
0.974701 0.960602 0.207611
1.000000 0.955811 0.282440
0.068695 0.899780 0.018616
0.071106 0.897644 0.003632
0.116577 0.898041 0.005310
0.190338 0.899872 0.009460
0.269745 0.902161 0.014404
0.351349 0.904785 0.020233
0.435120 0.907898 0.027252
0.516235 0.911682 0.035309
0.576752 0.916260 0.042816
0.637512 0.921783 0.051544
0.698456 0.928162 0.061523
0.759460 0.935028 0.073730
0.819366 0.941620 0.085541
0.876740 0.945526 0.102600
0.947601 0.968811 0.220215
1.000000 0.991638 0.314941
0.069824 0.949799 0.018890
0.072113 0.947662 0.003265
0.111755 0.947296 0.004120
0.185791 0.948334 0.007965
0.265045 0.949890 0.012634
0.346283 0.951904 0.018066
0.429443 0.954193 0.024628
0.512726 0.957336 0.032349
0.572540 0.961273 0.039276
0.632996 0.966217 0.047363
0.693695 0.972015 0.056854
0.753113 0.971954 0.090332
0.810944 0.971924 0.134857
0.866180 0.971771 0.190979
0.916901 0.971558 0.257538
0.977600 1.000000 0.356354
0.071777 1.000000 0.019684
0.073242 0.998596 0.002747
0.107422 0.997620 0.003052
0.181061 0.997864 0.006561
0.260437 0.998596 0.010956
0.341217 1.000000 0.015991
0.425232 1.000000 0.023132
0.509735 1.000000 0.032806
0.569702 1.000000 0.044769
0.629791 1.000000 0.067047
0.689758 1.000000 0.097870
0.749146 1.000000 0.139679
0.807159 1.000000 0.194580
0.862823 1.000000 0.267059
0.912567 1.000000 0.349426
0.949982 1.000000 0.424622
0.052216 0.040466 0.074829
0.094330 0.043121 0.095947
0.161133 0.060394 0.112793
0.254272 0.080139 0.133636
0.357788 0.100616 0.156464
0.449677 0.119293 0.176758
0.527069 0.135651 0.194550
0.605225 0.152893 0.211426
0.683624 0.169678 0.227722
0.762299 0.186310 0.243347
0.817749 0.208252 0.263000
0.857910 0.233643 0.285645
0.898315 0.259613 0.307617
0.938965 0.284973 0.329315
0.972015 0.305206 0.346008
1.000000 0.321625 0.360291
0.052338 0.083557 0.099792
0.094208 0.086304 0.099487
0.163361 0.108826 0.120361
0.253479 0.135376 0.145538
0.352905 0.161255 0.170776
0.448273 0.184875 0.193787
0.522766 0.205139 0.213135
0.597900 0.224579 0.231598
0.673065 0.243103 0.248566
0.748413 0.261444 0.264862
0.822205 0.279907 0.280853
0.860779 0.304260 0.304840
0.899750 0.330536 0.328918
0.939270 0.357513 0.353302
0.972504 0.379272 0.372833
1.000000 0.396729 0.388214
0.054016 0.141815 0.104187
0.097900 0.143951 0.099274
0.154968 0.151031 0.105042
0.247925 0.182922 0.128265
0.344177 0.210571 0.153625
0.442261 0.237030 0.177490
0.514282 0.259125 0.197815
0.587036 0.280640 0.217133
0.660278 0.301514 0.236237
0.734131 0.322205 0.254761
0.808044 0.342529 0.272247
0.862000 0.364960 0.296051
0.900238 0.390411 0.323120
0.939117 0.415985 0.349792
0.972778 0.437439 0.371124
1.000000 0.452759 0.385925
0.056915 0.210541 0.099182
0.098785 0.211487 0.092041
0.149231 0.217773 0.090027
0.229340 0.228394 0.105957
0.337952 0.267731 0.130127
0.435883 0.295715 0.153564
0.509796 0.318909 0.173401
0.580811 0.341156 0.192017
0.652191 0.362488 0.210327
0.723877 0.383331 0.227936
0.795563 0.403717 0.244598
0.864960 0.423584 0.261871
0.901855 0.447296 0.292908
0.939636 0.471283 0.322815
0.973328 0.489136 0.347321
1.000000 0.500061 0.367004
0.059845 0.289001 0.095612
0.101196 0.288940 0.087433
0.143219 0.293396 0.077423
0.221161 0.302734 0.091431
0.309814 0.314514 0.109741
0.429138 0.361115 0.132660
0.507111 0.386414 0.152954
0.576385 0.409088 0.170776
0.645905 0.430603 0.188110
0.715546 0.451447 0.204865
0.785156 0.471649 0.220703
0.854523 0.488525 0.236359
0.903412 0.502838 0.263916
0.940033 0.517120 0.298706
0.973755 0.530457 0.326935
1.000000 0.540497 0.348328
0.062775 0.373993 0.091003
0.103363 0.373810 0.082611
0.138947 0.376862 0.065948
0.215485 0.385010 0.078522
0.301331 0.394379 0.094330
0.392609 0.406250 0.112213
0.505707 0.457306 0.133087
0.573761 0.475128 0.151550
0.641235 0.491364 0.168854
0.708984 0.506958 0.185364
0.776611 0.521973 0.200928
0.844116 0.536377 0.216034
0.904938 0.550262 0.234619
0.940399 0.562286 0.274414
0.974213 0.574371 0.306915
1.000000 0.583374 0.330414
0.065186 0.451782 0.088837
0.105591 0.451538 0.080261
0.133820 0.453552 0.057251
0.209534 0.460449 0.068848
0.293976 0.467804 0.083344
0.382599 0.476166 0.099182
0.473969 0.485565 0.117645
0.569885 0.525787 0.136108
0.637054 0.542847 0.153717
0.703583 0.558258 0.169739
0.769806 0.572968 0.184692
0.835785 0.586914 0.199066
0.901215 0.600830 0.211517
0.940826 0.610718 0.251587
0.974701 0.621033 0.289368
1.000000 0.628876 0.315277
0.067047 0.514832 0.087616
0.106812 0.514465 0.079071
0.128510 0.515564 0.050140
0.203400 0.521637 0.060913
0.286591 0.528107 0.074402
0.373901 0.535339 0.088928
0.464783 0.543610 0.105865
0.533051 0.551147 0.120911
0.633575 0.596130 0.138702
0.699829 0.612244 0.155243
0.764984 0.626831 0.169769
0.829590 0.640289 0.183594
0.893463 0.653564 0.195404
0.941345 0.662811 0.228485
0.975098 0.670685 0.273010
1.000000 0.677246 0.302155
0.068878 0.580048 0.086792
0.108215 0.579529 0.078369
0.123108 0.579834 0.043762
0.197205 0.585083 0.053864
0.279724 0.590668 0.066437
0.365875 0.596893 0.079895
0.455231 0.604004 0.095520
0.526398 0.611053 0.109985
0.591614 0.618256 0.124573
0.687775 0.659485 0.141174
0.761292 0.683167 0.156677
0.824890 0.696533 0.170227
0.887604 0.709167 0.181549
0.941956 0.718536 0.205994
0.975525 0.723480 0.259399
1.000000 0.728394 0.292511
0.070679 0.647461 0.086090
0.109589 0.646973 0.077606
0.117859 0.646545 0.037750
0.191437 0.650879 0.047211
0.272949 0.655487 0.058929
0.358185 0.660767 0.071503
0.446533 0.666840 0.086090
0.520172 0.673157 0.099915
0.584900 0.679901 0.113861
0.649750 0.686707 0.128082
0.740265 0.723297 0.143219
0.821442 0.755310 0.158173
0.883209 0.767700 0.169342
0.942566 0.778229 0.183044
0.975464 0.779022 0.248383
1.000000 0.782196 0.287201
0.072540 0.717041 0.084991
0.110748 0.716370 0.076599
0.113708 0.715546 0.032684
0.185669 0.718811 0.040833
0.266632 0.722473 0.051788
0.351166 0.726776 0.063477
0.438507 0.731750 0.077087
0.514648 0.737213 0.090332
0.578522 0.743195 0.103363
0.643097 0.749939 0.117310
0.707153 0.756500 0.130951
0.792084 0.788116 0.145050
0.879974 0.828888 0.158112
0.939850 0.839630 0.168793
0.975098 0.837280 0.240540
1.000000 0.838074 0.288025
0.074402 0.788727 0.084656
0.112213 0.787964 0.076233
0.115021 0.786987 0.033325
0.179993 0.789001 0.035248
0.260315 0.791687 0.045502
0.343933 0.794891 0.056396
0.430450 0.798798 0.069122
0.509064 0.803375 0.081848
0.572266 0.808502 0.094086
0.636261 0.814667 0.107269
0.700256 0.821350 0.120880
0.763519 0.827332 0.134277
0.842407 0.853546 0.146240
0.936768 0.903168 0.159210
0.974579 0.897522 0.238983
1.000000 0.895660 0.298889
0.075867 0.845551 0.083282
0.112457 0.845642 0.074738
0.115082 0.845428 0.032501
0.175385 0.847443 0.030212
0.255066 0.850098 0.039825
0.338318 0.853394 0.050018
0.423737 0.857269 0.061859
0.504578 0.861908 0.074036
0.567291 0.867157 0.085388
0.630493 0.873474 0.097778
0.693909 0.880432 0.110809
0.757172 0.887634 0.124298
0.819031 0.894012 0.136017
0.895905 0.920166 0.147827
0.973907 0.955933 0.244904
1.000000 0.951263 0.323334
0.077026 0.894653 0.083282
0.113403 0.894714 0.074677
0.115997 0.894348 0.033417
0.170654 0.895660 0.026947
0.250427 0.897736 0.036133
0.333069 0.900238 0.045868
0.418213 0.903351 0.057190
0.500610 0.907410 0.069061
0.562958 0.911957 0.079926
0.625793 0.917694 0.091797
0.688843 0.924316 0.104340
0.751984 0.931335 0.117615
0.814026 0.938080 0.129700
0.874298 0.943237 0.141296
0.949127 0.968414 0.255707
1.000000 0.987762 0.349060
0.078339 0.944885 0.081482
0.113037 0.945007 0.072754
0.115509 0.944489 0.032043
0.166840 0.945251 0.022888
0.246246 0.946472 0.031555
0.328583 0.948242 0.040680
0.413086 0.950592 0.051422
0.497345 0.953857 0.062897
0.559204 0.957855 0.073151
0.621552 0.962952 0.084442
0.683990 0.969025 0.096375
0.746735 0.971680 0.123505
0.807373 0.971619 0.168060
0.864716 0.971527 0.225006
0.917603 0.971344 0.291412
0.979553 1.000000 0.387299
0.079498 0.996033 0.081879
0.114319 0.995972 0.073059
0.116669 0.995300 0.033783
0.161957 0.995575 0.020142
0.241364 0.996033 0.028442
0.323151 0.997009 0.037109
0.407440 0.998596 0.047333
0.493866 1.000000 0.060547
0.556335 1.000000 0.077759
0.619232 1.000000 0.101257
0.681854 1.000000 0.132843
0.743744 1.000000 0.175629
0.804169 1.000000 0.231445
0.861908 1.000000 0.305206
0.911621 1.000000 0.380035
0.951813 1.000000 0.447052
0.054504 0.040070 0.113251
0.095978 0.040283 0.164276
0.141449 0.042755 0.164215
0.216309 0.055725 0.170868
0.321075 0.073456 0.194641
0.416809 0.089630 0.215668
0.497284 0.104156 0.233551
0.578735 0.119965 0.250732
0.661011 0.136139 0.266907
0.743927 0.152283 0.282227
0.806854 0.174805 0.300201
0.850067 0.203094 0.321777
0.892975 0.231476 0.343018
0.935852 0.259033 0.364075
0.970703 0.280823 0.380524
1.000000 0.298706 0.394196
0.052338 0.075714 0.159027
0.092804 0.079834 0.167297
0.140839 0.082642 0.165131
0.215698 0.096161 0.173920
0.316833 0.118500 0.196869
0.416351 0.138947 0.218201
0.494019 0.156738 0.235443
0.572540 0.173645 0.251923
0.651672 0.190308 0.267517
0.731110 0.206757 0.282318
0.810577 0.222900 0.296234
0.854034 0.249115 0.317749
0.895355 0.276001 0.339478
0.936859 0.303192 0.361389
0.971527 0.324707 0.379211
1.000000 0.342529 0.393524
0.052338 0.127838 0.164642
0.092865 0.134064 0.169220
0.142944 0.139221 0.169830
0.217743 0.153320 0.179504
0.316193 0.176880 0.202057
0.418549 0.199127 0.223541
0.493439 0.218719 0.241913
0.568848 0.238312 0.260254
0.644989 0.257385 0.277893
0.721680 0.276703 0.295380
0.798279 0.295990 0.312256
0.857727 0.319031 0.333038
0.897400 0.347656 0.358887
0.937439 0.375488 0.383545
0.971832 0.395020 0.398315
1.000000 0.410736 0.410156
0.053314 0.204254 0.178253
0.091827 0.206604 0.172729
0.142700 0.207947 0.168274
0.211243 0.214813 0.171143
0.311890 0.246887 0.196075
0.411377 0.274750 0.221130
0.488739 0.298340 0.241730
0.561707 0.320526 0.261261
0.635376 0.342041 0.279877
0.709625 0.363037 0.297760
0.783905 0.383545 0.314514
0.858276 0.403625 0.330414
0.898132 0.429321 0.357819
0.937012 0.453064 0.380981
0.971954 0.471924 0.397766
1.000000 0.481140 0.411407
0.056183 0.282043 0.173889
0.094299 0.283813 0.165253
0.143036 0.284210 0.159821
0.203217 0.289276 0.153320
0.292480 0.301208 0.172302
0.404724 0.340240 0.196533
0.486145 0.366028 0.217773
0.557404 0.388824 0.236511
0.629120 0.410767 0.254181
0.701263 0.431793 0.271332
0.773346 0.452332 0.287262
0.845459 0.472412 0.302429
0.899750 0.488617 0.326324
0.937866 0.504517 0.358276
0.972687 0.516418 0.380463
1.000000 0.524719 0.395111
0.059021 0.366333 0.169342
0.096466 0.368256 0.159454
0.144714 0.368073 0.153564
0.197388 0.371765 0.138672
0.283813 0.381378 0.155243
0.376282 0.393219 0.174408
0.484467 0.438019 0.195801
0.554657 0.458954 0.215027
0.624481 0.475555 0.232849
0.694550 0.491425 0.249756
0.764526 0.506622 0.265533
0.834625 0.521332 0.280457
0.901123 0.536011 0.296112
0.938232 0.549683 0.333374
0.973419 0.563019 0.364471
1.000000 0.570068 0.380615
0.061554 0.446167 0.165558
0.098938 0.447510 0.154877
0.145874 0.447174 0.148743
0.191742 0.449402 0.126007
0.276611 0.457031 0.141357
0.366364 0.465424 0.158539
0.458649 0.475006 0.177460
0.550995 0.510254 0.196655
0.620331 0.527679 0.214813
0.689209 0.543396 0.231354
0.757721 0.558258 0.246490
0.826202 0.572693 0.260681
0.894104 0.586670 0.273254
0.938629 0.598450 0.308380
0.973877 0.610046 0.345032
1.000000 0.617828 0.367218
0.063385 0.509064 0.164093
0.100159 0.510406 0.152954
0.146545 0.509796 0.146576
0.185638 0.511261 0.116302
0.269257 0.517914 0.130707
0.357422 0.525238 0.146576
0.450256 0.533661 0.164276
0.519226 0.541443 0.179871
0.616699 0.581482 0.197937
0.685211 0.598022 0.215057
0.752686 0.612793 0.229919
0.819794 0.626648 0.243652
0.886108 0.640045 0.255493
0.939117 0.650970 0.283691
0.974274 0.660217 0.327606
1.000000 0.667664 0.355194
0.065216 0.574219 0.162262
0.101685 0.575531 0.150757
0.147064 0.574768 0.144379
0.179779 0.575531 0.106720
0.262512 0.581299 0.120331
0.349548 0.587616 0.135345
0.440704 0.594910 0.151703
0.512512 0.602051 0.166840
0.579651 0.609406 0.181793
0.678589 0.651306 0.198883
0.749023 0.669891 0.214569
0.815094 0.683563 0.228119
0.880157 0.696442 0.239532
0.939697 0.707275 0.258331
0.974701 0.713654 0.311951
1.000000 0.719391 0.343811
0.067078 0.641571 0.160645
0.103149 0.642975 0.149048
0.147797 0.642059 0.142548
0.174133 0.642181 0.097961
0.255859 0.646973 0.110840
0.341919 0.652374 0.124969
0.431793 0.658539 0.140350
0.506226 0.664948 0.154968
0.572723 0.671936 0.169342
0.639618 0.678986 0.184021
0.732941 0.716095 0.199493
0.811523 0.743347 0.214264
0.875671 0.755859 0.225616
0.938812 0.767212 0.235931
0.974579 0.769989 0.298798
1.000000 0.773987 0.337036
0.068939 0.711090 0.158691
0.104401 0.712463 0.146942
0.148285 0.711304 0.140411
0.169342 0.711212 0.089752
0.249634 0.714874 0.101501
0.334656 0.719147 0.114838
0.423553 0.724365 0.129333
0.500549 0.729950 0.143494
0.566315 0.736115 0.157013
0.632721 0.743073 0.171539
0.698761 0.749756 0.185425
0.786407 0.781921 0.199585
0.872437 0.817871 0.212677
0.934692 0.828979 0.222900
0.974182 0.829224 0.288727
1.000000 0.830688 0.336121
0.070770 0.782776 0.157288
0.106018 0.784088 0.145477
0.148956 0.782898 0.138855
0.166748 0.782593 0.084503
0.243317 0.785065 0.092804
0.327789 0.788300 0.105469
0.415619 0.792480 0.119171
0.494904 0.797089 0.132813
0.559998 0.802368 0.145538
0.625793 0.808685 0.159393
0.691742 0.815521 0.173462
0.756989 0.821686 0.186951
0.838531 0.848358 0.199066
0.931549 0.893463 0.211456
0.973663 0.890778 0.284119
1.000000 0.889221 0.343109
0.072296 0.839966 0.154999
0.106598 0.842163 0.143311
0.149048 0.841797 0.136780
0.166260 0.842224 0.081818
0.238342 0.844727 0.085266
0.321899 0.848022 0.097260
0.408722 0.852051 0.110107
0.490417 0.856781 0.123444
0.554657 0.862183 0.135315
0.619751 0.868561 0.148376
0.685059 0.875824 0.161835
0.750336 0.883179 0.175537
0.814331 0.889679 0.187531
0.893555 0.915924 0.199005
0.973053 0.950836 0.287262
1.000000 0.945801 0.359283
0.073547 0.889191 0.153320
0.107849 0.891327 0.141510
0.148956 0.890900 0.135101
0.165741 0.891235 0.079712
0.233856 0.893066 0.079224
0.316864 0.895660 0.090820
0.403381 0.898926 0.103210
0.486755 0.902924 0.116241
0.550659 0.907745 0.127563
0.615143 0.913605 0.140106
0.680023 0.920319 0.153137
0.745117 0.927521 0.166687
0.809235 0.934448 0.179169
0.871613 0.939758 0.190430
0.951050 0.967926 0.294708
1.000000 0.983704 0.382233
0.074860 0.939453 0.150940
0.107849 0.941620 0.139496
0.148560 0.941040 0.132843
0.164886 0.941345 0.076874
0.229614 0.942444 0.073059
0.312439 0.944275 0.084198
0.398102 0.946808 0.096130
0.483246 0.950134 0.108887
0.546631 0.954254 0.119720
0.610687 0.959473 0.131622
0.675171 0.965637 0.144226
0.739960 0.971313 0.161682
0.803406 0.971344 0.206543
0.863342 0.971252 0.263245
0.917938 0.971039 0.327545
0.981964 1.000000 0.422577
0.076111 0.990662 0.148865
0.109344 0.992676 0.137665
0.148560 0.992157 0.131042
0.164337 0.992310 0.075195
0.225250 0.992828 0.067352
0.307739 0.993866 0.078094
0.392883 0.995667 0.089569
0.479889 0.998199 0.102142
0.543488 1.000000 0.116119
0.608673 1.000000 0.140076
0.673767 1.000000 0.172211
0.738159 1.000000 0.215515
0.800812 1.000000 0.271820
0.858337 1.000000 0.337402
0.910889 1.000000 0.414246
0.953766 1.000000 0.470520
0.056702 0.039673 0.154236
0.096375 0.037842 0.243195
0.142242 0.040375 0.245178
0.209290 0.040924 0.248260
0.286499 0.050812 0.245544
0.385345 0.064545 0.267426
0.468109 0.076874 0.285980
0.552673 0.090424 0.303375
0.638397 0.105530 0.319702
0.725220 0.120819 0.335022
0.795807 0.142456 0.351013
0.841949 0.172943 0.370148
0.887390 0.203247 0.389832
0.932526 0.232635 0.409546
0.969391 0.255890 0.425385
1.000000 0.274811 0.438354
0.052338 0.069946 0.219727
0.093689 0.076050 0.244080
0.141602 0.078949 0.243866
0.204346 0.076538 0.244812
0.281158 0.088593 0.244873
0.383911 0.107758 0.266724
0.463928 0.124603 0.284454
0.545319 0.140747 0.301147
0.627930 0.156799 0.316772
0.711273 0.172577 0.331421
0.795013 0.188171 0.344971
0.845520 0.215912 0.363861
0.889496 0.245514 0.384155
0.933350 0.275085 0.404999
0.970123 0.298431 0.422302
1.000000 0.317657 0.436096
0.052338 0.119751 0.232941
0.089905 0.125153 0.247528
0.137909 0.128723 0.246552
0.202759 0.133606 0.244720
0.279510 0.143768 0.247284
0.384247 0.165161 0.269012
0.462555 0.182739 0.286072
0.541229 0.199554 0.302094
0.620972 0.215973 0.317261
0.701599 0.232391 0.331757
0.782379 0.248230 0.345428
0.849426 0.268890 0.361420
0.891846 0.297394 0.383057
0.934357 0.325317 0.404480
0.970886 0.348267 0.422577
1.000000 0.364471 0.434265
0.052338 0.182831 0.238159
0.087402 0.189087 0.243286
0.137634 0.195313 0.244568
0.203705 0.204010 0.249176
0.281219 0.214294 0.253448
0.383270 0.237518 0.275238
0.464966 0.256714 0.292633
0.540985 0.274200 0.308289
0.617798 0.291229 0.323151
0.695160 0.308105 0.337677
0.772186 0.327606 0.354309
0.849365 0.347321 0.370514
0.894073 0.374054 0.392303
0.934204 0.399109 0.411194
0.970856 0.420929 0.427979
1.000000 0.437592 0.440857
0.052795 0.275482 0.261993
0.087311 0.278503 0.257019
0.135468 0.278900 0.250824
0.199982 0.280884 0.246765
0.275726 0.287781 0.248016
0.379913 0.318695 0.273224
0.464294 0.344604 0.295837
0.537384 0.367371 0.315338
0.611237 0.389191 0.333832
0.684906 0.409546 0.349976
0.758636 0.428711 0.363770
0.833221 0.447449 0.376648
0.893616 0.466309 0.392548
0.933289 0.480164 0.414795
0.970795 0.492981 0.434418
1.000000 0.502625 0.448914
0.055511 0.359070 0.259308
0.089478 0.362640 0.251221
0.137115 0.362488 0.244507
0.200653 0.363678 0.239441
0.266785 0.368011 0.229797
0.360229 0.379913 0.249817
0.462189 0.416412 0.272308
0.534607 0.440826 0.292267
0.606506 0.458435 0.310760
0.678802 0.474396 0.328217
0.751343 0.489746 0.344482
0.823364 0.503662 0.357605
0.895752 0.517548 0.369263
0.934204 0.528809 0.394775
0.971466 0.540009 0.417450
1.000000 0.548615 0.433533
0.058014 0.440674 0.256744
0.091919 0.443359 0.246704
0.138336 0.442963 0.239716
0.201233 0.443420 0.233887
0.259460 0.445740 0.214935
0.350128 0.454163 0.232849
0.442841 0.463745 0.252533
0.530548 0.493256 0.272461
0.601990 0.510834 0.291718
0.673126 0.526703 0.308777
0.744080 0.541718 0.324463
0.815125 0.556183 0.338867
0.885773 0.570404 0.351654
0.935181 0.580811 0.374786
0.972076 0.589935 0.401459
