Color Lookup Presets Effects/z1 (66).CUBE
#Created by: Adobe Photoshop Export Color Lookup Plugin
#Copyright: (C) Copyright 2016 www.zafizack.com
TITLE "zafizack pastel color preset"
#LUT size
LUT_3D_SIZE 16
#data domain
DOMAIN_MIN 0.0 0.0 0.0
DOMAIN_MAX 1.0 1.0 1.0
#LUT data points
0.046234 0.025970 0.032593
0.097656 0.034637 0.044128
0.151306 0.042297 0.054016
0.229279 0.050110 0.064789
0.330170 0.058014 0.077576
0.422363 0.065399 0.095215
0.517517 0.072388 0.112152
0.603638 0.078949 0.128571
0.679352 0.085266 0.144287
0.756653 0.091309 0.159149
0.809143 0.104309 0.186493
0.850708 0.120819 0.218933
0.892731 0.147095 0.249817
0.935486 0.174896 0.279999
0.970337 0.196869 0.303711
1.000000 0.215668 0.323700
0.046265 0.060303 0.032623
0.086121 0.061218 0.034210
0.138184 0.069550 0.043579
0.203613 0.077667 0.054169
0.309845 0.085938 0.064972
0.400604 0.093597 0.076385
0.494019 0.100891 0.092407
0.584717 0.107666 0.107971
0.659149 0.114136 0.122681
0.735168 0.120178 0.136749
0.808228 0.130188 0.152649
0.849823 0.157349 0.187469
0.891785 0.185242 0.221069
0.934326 0.214294 0.254059
0.970337 0.237427 0.280762
1.000000 0.256989 0.302338
0.046265 0.100739 0.032654
0.085571 0.101074 0.033691
0.127747 0.102356 0.035645
0.189301 0.110779 0.045074
0.292328 0.119415 0.055542
0.381348 0.130127 0.065399
0.473328 0.142273 0.075684
0.567474 0.153778 0.090302
0.641266 0.164642 0.104401
0.717010 0.175018 0.117767
0.794098 0.185150 0.130371
0.848877 0.206421 0.159973
0.890900 0.234436 0.196625
0.933289 0.263275 0.232452
0.970337 0.287018 0.261505
1.000000 0.306061 0.284393
0.046326 0.169159 0.032715
0.083344 0.167786 0.032623
0.124878 0.169342 0.034149
0.178528 0.173248 0.037506
0.275970 0.187469 0.046783
0.364532 0.202179 0.056580
0.454620 0.215332 0.065704
0.547607 0.227417 0.074890
0.625122 0.239105 0.088104
0.699677 0.249878 0.100800
0.775604 0.260437 0.112457
0.848022 0.272736 0.128326
0.890015 0.300873 0.169037
0.932343 0.328979 0.207703
0.970337 0.345947 0.239960
1.000000 0.358185 0.264404
0.046356 0.265259 0.032715
0.082977 0.261719 0.032593
0.122070 0.262787 0.032806
0.174316 0.265015 0.035217
0.261353 0.271057 0.039856
0.348846 0.285522 0.048706
0.439087 0.300781 0.057892
0.530701 0.313629 0.066376
0.611237 0.325958 0.074219
0.684174 0.335175 0.086029
0.759338 0.342010 0.096893
0.835999 0.348663 0.106812
0.889099 0.362915 0.140930
0.931458 0.380829 0.183502
0.970337 0.396240 0.219482
1.000000 0.408447 0.245819
0.046417 0.357452 0.032745
0.082184 0.354584 0.032593
0.120636 0.354828 0.032593
0.171875 0.355835 0.034302
0.253601 0.358002 0.037628
0.336823 0.362671 0.042603
0.424164 0.371948 0.050873
0.516235 0.381805 0.059509
0.599487 0.390137 0.067108
0.671570 0.397705 0.074036
0.745300 0.404358 0.084290
0.820831 0.410858 0.093170
0.887756 0.419891 0.113159
0.930511 0.436218 0.161224
0.970337 0.450958 0.201477
1.000000 0.462036 0.230072
0.046448 0.431488 0.032776
0.081818 0.428497 0.032593
0.119293 0.428284 0.032593
0.169647 0.429016 0.033752
0.248199 0.430450 0.036438
0.330872 0.433289 0.040375
0.413025 0.438446 0.045532
0.502380 0.447113 0.053131
0.588989 0.456757 0.061157
0.660828 0.464294 0.067902
0.733765 0.471191 0.073853
0.808350 0.477539 0.082214
0.884338 0.483307 0.089142
0.929626 0.497040 0.140106
0.970337 0.510712 0.186310
1.000000 0.520935 0.217651
0.046478 0.509186 0.032806
0.081055 0.505432 0.032593
0.118042 0.504883 0.032593
0.167877 0.505432 0.033295
0.244080 0.506836 0.035675
0.326843 0.508942 0.038940
0.407440 0.512726 0.043365
0.492401 0.518158 0.048706
0.579315 0.525879 0.055389
0.651520 0.535217 0.062714
0.723969 0.542542 0.068604
0.797852 0.548798 0.073608
0.872955 0.554352 0.079590
0.928680 0.562714 0.120331
0.970337 0.572235 0.174011
1.000000 0.579376 0.208832
0.046509 0.583496 0.032806
0.080566 0.580688 0.032593
0.116730 0.580048 0.032593
0.165955 0.580322 0.033051
0.240021 0.580780 0.035065
0.323029 0.582123 0.037994
0.402618 0.584503 0.041840
0.486481 0.588470 0.046600
0.572815 0.592651 0.051758
0.642548 0.598663 0.057739
0.715881 0.605621 0.064240
0.789459 0.610443 0.069214
0.863617 0.615082 0.072815
0.927795 0.619598 0.101227
0.970337 0.627258 0.165100
1.000000 0.633362 0.204681
0.046509 0.650116 0.032867
0.080048 0.646851 0.032593
0.115570 0.646027 0.032593
0.164520 0.646057 0.033051
0.236542 0.646332 0.034607
0.320129 0.647369 0.037170
0.398682 0.649719 0.040619
0.481659 0.652924 0.044891
0.568237 0.657166 0.049835
0.636627 0.662018 0.054810
0.707733 0.667114 0.059967
0.781982 0.673615 0.065491
0.856293 0.678375 0.069153
0.926910 0.681702 0.082520
0.969910 0.686829 0.160431
1.000000 0.691254 0.206238
0.046570 0.718994 0.032867
0.079346 0.716003 0.032593
0.114136 0.714478 0.032593
0.163086 0.714325 0.033051
0.233521 0.714661 0.034271
0.317230 0.715729 0.036560
0.395294 0.717377 0.039642
0.476898 0.720154 0.043427
0.563080 0.724152 0.048004
0.632599 0.729462 0.053040
0.702545 0.734131 0.057709
0.774750 0.739075 0.062042
0.849823 0.744781 0.066284
0.925171 0.748535 0.069092
0.968689 0.749634 0.160187
1.000000 0.752533 0.215973
0.046570 0.790680 0.032959
0.078949 0.787628 0.032593
0.113007 0.786285 0.032593
0.161499 0.785950 0.033051
0.230011 0.786285 0.033997
0.314697 0.786713 0.036041
0.391785 0.788025 0.038757
0.473053 0.790558 0.042267
0.557861 0.794250 0.046478
0.628448 0.799438 0.051239
0.698700 0.804810 0.056152
0.770844 0.810089 0.060394
0.843933 0.814056 0.063568
0.919708 0.819153 0.066864
0.967804 0.815918 0.167572
1.000000 0.817352 0.238190
0.046600 0.847382 0.032990
0.077942 0.845184 0.032593
0.111542 0.844513 0.032593
0.160095 0.845032 0.033051
0.227417 0.846100 0.033936
0.311951 0.847382 0.035675
0.388947 0.849854 0.038147
0.469574 0.852936 0.041321
0.553802 0.857239 0.045166
0.624359 0.863098 0.049591
0.694305 0.869446 0.054382
0.766785 0.876526 0.059082
0.840424 0.882721 0.062439
0.915344 0.887329 0.065155
0.966919 0.880615 0.185699
1.000000 0.879913 0.278717
0.046661 0.897430 0.033020
0.077759 0.895142 0.032593
0.110352 0.894470 0.032593
0.158600 0.894775 0.033051
0.224762 0.895691 0.033936
0.309753 0.897125 0.035431
0.386444 0.899017 0.037750
0.466217 0.901855 0.040710
0.550262 0.906403 0.044312
0.621368 0.911652 0.048523
0.690887 0.918335 0.053040
0.763336 0.925262 0.057709
0.837616 0.932373 0.061615
0.911987 0.936340 0.069458
0.966034 0.926239 0.207977
1.000000 0.922760 0.325104
0.046661 0.948730 0.033020
0.076599 0.946045 0.032593
0.108887 0.945190 0.032593
0.157166 0.945404 0.033051
0.221985 0.946289 0.033936
0.307739 0.947662 0.035095
0.384094 0.949890 0.037262
0.463409 0.952576 0.040131
0.546600 0.956390 0.043427
0.618408 0.961914 0.047394
0.687653 0.967957 0.052032
0.761383 0.967896 0.075226
0.833862 0.967896 0.122955
0.902313 0.967896 0.185638
0.963623 0.967896 0.262512
1.000000 0.963867 0.386597
0.047424 1.000000 0.033722
0.076599 0.998566 0.032593
0.107483 0.997650 0.032593
0.155548 0.997894 0.033051
0.219391 0.998566 0.033936
0.305603 1.000000 0.034912
0.382874 1.000000 0.039032
0.464539 1.000000 0.045532
0.550446 1.000000 0.055267
0.622864 1.000000 0.069489
0.693146 1.000000 0.098541
0.764435 1.000000 0.143188
0.834656 1.000000 0.203796
0.900879 1.000000 0.287445
0.959747 1.000000 0.387421
1.000000 1.000000 0.459534
0.046234 0.025970 0.063782
0.095062 0.032898 0.106659
0.148346 0.040497 0.123810
0.223724 0.048218 0.141479
0.326202 0.056183 0.161804
0.418274 0.063538 0.180481
0.512756 0.070404 0.199371
0.600250 0.076904 0.216858
0.675873 0.083130 0.234039
0.753082 0.089142 0.249969
0.808929 0.101471 0.273315
0.850433 0.118347 0.302826
0.892548 0.143646 0.330719
0.935303 0.172180 0.359161
0.970337 0.194672 0.376709
1.000000 0.213684 0.388611
0.046234 0.057526 0.083374
0.083588 0.059052 0.087067
0.135406 0.067322 0.103302
0.199371 0.075409 0.120453
0.306091 0.083771 0.138977
0.396729 0.091248 0.156525
0.489532 0.098480 0.174133
0.581451 0.105194 0.190491
0.655487 0.111603 0.206543
0.731720 0.117767 0.221436
0.808075 0.124573 0.235931
0.849640 0.152496 0.268280
0.891663 0.181061 0.299072
0.933960 0.210602 0.330048
0.970337 0.234375 0.354950
1.000000 0.254486 0.373779
0.046234 0.097168 0.086151
0.083099 0.098541 0.086182
0.125031 0.099945 0.089600
0.186493 0.108215 0.104767
0.288574 0.116730 0.122437
0.377411 0.126007 0.138672
0.469116 0.138031 0.155212
0.563263 0.149231 0.170441
0.638031 0.160065 0.185638
0.713226 0.170471 0.200104
0.790619 0.180481 0.213440
0.848694 0.200623 0.239685
0.890778 0.229858 0.273987
0.933105 0.259338 0.308197
0.970337 0.283813 0.335388
1.000000 0.303162 0.357758
0.046234 0.162140 0.085144
0.080933 0.163147 0.082153
0.122253 0.164948 0.084778
0.175598 0.168640 0.089447
0.272400 0.182861 0.105164
0.360413 0.197418 0.120911
0.450745 0.210449 0.136139
0.543549 0.222839 0.150757
0.621979 0.234100 0.164795
0.696442 0.245148 0.178101
0.772186 0.255371 0.190338
0.847809 0.266266 0.203827
0.889862 0.295410 0.242767
0.932098 0.324371 0.280334
0.970337 0.343628 0.310760
1.000000 0.356110 0.334991
0.046234 0.257263 0.085236
0.080200 0.257080 0.080872
0.119598 0.257507 0.082123
0.171478 0.260132 0.085236
0.256042 0.265747 0.092834
0.345093 0.280212 0.106812
0.434784 0.295441 0.122223
0.526733 0.308594 0.135834
0.607758 0.320465 0.149109
0.681061 0.331482 0.161377
0.755646 0.338531 0.172577
0.832489 0.345276 0.182983
0.888916 0.358826 0.212860
0.931274 0.377197 0.255096
0.970337 0.393646 0.289215
1.000000 0.405731 0.315521
0.046234 0.351929 0.083649
0.079346 0.351532 0.078766
0.118042 0.351105 0.079742
0.169098 0.352356 0.081696
0.248352 0.354492 0.087097
0.332825 0.358887 0.094696
0.420471 0.368134 0.108032
0.511963 0.378052 0.122070
0.596191 0.386322 0.134491
0.668457 0.393860 0.145874
0.742096 0.400848 0.156219
0.817566 0.407410 0.165619
0.887604 0.415405 0.181152
0.930267 0.432434 0.229218
0.970337 0.448273 0.268768
1.000000 0.459778 0.297150
0.046234 0.425507 0.083069
0.078949 0.425049 0.078003
0.116486 0.424530 0.078461
0.166870 0.424957 0.080078
0.243378 0.426758 0.084442
0.327271 0.429688 0.090057
0.409393 0.434418 0.098328
0.498322 0.443115 0.110321
0.586029 0.452698 0.123260
0.657776 0.460663 0.134277
0.730560 0.467560 0.143921
0.805115 0.473602 0.152618
0.881073 0.479858 0.158966
0.929443 0.492981 0.205994
0.970337 0.507874 0.251587
1.000000 0.518402 0.283356
0.046234 0.502899 0.081696
0.078186 0.502350 0.076569
0.115173 0.501495 0.076813
0.165192 0.501617 0.077728
0.238922 0.502594 0.081482
0.322998 0.504761 0.086090
0.403412 0.508942 0.092987
0.488251 0.514008 0.101135
0.576385 0.522217 0.111908
0.648529 0.531525 0.123657
0.720917 0.538910 0.132996
0.794708 0.544830 0.141113
0.869751 0.550751 0.146790
0.928589 0.559784 0.182617
0.970337 0.569885 0.236572
1.000000 0.577423 0.272095
0.046234 0.578674 0.080750
0.077698 0.578156 0.075592
0.113770 0.577423 0.075623
0.163544 0.577332 0.076202
0.235321 0.577698 0.079468
0.319641 0.579010 0.083191
0.399017 0.581451 0.089325
0.482788 0.585052 0.096466
0.569519 0.589722 0.104584
0.639648 0.595612 0.113892
0.712494 0.602295 0.124084
0.785950 0.607544 0.132233
0.860474 0.611786 0.137482
0.927643 0.616577 0.160706
0.970337 0.624847 0.225616
1.000000 0.631317 0.265747
0.046234 0.644867 0.079712
0.077271 0.644257 0.074341
0.112671 0.643311 0.074249
0.161804 0.643005 0.074768
0.231598 0.643219 0.077423
0.316650 0.644165 0.080841
0.395233 0.646210 0.086029
0.477600 0.649780 0.092316
0.564484 0.654053 0.100128
0.633636 0.658936 0.107727
0.704376 0.664001 0.115631
0.778931 0.670502 0.124481
0.852783 0.674957 0.129730
0.926697 0.678772 0.138306
0.969543 0.684082 0.218048
1.000000 0.689270 0.265411
0.046234 0.713593 0.078094
0.076599 0.712952 0.073364
0.111176 0.711884 0.073242
0.160248 0.711426 0.073364
0.228577 0.711426 0.075439
0.313599 0.712189 0.078125
0.391510 0.713806 0.082825
0.473389 0.717010 0.088348
0.558899 0.720947 0.095459
0.629761 0.726288 0.103058
0.699677 0.731049 0.110229
0.771759 0.735931 0.116943
0.846710 0.741577 0.123077
0.921600 0.745453 0.127686
0.968658 0.747406 0.214661
1.000000 0.750793 0.273041
0.046234 0.785278 0.077332
0.076263 0.784424 0.072937
0.110016 0.783295 0.072754
0.158752 0.782715 0.072754
0.225616 0.782532 0.074036
0.311066 0.783051 0.076477
0.388336 0.784393 0.080658
0.469482 0.787292 0.085571
0.554260 0.790955 0.091919
0.625336 0.796143 0.099243
0.695801 0.801636 0.106537
0.767883 0.806854 0.113281
0.840607 0.810974 0.117523
0.916656 0.815582 0.123077
0.967682 0.814026 0.219696
1.000000 0.815369 0.293915
0.046234 0.842682 0.075562
0.075317 0.842743 0.071808
0.108673 0.842285 0.071533
0.157196 0.842621 0.071411
0.222565 0.843170 0.072662
0.308716 0.844391 0.073914
0.385620 0.846497 0.077637
0.465790 0.849976 0.082062
0.550262 0.854340 0.087769
0.621674 0.860168 0.094543
0.691498 0.866577 0.101593
0.763947 0.873657 0.108978
0.837555 0.879456 0.113647
0.912445 0.884460 0.117981
0.966736 0.879639 0.233978
1.000000 0.879150 0.332092
0.046234 0.892548 0.075073
0.075134 0.892639 0.071564
0.107361 0.891907 0.071198
0.155670 0.892242 0.071075
0.219879 0.892944 0.072296
0.306641 0.894043 0.073425
0.382721 0.895996 0.076477
0.462860 0.898926 0.080597
0.546356 0.903229 0.085907
0.618652 0.908661 0.092194
0.688171 0.915466 0.099060
0.760468 0.922333 0.106293
0.834656 0.929474 0.111755
0.909363 0.934570 0.116425
0.965790 0.925262 0.253967
1.000000 0.922333 0.374908
0.046234 0.943604 0.073212
0.074097 0.943604 0.070129
0.105988 0.943024 0.069794
0.154236 0.943176 0.069611
0.217346 0.943665 0.070648
0.304260 0.944641 0.071716
0.380463 0.946472 0.073639
0.460175 0.949646 0.077118
0.543213 0.953461 0.082031
0.615417 0.958527 0.087830
0.684509 0.965149 0.094360
0.758179 0.967896 0.119263
0.831207 0.967896 0.166473
0.901001 0.967896 0.229614
0.963257 0.967896 0.306061
1.000000 0.963745 0.418274
0.046234 0.996033 0.073212
0.074097 0.996033 0.070129
0.104797 0.995331 0.069794
0.152618 0.995575 0.069580
0.214264 0.996033 0.070526
0.302094 0.996887 0.071381
0.378082 0.998566 0.073242
0.458618 1.000000 0.078766
0.544342 1.000000 0.092957
0.618958 1.000000 0.114563
0.689667 1.000000 0.145569
0.761658 1.000000 0.190369
0.832672 1.000000 0.251678
0.899323 1.000000 0.336426
0.959229 1.000000 0.418365
1.000000 1.000000 0.491394
0.046234 0.025970 0.109741
0.092651 0.031189 0.198181
0.145355 0.038696 0.216125
0.218079 0.046448 0.236359
0.321747 0.054260 0.257843
0.413574 0.061584 0.278809
0.508423 0.068359 0.298523
0.596436 0.074951 0.317596
0.671906 0.081146 0.335388
0.749420 0.087128 0.352203
0.808716 0.098511 0.370819
0.850311 0.115784 0.386047
0.892426 0.140289 0.401215
0.935181 0.169128 0.416260
0.970337 0.192352 0.428650
1.000000 0.211365 0.438782
0.046234 0.055664 0.159027
0.081238 0.057068 0.175568
0.132477 0.065277 0.192688
0.196106 0.073334 0.212250
0.301727 0.081604 0.232117
0.392029 0.089020 0.251587
0.485199 0.096344 0.270203
0.577728 0.102966 0.288055
0.652039 0.109283 0.304718
0.728271 0.115326 0.320435
0.805878 0.121185 0.334839
0.849396 0.147583 0.360962
0.891449 0.176849 0.381470
0.933777 0.207306 0.398468
0.970337 0.231720 0.412781
1.000000 0.252136 0.424072
0.046234 0.094086 0.166229
0.080841 0.096100 0.171722
0.122375 0.097504 0.174133
0.183472 0.105621 0.191376
0.284393 0.114288 0.209961
0.373108 0.122101 0.228210
0.464752 0.133575 0.245453
0.558685 0.145020 0.262451
0.634399 0.155457 0.278229
0.709900 0.166016 0.293579
0.786835 0.175781 0.307556
0.848572 0.194733 0.329254
0.890594 0.224823 0.360291
0.932953 0.255096 0.383148
0.970337 0.280090 0.399017
1.000000 0.300171 0.411316
0.046234 0.155731 0.167938
0.078766 0.158569 0.167358
0.119720 0.160095 0.168701
0.172821 0.164063 0.173920
0.268646 0.178223 0.190216
0.356476 0.192657 0.207916
0.446320 0.205414 0.224030
0.539337 0.217743 0.240112
0.618744 0.229279 0.254913
0.692627 0.240051 0.269135
0.768829 0.250153 0.281769
0.846436 0.260254 0.293732
0.889740 0.289551 0.328308
0.932037 0.319763 0.362671
0.970337 0.340698 0.383484
1.000000 0.353943 0.396912
0.046234 0.249878 0.167450
0.078033 0.252167 0.163269
0.117004 0.252533 0.163300
0.168732 0.254761 0.166748
0.250946 0.260773 0.173920
0.341003 0.275116 0.189209
0.430908 0.290009 0.205627
0.522125 0.303131 0.220551
0.604553 0.315033 0.234161
0.677795 0.326447 0.247253
0.752289 0.335144 0.258820
0.828766 0.341522 0.269684
0.888763 0.354797 0.294800
0.931091 0.373901 0.334076
0.970337 0.390961 0.367035
1.000000 0.403351 0.383148
0.046234 0.346252 0.166290
0.077118 0.347656 0.160797
0.115570 0.347504 0.160187
0.166229 0.348358 0.162384
0.243347 0.350616 0.167175
0.329041 0.355225 0.175110
0.416687 0.364532 0.188995
0.507813 0.374390 0.204376
0.593018 0.382751 0.217224
0.664856 0.390259 0.229370
0.738800 0.397003 0.240234
0.814178 0.403473 0.249756
0.887360 0.411011 0.261383
0.930176 0.428833 0.307129
0.970337 0.445007 0.345001
1.000000 0.457153 0.370911
0.046234 0.419800 0.164124
0.076813 0.421265 0.157654
0.113953 0.420776 0.156769
0.164276 0.421173 0.158295
0.238159 0.422668 0.161957
0.323242 0.425568 0.167816
0.405579 0.430725 0.175995
0.494446 0.439484 0.188721
0.582977 0.449097 0.202332
0.654266 0.457031 0.214081
0.727356 0.463562 0.223816
0.801819 0.469940 0.232849
0.877655 0.476166 0.239563
0.929260 0.489288 0.280212
0.970337 0.504425 0.325226
1.000000 0.515442 0.354797
0.046234 0.496918 0.162262
0.076172 0.498383 0.155334
0.112793 0.497589 0.154175
0.162415 0.497803 0.155212
0.234070 0.498749 0.157806
0.319366 0.500854 0.162598
0.399750 0.504669 0.169220
0.484406 0.510223 0.177551
0.573364 0.518341 0.188690
0.645081 0.527710 0.201202
0.717712 0.534607 0.210663
0.791443 0.540985 0.219055
0.866394 0.546509 0.224792
0.928406 0.555389 0.254517
0.970337 0.567047 0.308380
1.000000 0.574890 0.342194
0.046234 0.573456 0.159882
0.075714 0.574677 0.152374
0.111328 0.573914 0.151062
0.160736 0.573761 0.151642
0.230255 0.574280 0.153839
0.316071 0.575592 0.157715
0.395447 0.578339 0.163208
0.478638 0.582031 0.170593
0.566040 0.586609 0.178772
0.636230 0.592194 0.188385
0.709381 0.599182 0.199066
0.782837 0.604553 0.207062
0.857208 0.608734 0.212463
0.927460 0.613342 0.228210
0.970337 0.622375 0.294159
1.000000 0.628876 0.333344
0.046234 0.639740 0.157562
0.075165 0.640961 0.150055
0.110260 0.640045 0.148529
0.159271 0.639771 0.148895
0.226959 0.639984 0.150482
0.312836 0.640991 0.153809
0.391266 0.643036 0.158386
0.473907 0.646240 0.164795
0.560577 0.650940 0.172485
0.630707 0.655457 0.180267
0.701355 0.660889 0.188171
0.775391 0.667023 0.197052
0.849609 0.671844 0.202423
0.924957 0.675262 0.206512
0.969238 0.681488 0.283752
1.000000 0.687256 0.330811
0.046234 0.708374 0.154938
0.074585 0.709564 0.147156
0.108978 0.708466 0.145447
0.157654 0.708099 0.145569
0.224060 0.708099 0.146820
0.310120 0.708862 0.149689
0.388000 0.710571 0.153473
0.469757 0.713318 0.159088
0.555267 0.717804 0.165863
0.626465 0.722748 0.173889
0.696686 0.727844 0.180756
0.768677 0.732361 0.187317
0.843140 0.738312 0.193665
0.918427 0.742004 0.197479
0.968384 0.744904 0.277374
1.000000 0.748749 0.335938
0.046234 0.779816 0.152405
0.074280 0.781036 0.144745
0.107697 0.779846 0.142975
0.156158 0.779297 0.142914
0.220734 0.779236 0.143890
0.307739 0.779663 0.146088
0.384918 0.781097 0.149506
0.465393 0.783508 0.154388
0.550537 0.787628 0.160278
0.622406 0.792450 0.167572
0.692505 0.798309 0.174957
0.764435 0.803253 0.181458
0.837524 0.807709 0.185791
0.913452 0.812347 0.190491
0.967438 0.812103 0.278290
1.000000 0.813660 0.353912
0.046234 0.837067 0.149689
0.073456 0.839569 0.141785
0.106415 0.839203 0.139954
0.154785 0.839417 0.139679
0.218201 0.840057 0.140503
0.305481 0.841339 0.142548
0.381714 0.843414 0.145203
0.462219 0.846497 0.149597
0.546112 0.851288 0.154907
0.618835 0.856720 0.161499
0.688568 0.863525 0.168488
0.760956 0.870636 0.175537
0.834473 0.876526 0.180481
0.908783 0.881561 0.183899
0.966553 0.878510 0.288788
1.000000 0.878174 0.382874
0.046234 0.886993 0.147095
0.073334 0.889069 0.139404
0.105286 0.888672 0.137482
0.153168 0.888824 0.137085
0.215485 0.889435 0.137695
0.303009 0.890564 0.139404
0.379486 0.892944 0.141754
0.459442 0.895813 0.145691
0.542908 0.899994 0.150513
0.615540 0.905670 0.156677
0.684906 0.911957 0.163300
0.757660 0.919373 0.170288
0.831299 0.926483 0.175995
0.906464 0.931702 0.179962
0.965607 0.924652 0.304108
1.000000 0.921661 0.409729
0.046234 0.938263 0.144135
0.072235 0.940338 0.136536
0.103760 0.939819 0.134338
0.151886 0.940002 0.133911
0.212708 0.940521 0.134369
0.301056 0.941559 0.135742
0.377136 0.943420 0.138153
0.456360 0.946136 0.141449
0.539703 0.950378 0.145844
0.612762 0.955475 0.151398
0.681732 0.962036 0.157654
0.754150 0.967896 0.169830
0.828644 0.967896 0.216492
0.899109 0.967896 0.279144
0.962891 0.967896 0.355682
1.000000 0.963501 0.451782
0.046234 0.990356 0.141449
0.072266 0.992310 0.133911
0.102600 0.991821 0.131897
0.150330 0.991913 0.131439
0.210083 0.992462 0.131744
0.299011 0.993347 0.132935
0.374908 0.995514 0.134766
0.453735 0.998077 0.138031
0.538361 1.000000 0.146423
0.614380 1.000000 0.167236
0.686005 1.000000 0.197937
0.758728 1.000000 0.242462
0.830109 1.000000 0.303833
0.898102 1.000000 0.381805
0.958832 1.000000 0.450623
1.000000 1.000000 0.524261
0.046234 0.025970 0.163513
0.090149 0.029541 0.298126
0.142639 0.036896 0.318542
0.212616 0.044586 0.341217
0.317780 0.052368 0.365021
0.409424 0.059601 0.380829
0.503967 0.066498 0.394409
0.593018 0.072906 0.406982
0.668304 0.079010 0.419098
0.745361 0.084991 0.430054
0.808624 0.095490 0.439972
0.850128 0.113129 0.450623
0.892181 0.136475 0.462311
0.934906 0.166046 0.475128
0.970337 0.189545 0.485657
1.000000 0.209198 0.494537
0.046234 0.054169 0.234650
0.078918 0.055054 0.273346
0.129822 0.063141 0.292725
0.193024 0.071106 0.314423
0.297791 0.079315 0.336334
0.388000 0.086761 0.358185
0.481018 0.093903 0.375305
0.574432 0.100494 0.387360
0.648590 0.106873 0.398651
0.724243 0.112762 0.409302
0.802185 0.118500 0.418915
0.849243 0.142120 0.430634
0.891296 0.172394 0.443909
0.933594 0.203217 0.458405
0.970337 0.228424 0.470703
1.000000 0.248962 0.480530
0.046234 0.091553 0.251007
0.078369 0.093750 0.269226
0.119873 0.095001 0.271698
0.180450 0.103241 0.290985
0.280548 0.111633 0.311890
0.369141 0.119415 0.332153
0.460571 0.129028 0.351166
0.554260 0.140320 0.369263
0.630981 0.150909 0.380310
0.706360 0.161285 0.390839
0.783173 0.171234 0.400452
0.848267 0.188354 0.411560
0.890411 0.219330 0.427521
0.932770 0.250275 0.443329
0.970337 0.276428 0.457458
1.000000 0.296600 0.468140
0.046234 0.150116 0.257446
0.076355 0.153778 0.263855
0.117065 0.155396 0.265411
0.169861 0.159210 0.271179
0.263641 0.173340 0.289490
0.352081 0.187714 0.309143
0.442200 0.200653 0.327087
0.534515 0.212463 0.344299
0.614929 0.223999 0.360718
0.689148 0.234680 0.373871
0.764679 0.245087 0.382751
0.842224 0.254730 0.390686
0.889496 0.283356 0.407684
0.931854 0.314301 0.426514
0.970337 0.337921 0.442261
1.000000 0.351135 0.454590
0.046234 0.243011 0.259308
0.075562 0.246704 0.259216
0.114380 0.247070 0.259216
0.165771 0.249359 0.263062
0.245239 0.255310 0.271057
0.337097 0.269653 0.288269
0.426758 0.284607 0.306152
0.517853 0.297363 0.322723
0.601135 0.309509 0.337646
0.673798 0.320587 0.351807
0.748718 0.331085 0.364929
0.825073 0.337830 0.374146
0.888489 0.349762 0.386749
0.930908 0.370056 0.408875
0.970337 0.387390 0.427429
1.000000 0.400604 0.440613
0.046234 0.340881 0.259521
0.074738 0.343933 0.256256
0.112946 0.343750 0.255524
0.163483 0.344696 0.257843
0.237732 0.346832 0.263153
0.325073 0.351135 0.272064
0.412140 0.360748 0.287598
0.503693 0.370605 0.304291
0.589264 0.378876 0.318787
0.661346 0.386017 0.332153
0.734772 0.393005 0.343872
0.809967 0.399628 0.354187
0.886749 0.405579 0.362762
0.929932 0.424255 0.391571
0.970337 0.441559 0.413544
1.000000 0.453796 0.428772
0.046234 0.413940 0.258453
0.074402 0.417297 0.252808
0.111389 0.416809 0.251831
0.161316 0.417297 0.253540
0.232910 0.418732 0.257324
0.319305 0.421600 0.263794
0.401031 0.426727 0.272827
0.489716 0.435028 0.286987
0.579315 0.444672 0.302246
0.650787 0.452484 0.314941
0.723297 0.459503 0.325867
0.797638 0.465851 0.335419
0.873383 0.471619 0.343018
0.929016 0.484222 0.374176
0.970337 0.500702 0.400970
