Color Lookup Presets Effects/z1 (73).CUBE
#Created by: Adobe Photoshop Export Color Lookup Plugin
#Copyright: (C) Copyright 2016 www.zafizack.com
TITLE "zafizack pastel color series"
#LUT size
LUT_3D_SIZE 16
#data domain
DOMAIN_MIN 0.0 0.0 0.0
DOMAIN_MAX 1.0 1.0 1.0
#LUT data points
0.084473 0.075928 0.073395
0.136536 0.094574 0.096130
0.215881 0.113281 0.111603
0.311127 0.132874 0.129883
0.411102 0.158813 0.156128
0.499237 0.182037 0.179657
0.576904 0.202850 0.200531
0.639740 0.222595 0.220062
0.701202 0.241516 0.238525
0.762634 0.260437 0.256531
0.808685 0.279236 0.275421
0.848328 0.298645 0.294891
0.888275 0.319214 0.314392
0.928528 0.339905 0.333649
0.964569 0.356842 0.349335
0.997925 0.371521 0.362823
0.123962 0.133362 0.115845
0.158234 0.146332 0.127380
0.246552 0.166809 0.145294
0.339966 0.189392 0.167969
0.432526 0.212494 0.191376
0.512177 0.232697 0.211487
0.586060 0.251465 0.229980
0.644531 0.269836 0.248016
0.702911 0.287903 0.265411
0.761261 0.305847 0.282288
0.815277 0.323792 0.299622
0.853760 0.342957 0.318726
0.892212 0.362946 0.337769
0.930511 0.382965 0.356476
0.965729 0.399841 0.372101
0.997925 0.413666 0.384766
0.167297 0.191650 0.152649
0.218475 0.204071 0.165497
0.279266 0.218567 0.180878
0.369568 0.240692 0.202972
0.455109 0.261108 0.223145
0.526642 0.278839 0.240540
0.595306 0.296417 0.257751
0.651520 0.313812 0.274597
0.707733 0.331207 0.291199
0.763672 0.348633 0.307404
0.816772 0.366272 0.323578
0.858551 0.385132 0.342194
0.895599 0.404358 0.360535
0.932373 0.422943 0.377625
0.966583 0.437317 0.390533
0.997925 0.448944 0.401306
0.219391 0.247528 0.182465
0.274719 0.261810 0.199127
0.335327 0.276428 0.218048
0.399017 0.292725 0.238403
0.472626 0.310486 0.255463
0.542114 0.327026 0.271362
0.605804 0.343140 0.286743
0.659515 0.359528 0.302185
0.713226 0.375824 0.317322
0.766937 0.392273 0.332397
0.820679 0.408630 0.346954
0.862488 0.426453 0.363098
0.898682 0.443848 0.379425
0.933960 0.459930 0.394592
0.967316 0.473633 0.407013
0.997925 0.483643 0.417603
0.266937 0.303436 0.207886
0.323334 0.318726 0.227875
0.381470 0.332947 0.247559
0.436737 0.346893 0.266418
0.491913 0.359497 0.283875
0.557861 0.375488 0.299011
0.616333 0.391449 0.313934
0.667694 0.406891 0.327911
0.719360 0.421570 0.341034
0.770935 0.436646 0.354279
0.822296 0.451691 0.367340
0.865479 0.466736 0.380829
0.900787 0.479340 0.396301
0.935242 0.492462 0.410217
0.967926 0.504150 0.422668
0.997925 0.513123 0.433075
0.306671 0.353516 0.224792
0.362976 0.370300 0.245819
0.414154 0.383820 0.265869
0.466431 0.397156 0.285522
0.517883 0.409424 0.303467
0.572266 0.420898 0.319702
0.625946 0.435699 0.333893
0.675446 0.450226 0.346954
0.725128 0.463501 0.358978
0.775055 0.476746 0.370758
0.824707 0.490234 0.382385
0.868164 0.504120 0.394836
0.903168 0.515991 0.409210
0.936829 0.526672 0.422119
0.965942 0.584076 0.295990
0.997925 0.590240 0.313934
0.341736 0.405182 0.235992
0.392853 0.420013 0.256195
0.441711 0.432037 0.276184
0.489044 0.443695 0.294586
0.539215 0.455231 0.312653
0.588440 0.470978 0.337738
0.629700 0.490631 0.361084
0.677551 0.502167 0.373291
0.725647 0.513580 0.385254
0.774109 0.524841 0.396667
0.822571 0.536072 0.407623
0.869110 0.545319 0.418976
0.904633 0.553223 0.432404
0.937988 0.560913 0.443817
0.966217 0.628265 0.286682
0.997925 0.633759 0.305756
0.377167 0.458984 0.252960
0.422485 0.469116 0.269226
0.465271 0.478638 0.286285
0.509796 0.488129 0.306946
0.554657 0.503754 0.331177
0.599915 0.521667 0.354706
0.638947 0.540100 0.377045
0.680298 0.560455 0.398834
0.726654 0.569733 0.409088
0.773529 0.577423 0.419098
0.820740 0.585052 0.428253
0.866547 0.592438 0.437683
0.907104 0.599731 0.448883
0.939972 0.607178 0.459961
0.970001 0.613281 0.470459
0.997925 0.618774 0.478333
0.413696 0.507629 0.278961
0.449768 0.513947 0.296295
0.485413 0.527924 0.315613
0.525299 0.542877 0.336273
0.567688 0.559174 0.356995
0.609406 0.576843 0.377136
0.646912 0.591766 0.396667
0.686798 0.607452 0.415009
0.728394 0.624451 0.432251
0.773651 0.631836 0.441132
0.818848 0.639008 0.449677
0.864197 0.645905 0.457855
0.907074 0.652771 0.466675
0.941467 0.659241 0.478180
0.970795 0.664978 0.488068
0.997925 0.669861 0.495941
0.431000 0.565887 0.323059
0.463287 0.577484 0.338379
0.498962 0.590332 0.353851
0.537476 0.602814 0.370453
0.578766 0.615662 0.386322
0.617432 0.629242 0.400238
0.655304 0.643677 0.415222
0.694092 0.659454 0.430573
0.734161 0.675842 0.445953
0.774750 0.692566 0.461273
0.818329 0.699463 0.469360
0.861938 0.705872 0.476929
0.903778 0.712067 0.485443
0.941254 0.717651 0.496094
0.971039 0.722656 0.505035
0.997925 0.727020 0.512085
0.441193 0.631531 0.371033
0.473785 0.641022 0.382233
0.508911 0.651276 0.393494
0.546814 0.661865 0.404297
0.587402 0.675232 0.415741
0.624115 0.688538 0.426300
0.661987 0.703033 0.437500
0.701050 0.718475 0.449310
0.739105 0.733215 0.462128
0.778961 0.748962 0.475891
0.818848 0.765015 0.489624
0.861328 0.771240 0.496948
0.902313 0.776947 0.504608
0.941803 0.782227 0.512238
0.971313 0.786133 0.521057
0.997925 0.789734 0.529816
0.459259 0.712128 0.414398
0.490723 0.720947 0.421783
0.526520 0.730469 0.430939
0.563477 0.740112 0.440308
0.595612 0.748901 0.448730
0.628632 0.758209 0.457550
0.662872 0.767975 0.466705
0.699554 0.779663 0.476105
0.740082 0.795410 0.486115
0.781616 0.811401 0.495972
0.822052 0.826050 0.506042
0.860107 0.838531 0.515900
0.902100 0.845612 0.521515
0.941956 0.850861 0.526276
0.971588 0.853607 0.538269
0.997925 0.856262 0.549500
0.486237 0.804535 0.470734
0.515015 0.811523 0.472107
0.543579 0.818481 0.473389
0.571686 0.825012 0.476868
0.603577 0.831818 0.483765
0.636536 0.838989 0.491058
0.670593 0.846771 0.498474
0.705170 0.854736 0.506165
0.740906 0.862152 0.513519
0.776642 0.868835 0.520386
0.815399 0.877472 0.526184
0.856720 0.889252 0.532257
0.900879 0.903625 0.538208
0.941528 0.910461 0.540771
0.970673 0.911896 0.556305
0.997925 0.913696 0.570496
0.509918 0.887360 0.524353
0.536041 0.890961 0.524719
0.558777 0.894592 0.521149
0.583374 0.898132 0.517731
0.610657 0.901978 0.516785
0.643585 0.906342 0.521057
0.677429 0.910858 0.525452
0.711548 0.914734 0.529755
0.746460 0.918701 0.533936
0.781677 0.922638 0.538147
0.817352 0.926331 0.542145
0.853302 0.929932 0.546112
0.889648 0.933655 0.549896
0.932220 0.943909 0.554657
0.968475 0.950104 0.575592
0.997925 0.952515 0.592224
0.516418 0.946533 0.554901
0.543091 0.948120 0.553345
0.570801 0.949738 0.551788
0.594116 0.951691 0.545593
0.617432 0.953796 0.537598
0.647858 0.956238 0.536438
0.681427 0.958679 0.538940
0.715912 0.961029 0.542145
0.750366 0.963531 0.545349
0.786133 0.965149 0.551361
0.821381 0.967102 0.556152
0.856842 0.968781 0.563141
0.892029 0.969910 0.571594
0.926270 0.971405 0.577728
0.957458 0.973389 0.597198
0.992767 0.979767 0.618103
0.518036 0.985168 0.566956
0.546448 0.986237 0.565125
0.575256 0.987518 0.563019
0.599670 0.988983 0.556396
0.623199 0.990570 0.548584
0.652100 0.992310 0.545990
0.685730 0.994049 0.548615
0.720367 0.995758 0.551483
0.755005 0.996918 0.555756
0.791016 0.997375 0.562134
0.826538 0.997406 0.570587
0.861725 0.997406 0.580566
0.895966 0.997406 0.592346
0.928406 0.997406 0.605957
0.957275 0.997406 0.622864
0.985504 0.997406 0.639954
0.083160 0.073547 0.105438
0.120850 0.076874 0.124207
0.185059 0.093658 0.140961
0.282074 0.107697 0.157288
0.385223 0.130768 0.181824
0.477936 0.151611 0.203613
0.558655 0.169739 0.222534
0.627502 0.188416 0.240906
0.691040 0.206665 0.258850
0.754547 0.224854 0.276337
0.804413 0.244171 0.294617
0.845306 0.264404 0.313538
0.886322 0.285095 0.332123
0.927429 0.305573 0.350555
0.964142 0.322449 0.365356
0.997925 0.336731 0.378235
0.083344 0.108978 0.119415
0.120636 0.118469 0.126343
0.185150 0.140320 0.146729
0.279236 0.161072 0.167297
0.379425 0.186493 0.193115
0.474976 0.210175 0.216797
0.553680 0.230194 0.236511
0.622498 0.249664 0.255646
0.684265 0.268494 0.273712
0.746033 0.287201 0.291321
0.806580 0.305908 0.308594
0.846680 0.325958 0.328369
0.886932 0.347260 0.348206
0.927460 0.369141 0.368286
0.964355 0.387360 0.384888
0.997925 0.402374 0.398438
0.117493 0.181641 0.145905
0.170898 0.186462 0.173584
0.220398 0.197083 0.184143
0.313843 0.218994 0.204315
0.409180 0.241821 0.226898
0.491821 0.262054 0.246552
0.566620 0.280731 0.264709
0.629913 0.299255 0.282501
0.688843 0.317596 0.300018
0.747833 0.335999 0.317200
0.805511 0.354340 0.334106
0.852112 0.374054 0.353119
0.890869 0.395020 0.372772
0.929535 0.415466 0.391479
0.965332 0.431000 0.404846
0.997925 0.443542 0.416046
0.159149 0.237732 0.196411
0.227631 0.245026 0.209259
0.283539 0.259918 0.225220
0.346924 0.277191 0.244476
0.433655 0.298798 0.265076
0.508545 0.317261 0.282562
0.580200 0.334442 0.298889
0.638763 0.351166 0.314606
0.695374 0.367706 0.329987
0.751740 0.385010 0.345734
0.808014 0.402374 0.361145
0.856232 0.420624 0.377014
0.894165 0.439087 0.394653
0.931152 0.456390 0.410492
0.966187 0.471283 0.423798
0.997925 0.482574 0.434753
0.209320 0.290009 0.230103
0.280701 0.303619 0.240204
0.338806 0.320282 0.259827
0.398376 0.335419 0.279266
0.455902 0.351044 0.299072
0.525757 0.368134 0.314911
0.593842 0.384308 0.329834
0.648041 0.400177 0.344238
0.701996 0.415680 0.358124
0.755585 0.431519 0.371765
0.809418 0.446655 0.384338
0.858307 0.462433 0.398163
0.896667 0.478210 0.413757
0.932617 0.492554 0.428406
0.966888 0.504791 0.441376
0.997925 0.513214 0.452301
0.252197 0.340973 0.249939
0.327454 0.358704 0.265045
0.381561 0.373749 0.285034
0.434387 0.387604 0.304291
0.486816 0.400452 0.322052
0.540527 0.413300 0.339539
0.603516 0.428619 0.353149
0.655640 0.442383 0.366272
0.707489 0.456512 0.379486
0.759430 0.470367 0.391724
0.811584 0.484009 0.403290
0.860474 0.498291 0.415680
0.899200 0.513000 0.430084
0.934296 0.524170 0.443390
0.965424 0.578827 0.344055
0.997925 0.585632 0.362366
0.292023 0.391815 0.265961
0.361206 0.407288 0.279053
0.413300 0.422852 0.299500
0.461365 0.435364 0.318634
0.510193 0.447937 0.337463
0.560059 0.463623 0.360748
0.608734 0.483673 0.382843
0.658447 0.496216 0.395782
0.708984 0.508545 0.407532
0.759766 0.520660 0.419006
0.810577 0.532623 0.430176
0.861206 0.542938 0.441284
0.900360 0.551392 0.454041
0.935638 0.559967 0.465942
0.965698 0.622955 0.333496
0.997925 0.628967 0.353149
0.332977 0.443329 0.286285
0.397003 0.458435 0.296997
0.441620 0.469055 0.313934
0.485046 0.479034 0.334076
0.529388 0.495209 0.357574
0.576263 0.514557 0.380035
0.620483 0.533417 0.401459
0.661316 0.553680 0.423584
0.710358 0.565460 0.434174
0.759521 0.573822 0.444214
0.808594 0.581970 0.453827
0.857513 0.590027 0.463287
0.901855 0.598114 0.473297
0.937256 0.605957 0.484863
0.968964 0.613037 0.494812
0.997925 0.618988 0.501404
0.376129 0.494690 0.319763
0.430389 0.505371 0.328247
0.465332 0.519379 0.345795
0.503845 0.534180 0.364105
0.545319 0.550568 0.384460
0.590698 0.568390 0.404175
0.630981 0.586639 0.421661
0.671783 0.602783 0.438812
0.713654 0.619812 0.456177
0.760925 0.627838 0.465759
0.808380 0.635529 0.474609
0.855438 0.643005 0.483307
0.902161 0.650330 0.491943
0.939209 0.657532 0.503326
0.969757 0.663727 0.511597
0.997925 0.669098 0.517731
0.400513 0.564148 0.365692
0.447144 0.569550 0.371368
0.481445 0.582306 0.386169
0.519714 0.596649 0.399933
0.561890 0.609985 0.412659
0.604004 0.623749 0.425598
0.641785 0.638275 0.440430
0.680695 0.654175 0.455811
0.721222 0.670776 0.471802
0.762817 0.687744 0.487762
0.808228 0.695129 0.496277
0.854034 0.702179 0.504364
0.898407 0.708984 0.512543
0.938385 0.715210 0.520416
0.970245 0.720856 0.527863
0.997925 0.725525 0.535187
0.425354 0.636688 0.410522
0.465759 0.637787 0.411621
0.499573 0.648010 0.422577
0.536407 0.658661 0.433044
0.575867 0.670074 0.443878
0.612488 0.682739 0.454498
0.650177 0.697510 0.465851
0.689545 0.712921 0.477509
0.727905 0.727661 0.489685
0.767975 0.743561 0.503601
0.808960 0.759949 0.517731
0.853088 0.766724 0.525299
0.896545 0.773071 0.530426
0.938080 0.778900 0.536438
0.970276 0.783447 0.544891
0.997925 0.787598 0.553711
0.455383 0.717529 0.461334
0.491089 0.718567 0.459503
0.522400 0.727692 0.464600
0.556763 0.737091 0.471375
0.588684 0.745789 0.479553
0.621368 0.755035 0.488037
0.655151 0.764740 0.496948
0.690399 0.775146 0.506470
0.729858 0.789429 0.516541
0.771332 0.805084 0.526642
0.813721 0.821136 0.535522
0.852905 0.833923 0.543152
0.895966 0.840973 0.547913
0.938202 0.846924 0.552521
0.970367 0.850464 0.563599
0.997925 0.853699 0.574677
0.486115 0.808655 0.518127
0.520386 0.809448 0.514801
0.546753 0.816559 0.516449
0.571838 0.822845 0.516693
0.598694 0.829285 0.517365
0.630920 0.836426 0.524414
0.664734 0.844086 0.530457
0.699188 0.852051 0.536346
0.734497 0.859528 0.542114
0.770691 0.866150 0.547913
0.808319 0.873596 0.553711
0.850708 0.885529 0.559845
0.895172 0.899292 0.565948
0.937347 0.906311 0.568634
0.968872 0.908661 0.582977
0.997925 0.911346 0.596405
0.506622 0.888733 0.560028
0.536224 0.889679 0.558441
0.562683 0.892883 0.558563
0.587860 0.896332 0.556091
0.612579 0.900055 0.552795
0.639587 0.904144 0.550812
0.672974 0.908936 0.554230
0.707001 0.913208 0.557098
0.741730 0.917236 0.560577
0.776978 0.921173 0.564819
0.813110 0.924866 0.569519
0.849213 0.928375 0.574921
0.886230 0.931641 0.579773
0.929657 0.941833 0.583740
0.967346 0.948181 0.600952
0.997925 0.950897 0.618439
0.513397 0.946198 0.588196
0.543243 0.947144 0.587585
0.570984 0.948700 0.586456
0.599426 0.950531 0.583832
0.622314 0.952667 0.574890
0.647095 0.955017 0.567047
0.678314 0.957397 0.566650
0.712280 0.959930 0.568817
0.746643 0.962494 0.571472
0.781952 0.964386 0.576416
0.817841 0.966187 0.581451
0.853241 0.968018 0.587494
0.889435 0.968964 0.597534
0.924774 0.970490 0.603821
0.956543 0.971985 0.625061
0.993042 0.978546 0.644684
0.516785 0.984192 0.599518
0.546295 0.985291 0.598907
0.575867 0.986572 0.597473
0.604919 0.987976 0.595093
0.629669 0.989563 0.588165
0.654297 0.991272 0.580475
0.683197 0.992981 0.577606
0.717346 0.994873 0.579559
0.751587 0.996552 0.582092
0.787170 0.997070 0.587860
0.823303 0.997406 0.594574
0.858521 0.997406 0.604431
0.893799 0.997406 0.615967
0.927368 0.997406 0.629608
0.957062 0.997406 0.647888
0.986572 0.997406 0.666748
0.085083 0.074249 0.147339
0.121704 0.075592 0.184723
0.169800 0.082642 0.191132
0.253021 0.091278 0.199066
0.357605 0.111664 0.221802
0.453583 0.131744 0.243225
0.536835 0.149261 0.261688
0.612213 0.167389 0.279877
0.678040 0.185730 0.297577
0.744049 0.204010 0.314697
0.798218 0.224152 0.332275
0.840881 0.246002 0.350861
0.883301 0.268036 0.369232
0.925690 0.289795 0.387421
0.963409 0.307587 0.402222
0.997925 0.322754 0.414825
0.085022 0.111877 0.179626
0.120026 0.115051 0.185883
0.167603 0.123627 0.191406
0.250488 0.135193 0.201965
0.352509 0.157318 0.224548
0.451630 0.179474 0.246735
0.532928 0.198242 0.264832
0.608002 0.216583 0.282593
0.672089 0.234741 0.299805
0.736176 0.252747 0.316498
0.800049 0.270630 0.332672
0.842896 0.291901 0.351410
0.884460 0.313568 0.370148
0.926117 0.335571 0.388977
0.963806 0.353668 0.404694
0.997925 0.368958 0.417725
0.085114 0.162384 0.183655
0.120209 0.167389 0.188019
0.167633 0.176727 0.195007
0.248810 0.191345 0.207550
0.348816 0.214752 0.230713
0.450470 0.237976 0.253601
0.529938 0.257538 0.272583
0.604736 0.277069 0.291504
0.667267 0.296356 0.309937
0.729919 0.315887 0.328369
0.792328 0.335236 0.346191
0.844604 0.355957 0.365387
0.885315 0.379059 0.386597
0.926239 0.401733 0.407074
0.963898 0.418518 0.420746
0.997925 0.432465 0.432129
0.112732 0.229645 0.190796
0.160400 0.241394 0.212280
0.234955 0.245056 0.238342
0.287018 0.256989 0.249908
0.383484 0.281586 0.272583
0.469452 0.302612 0.292511
0.546509 0.321106 0.309967
0.615356 0.338959 0.326599
0.674774 0.356476 0.342773
0.734131 0.374298 0.358978
0.793335 0.392639 0.375336
0.848541 0.411469 0.391815
0.889099 0.431549 0.410278
0.927979 0.450348 0.426727
0.964813 0.466888 0.440887
0.997925 0.479584 0.452454
0.157104 0.302856 0.237488
0.220764 0.295776 0.260712
0.290802 0.304077 0.270813
0.351105 0.322632 0.291199
0.412872 0.339722 0.311035
0.490875 0.359741 0.329498
0.562592 0.377472 0.345642
0.625519 0.394440 0.360931
0.682007 0.410614 0.374969
0.738708 0.426178 0.388275
0.795410 0.441772 0.401306
0.848969 0.458862 0.415344
0.892090 0.477051 0.430756
0.929688 0.492188 0.446564
0.965637 0.505615 0.460480
0.997925 0.513794 0.471375
0.211395 0.345062 0.285156
0.270416 0.346893 0.290283
0.343353 0.361847 0.301483
0.398285 0.377747 0.320587
0.453827 0.392975 0.339844
0.506592 0.407074 0.357147
0.575043 0.423920 0.371857
0.633453 0.438538 0.385559
0.687927 0.452789 0.398651
0.742523 0.466614 0.411224
0.797546 0.480072 0.423431
0.851257 0.494476 0.435852
0.894440 0.508728 0.450470
0.926819 0.564056 0.374939
0.964874 0.573761 0.399078
0.997925 0.579498 0.413055
0.255798 0.394531 0.309662
0.309937 0.395599 0.306519
0.381287 0.412994 0.321167
0.433228 0.427765 0.340790
0.481323 0.440521 0.358459
0.531647 0.455048 0.380280
0.583649 0.475037 0.402130
0.639221 0.489227 0.414398
0.691986 0.502594 0.426453
0.744659 0.515656 0.438660
0.797760 0.528442 0.450073
0.851166 0.539673 0.460571
0.896118 0.548889 0.472046
0.927094 0.609039 0.359222
0.965149 0.617645 0.386688
0.997925 0.623749 0.404510
0.295624 0.441620 0.324829
0.353058 0.446136 0.328918
0.416687 0.460175 0.340149
0.459625 0.471039 0.359375
0.503174 0.487762 0.381531
0.550751 0.506592 0.402802
0.600159 0.526123 0.424164
0.643311 0.547729 0.443512
0.694305 0.561005 0.454773
0.745697 0.570648 0.465454
0.797150 0.579437 0.475769
0.848419 0.588074 0.485687
0.896301 0.596558 0.495819
0.934814 0.605133 0.507355
0.968109 0.612976 0.514954
0.997925 0.669922 0.396881
0.339386 0.499725 0.362671
0.393616 0.503632 0.368408
0.444427 0.511230 0.374481
0.481140 0.525208 0.391388
0.523041 0.541962 0.410004
0.570160 0.561188 0.426727
0.615173 0.580963 0.443420
0.656189 0.597656 0.460358
0.698639 0.614655 0.477539
0.748016 0.623230 0.487701
0.797211 0.631470 0.497162
0.846680 0.639618 0.506409
0.896088 0.647400 0.515228
0.936249 0.654999 0.523743
0.968750 0.662109 0.531525
0.997925 0.667969 0.537811
0.379120 0.570587 0.407745
0.421143 0.571625 0.409973
0.466797 0.575409 0.413483
0.504669 0.591034 0.425751
0.545410 0.604767 0.437958
0.588959 0.618256 0.450104
0.628113 0.632507 0.464020
0.667328 0.648407 0.479645
0.708466 0.665070 0.495514
0.750458 0.682068 0.511444
0.798279 0.690063 0.520477
0.845673 0.697693 0.528595
0.892822 0.705048 0.534058
0.935547 0.711945 0.541138
0.969208 0.718048 0.549072
0.997925 0.723328 0.556366
0.415253 0.643890 0.455444
0.451904 0.644135 0.452179
0.492584 0.645203 0.453033
0.526886 0.655396 0.461609
0.564728 0.666107 0.471985
0.602020 0.677765 0.481934
0.638184 0.690918 0.492493
0.676941 0.706116 0.503754
0.716431 0.721222 0.515137
0.757385 0.737244 0.529541
0.799133 0.753693 0.542755
0.845398 0.761200 0.548126
0.890991 0.768127 0.553314
0.934937 0.774475 0.559235
0.969513 0.779907 0.567047
0.997925 0.784363 0.576294
0.450470 0.723907 0.507538
0.486511 0.724152 0.504944
0.522217 0.725128 0.501709
0.554260 0.734253 0.506683
0.582245 0.742523 0.510315
0.614258 0.751617 0.518463
0.647644 0.761261 0.527130
0.682800 0.771271 0.536163
0.720978 0.784363 0.544739
0.761810 0.798706 0.552094
0.804352 0.814362 0.559753
0.845001 0.827606 0.567139
0.889893 0.835114 0.572235
0.934357 0.841705 0.576813
0.968781 0.845856 0.587494
0.997925 0.849823 0.598022
0.479248 0.812408 0.556122
0.517181 0.813446 0.555450
0.548248 0.814331 0.553375
0.573242 0.820374 0.553497
0.598907 0.826691 0.552795
0.626221 0.833221 0.553009
0.658752 0.840668 0.557770
0.693054 0.848541 0.563568
0.728455 0.856415 0.568756
0.764618 0.863007 0.574280
0.801971 0.869476 0.580780
0.845001 0.881500 0.586761
0.889526 0.894196 0.592712
0.933075 0.901337 0.595398
0.967987 0.905365 0.607239
0.997925 0.908386 0.620941
0.501129 0.889160 0.593750
0.531891 0.890289 0.593353
0.562378 0.891510 0.592529
0.589996 0.894623 0.592529
0.616180 0.898102 0.590790
0.641144 0.902344 0.584686
0.668945 0.906891 0.579926
0.702515 0.911469 0.582184
0.737305 0.915436 0.585022
0.772308 0.919373 0.588959
0.808655 0.923035 0.593689
0.845215 0.926422 0.599182
0.882599 0.929504 0.605621
0.925781 0.937897 0.612152
0.965363 0.944855 0.628754
0.997925 0.948486 0.643860
0.509918 0.945648 0.620361
0.539886 0.946533 0.620361
0.570313 0.947662 0.620270
0.599274 0.949524 0.616760
0.627197 0.951477 0.612030
0.651154 0.953766 0.603149
0.676361 0.956055 0.595581
0.708618 0.958527 0.595825
0.742889 0.961029 0.597900
0.777832 0.963104 0.601807
0.813904 0.964691 0.607300
0.849792 0.966766 0.612274
0.886292 0.967468 0.623718
0.923157 0.969238 0.629272
0.955933 0.970764 0.651367
0.993713 0.977539 0.670410
0.515167 0.983276 0.631927
0.544708 0.984344 0.631195
0.575165 0.985596 0.630920
0.605286 0.987030 0.629364
0.634399 0.988525 0.626343
0.659790 0.990265 0.619080
0.684052 0.992004 0.610687
0.714661 0.993866 0.608398
0.748444 0.995697 0.609924
0.783478 0.996887 0.613556
0.819458 0.997192 0.620148
0.855713 0.997406 0.628143
0.891144 0.997406 0.640106
0.926453 0.997406 0.653473
0.957001 0.997406 0.672943
0.987701 0.997406 0.693726
0.087616 0.076263 0.199493
0.123291 0.081116 0.265198
0.172058 0.082306 0.266815
0.247894 0.082428 0.272064
0.331482 0.094971 0.274139
0.430084 0.114685 0.294983
0.515320 0.131561 0.313110
0.597076 0.148865 0.330750
0.664978 0.166962 0.347870
0.733276 0.185181 0.364471
0.791901 0.205292 0.380798
0.836273 0.228271 0.397858
0.880127 0.251312 0.415253
0.923828 0.274048 0.432678
0.962646 0.292725 0.447052
0.997925 0.308441 0.459167
0.086548 0.116669 0.246582
0.121948 0.121338 0.264374
0.170135 0.122742 0.264374
0.242218 0.122742 0.268768
0.325745 0.135864 0.273651
0.427734 0.157684 0.295166
0.510956 0.176270 0.312927
0.592316 0.194458 0.330170
0.658417 0.212555 0.346832
0.724823 0.230652 0.363037
0.791199 0.248596 0.378632
0.838104 0.271088 0.395996
0.881165 0.294373 0.413910
0.924164 0.317810 0.432190
0.963013 0.337006 0.447693
0.997925 0.353241 0.460449
0.086700 0.165131 0.256042
0.120270 0.170044 0.265076
0.166290 0.171875 0.264557
0.237823 0.178009 0.267578
0.321533 0.190552 0.275635
0.425385 0.213470 0.298096
0.507690 0.231934 0.315765
0.588989 0.249969 0.332825
0.653595 0.267853 0.349396
0.718567 0.285767 0.365601
0.783356 0.303436 0.381256
0.840027 0.323151 0.397797
0.882263 0.346222 0.416687
0.924561 0.369080 0.435394
0.963409 0.388428 0.451538
0.997925 0.402924 0.463013
0.086761 0.225220 0.259827
0.119019 0.228333 0.261871
0.168121 0.234131 0.264252
0.236603 0.242950 0.270905
0.319122 0.256744 0.281281
0.420776 0.281158 0.304718
0.505951 0.301056 0.323578
0.586243 0.319397 0.340759
0.650482 0.337372 0.357361
0.713745 0.355286 0.373718
0.776550 0.374939 0.391449
0.839355 0.394867 0.408905
0.883087 0.417450 0.428192
0.924194 0.438385 0.445099
0.963226 0.456970 0.460266
0.997925 0.471710 0.472382
0.110870 0.295929 0.260925
0.156128 0.296173 0.260834
0.225647 0.307098 0.283966
0.303467 0.310913 0.309113
0.358124 0.324829 0.323090
0.447723 0.347900 0.344177
0.526337 0.367340 0.361755
0.600220 0.385040 0.377441
0.659668 0.402161 0.392456
0.719330 0.418701 0.406647
0.778931 0.434937 0.419952
0.837036 0.451965 0.433624
0.886475 0.470703 0.449036
0.926056 0.488861 0.466003
0.964233 0.504913 0.480835
0.997925 0.513153 0.491455
0.155792 0.369843 0.282806
0.219910 0.365723 0.306763
0.287659 0.357941 0.330933
0.356110 0.366394 0.336548
0.412323 0.384247 0.355774
0.469635 0.400604 0.374176
0.540955 0.418762 0.389801
0.609344 0.435760 0.404236
0.666351 0.450684 0.418091
0.723724 0.465271 0.431427
0.781433 0.479614 0.444061
0.839386 0.493622 0.455933
0.888641 0.509125 0.469696
0.924255 0.553955 0.434235
0.963593 0.562622 0.453308
0.997925 0.569397 0.467529
0.212006 0.415009 0.330475
0.275299 0.404175 0.352570
0.330902 0.404846 0.350250
0.398987 0.418793 0.360260
0.450806 0.433411 0.378479
0.499939 0.446869 0.399567
0.552704 0.466705 0.420105
0.617249 0.482574 0.433319
0.672455 0.497162 0.445740
0.727997 0.511292 0.457642
0.784058 0.525055 0.468750
0.839966 0.537415 0.479675
0.878448 0.591980 0.401093
0.924866 0.600250 0.421173
0.963989 0.607605 0.442841
