Color Lookup Presets Effects/z1 (84).CUBE
#Created by: Adobe Photoshop Export Color Lookup Plugin
#Copyright: (C) Copyright 2015 www.zafizack.com
TITLE "zafizack-VG-10"
#LUT size
LUT_3D_SIZE 16
#data domain
DOMAIN_MIN 0.0 0.0 0.0
DOMAIN_MAX 1.0 1.0 1.0
#LUT data points
0.081848 0.086914 0.104370
0.136230 0.087524 0.103821
0.233398 0.088013 0.103333
0.353729 0.088470 0.102936
0.479095 0.088898 0.102539
0.592346 0.089355 0.102142
0.662506 0.089813 0.101746
0.722198 0.090271 0.101349
0.774170 0.090759 0.100983
0.820129 0.091248 0.100586
0.861298 0.091705 0.100189
0.898865 0.092224 0.099792
0.933655 0.092743 0.099396
0.966553 0.093231 0.098999
0.998169 0.093750 0.098602
1.000000 0.093811 0.098602
0.084900 0.124908 0.105286
0.152222 0.126465 0.119049
0.240845 0.127472 0.118439
0.363037 0.128448 0.117798
0.488159 0.129395 0.117249
0.598480 0.130371 0.116699
0.667023 0.131287 0.116150
0.725830 0.132233 0.115601
0.777069 0.133179 0.115082
0.822388 0.134125 0.114563
0.862976 0.135101 0.114014
0.900055 0.136078 0.113525
0.934448 0.137085 0.112976
0.966949 0.138123 0.112488
0.998169 0.139099 0.112000
1.000000 0.139160 0.111969
0.089691 0.212006 0.106628
0.166382 0.215485 0.122375
0.269012 0.217804 0.128204
0.374817 0.219452 0.127533
0.499298 0.221344 0.126862
0.605103 0.223236 0.126129
0.672333 0.225006 0.125458
0.730072 0.226837 0.124817
0.780426 0.228638 0.124207
0.824951 0.230377 0.123566
0.864929 0.232208 0.122955
0.901459 0.234039 0.122375
0.935333 0.235840 0.121735
0.967407 0.237640 0.121155
0.998230 0.239410 0.120605
1.000000 0.239532 0.120575
0.094666 0.324829 0.108063
0.174133 0.329376 0.122131
0.292236 0.332947 0.133148
0.405762 0.335327 0.137848
0.508667 0.337433 0.137177
0.610565 0.339813 0.136322
0.676697 0.342163 0.135590
0.733551 0.344421 0.134827
0.783142 0.346649 0.134094
0.827057 0.348816 0.133392
0.866486 0.351074 0.132690
0.902588 0.353180 0.132019
0.936066 0.355286 0.131348
0.967773 0.357452 0.130676
0.998230 0.359528 0.130066
1.000000 0.359650 0.130005
0.100037 0.446869 0.109436
0.182190 0.451355 0.121887
0.303894 0.454834 0.132813
0.432404 0.457794 0.144165
0.538025 0.459961 0.147949
0.615692 0.461884 0.147217
0.680756 0.464172 0.146362
0.736755 0.466370 0.145538
0.785645 0.468475 0.144714
0.828979 0.470551 0.143951
0.867920 0.472656 0.143188
0.903595 0.474701 0.142426
0.936707 0.476685 0.141693
0.968079 0.478607 0.140961
0.998260 0.480530 0.140320
1.000000 0.480621 0.140289
0.105865 0.559235 0.110809
0.190369 0.562927 0.121704
0.315369 0.565826 0.132538
0.444061 0.568298 0.143799
0.562653 0.570526 0.155518
0.634033 0.572327 0.158539
0.684601 0.573761 0.157776
0.739746 0.575592 0.156860
0.787964 0.577332 0.155975
0.830750 0.579010 0.155121
0.869263 0.580658 0.154297
0.904510 0.582336 0.153473
0.937317 0.583832 0.152710
0.968384 0.584961 0.151947
0.998291 0.586121 0.151184
1.000000 0.586212 0.151154
0.112244 0.635803 0.112213
0.198792 0.637909 0.121582
0.326691 0.639709 0.132355
0.455292 0.641174 0.143524
0.572083 0.642548 0.155151
0.649200 0.643829 0.167267
0.700684 0.644806 0.169678
0.743530 0.645691 0.168915
0.790131 0.646729 0.167999
0.832428 0.647705 0.167053
0.870453 0.648682 0.166199
0.905396 0.649658 0.165314
0.937866 0.650574 0.164520
0.968658 0.651459 0.163666
0.998291 0.652344 0.162903
1.000000 0.652374 0.162842
0.117126 0.694397 0.112457
0.207306 0.696075 0.121521
0.337738 0.697540 0.132202
0.465942 0.698669 0.143341
0.580902 0.699768 0.154907
0.654419 0.700745 0.166992
0.713623 0.701752 0.179626
0.756989 0.703552 0.181427
0.793976 0.704193 0.180634
0.833954 0.704956 0.179718
0.871613 0.705688 0.178772
0.906189 0.706421 0.177887
0.938416 0.707153 0.177032
0.968903 0.707825 0.176178
0.998322 0.708527 0.175354
1.000000 0.708557 0.175323
0.121735 0.743835 0.112457
0.215790 0.745148 0.121460
0.348297 0.746246 0.132111
0.476135 0.747162 0.143188
0.589203 0.748016 0.154785
0.659241 0.748810 0.166809
0.717621 0.749542 0.179413
0.768097 0.750977 0.192474
0.805328 0.752930 0.193848
0.837860 0.753418 0.193054
0.872711 0.753937 0.192108
0.906952 0.754456 0.191223
0.938873 0.755035 0.190308
0.969147 0.755554 0.189453
0.998322 0.756042 0.188599
1.000000 0.756073 0.188568
0.126556 0.786530 0.112488
0.224426 0.787598 0.121490
0.358734 0.788452 0.132111
0.485870 0.789185 0.143188
0.596527 0.789764 0.154724
0.663910 0.790436 0.166779
0.721405 0.790985 0.179321
0.771149 0.791565 0.192444
0.815063 0.793854 0.206055
0.847656 0.795258 0.207092
0.876801 0.795593 0.206329
0.907623 0.795990 0.205444
0.939301 0.796387 0.204559
0.969360 0.796783 0.203705
0.998322 0.797150 0.202850
1.000000 0.797180 0.202789
0.131531 0.823883 0.112549
0.233032 0.824677 0.121521
0.368744 0.825317 0.132141
0.495026 0.825867 0.143188
0.601929 0.826385 0.154755
0.668335 0.826813 0.166779
0.724915 0.827271 0.179382
0.774017 0.827667 0.192505
0.817322 0.828064 0.206268
0.856201 0.831116 0.220459
0.885315 0.832062 0.221161
0.911865 0.832275 0.220428
0.939697 0.832581 0.219574
0.969543 0.832855 0.218689
0.998322 0.833099 0.217834
1.000000 0.833099 0.217773
0.136658 0.857330 0.112640
0.241730 0.857941 0.121613
0.378540 0.858398 0.132263
0.503937 0.858795 0.143311
0.607117 0.859161 0.154846
0.672485 0.859497 0.166870
0.728302 0.859772 0.179504
0.776764 0.860107 0.192688
0.819550 0.860382 0.206451
0.857971 0.860657 0.220795
0.893036 0.864227 0.235687
0.919586 0.864929 0.236328
0.944275 0.865082 0.235504
0.969727 0.865234 0.234772
0.998322 0.865448 0.233917
1.000000 0.865479 0.233887
0.141876 0.887543 0.112793
0.250366 0.887970 0.121765
0.387970 0.888306 0.132385
0.512390 0.888580 0.143463
0.612061 0.888794 0.154999
0.676483 0.889038 0.167084
0.731506 0.889282 0.179718
0.779388 0.889465 0.192932
0.821747 0.889679 0.206757
0.859741 0.889832 0.221222
0.894379 0.890015 0.236328
0.926575 0.894043 0.251831
0.951294 0.894562 0.252197
0.974701 0.894653 0.251495
0.998352 0.894745 0.250885
1.000000 0.894745 0.250763
0.147308 0.915558 0.112946
0.259033 0.915802 0.121918
0.397156 0.916046 0.132568
0.520538 0.916168 0.143707
0.616791 0.916351 0.155243
0.680298 0.916504 0.167328
0.734619 0.916626 0.180023
0.781891 0.916748 0.193268
0.823761 0.916870 0.207123
0.861420 0.916962 0.221680
0.895752 0.917084 0.236877
0.927704 0.917175 0.252655
0.952850 0.924561 0.255585
0.976105 0.925140 0.255035
0.998688 0.925232 0.254456
1.000000 0.925232 0.254395
0.152832 0.941772 0.113129
0.267731 0.941895 0.122131
0.406097 0.941956 0.132813
0.528290 0.942047 0.143951
0.621277 0.942139 0.155579
0.683899 0.942230 0.167725
0.737518 0.942261 0.180389
0.784302 0.942322 0.193665
0.825714 0.942383 0.207642
0.863007 0.942413 0.222260
0.897095 0.942474 0.237518
0.928833 0.942535 0.253418
0.953033 0.945709 0.254700
0.976196 0.947510 0.254364
0.998688 0.947540 0.253845
1.000000 0.947540 0.253815
0.158508 0.966888 0.113342
0.276276 0.966888 0.122375
0.414703 0.966888 0.133087
0.535858 0.966888 0.144226
0.625580 0.966888 0.155853
0.687378 0.966888 0.168060
0.740326 0.966888 0.180847
0.786560 0.966888 0.194214
0.827545 0.966888 0.208252
0.864563 0.966888 0.222961
0.898407 0.966888 0.238312
0.929291 0.966888 0.252777
0.953186 0.966888 0.253876
0.976288 0.966888 0.253479
0.998688 0.966888 0.252960
1.000000 0.966888 0.252960
0.090637 0.087250 0.155823
0.148285 0.087891 0.164368
0.235046 0.088379 0.163574
0.355835 0.088867 0.162781
0.481171 0.089325 0.162079
0.594025 0.089813 0.161316
0.663544 0.090271 0.160614
0.723053 0.090759 0.159851
0.774841 0.091278 0.159119
0.820648 0.091736 0.158386
0.861694 0.092255 0.157654
0.899109 0.092773 0.156952
0.933868 0.093292 0.156219
0.966644 0.093842 0.155518
0.998169 0.094391 0.154755
1.000000 0.094391 0.154724
0.094391 0.125641 0.156891
0.154694 0.126923 0.164337
0.242218 0.127899 0.163422
0.364716 0.128906 0.162537
0.489777 0.129883 0.161682
0.599457 0.130859 0.160858
0.667786 0.131805 0.160004
0.726410 0.132813 0.159210
0.777557 0.133728 0.158417
0.822754 0.134735 0.157623
0.863251 0.135712 0.156860
0.900269 0.136749 0.156097
0.934601 0.137756 0.155334
0.967010 0.138733 0.154572
0.998199 0.139771 0.153809
1.000000 0.139832 0.153778
0.100189 0.213593 0.158600
0.165314 0.216217 0.165436
0.267822 0.218475 0.172974
0.376526 0.220276 0.172058
0.500854 0.222168 0.171021
0.606018 0.224060 0.170074
0.673096 0.225922 0.169128
0.730682 0.227753 0.168243
0.780853 0.229584 0.167328
0.825317 0.231445 0.166473
0.865173 0.233246 0.165588
0.901672 0.235046 0.164764
0.935455 0.236877 0.163910
0.967468 0.238678 0.163055
0.998230 0.240509 0.162262
1.000000 0.240570 0.162201
0.105499 0.326965 0.159637
0.173157 0.330414 0.164948
0.291138 0.333801 0.179169
0.404694 0.336334 0.185120
0.510254 0.338440 0.184113
0.611542 0.340881 0.183044
0.677460 0.343231 0.181976
0.734131 0.345551 0.180969
0.783600 0.347809 0.179932
0.827423 0.350006 0.179047
0.866760 0.352173 0.178070
0.902771 0.354340 0.177124
0.936188 0.356506 0.176239
0.967834 0.358551 0.175323
0.998230 0.360718 0.174438
1.000000 0.360809 0.174438
0.109772 0.448822 0.159302
0.181274 0.452301 0.164520
0.302887 0.455811 0.178619
0.431213 0.458679 0.192993
0.536926 0.460907 0.197693
0.616608 0.462921 0.196686
0.681519 0.465149 0.195557
0.737305 0.467346 0.194458
0.786041 0.469513 0.193390
0.829315 0.471619 0.192322
0.868164 0.473663 0.191315
0.903778 0.475708 0.190308
0.936859 0.477631 0.189392
0.968170 0.479614 0.188416
0.998260 0.481506 0.187469
1.000000 0.481628 0.187439
0.114288 0.560730 0.158997
0.189423 0.563660 0.164124
0.314362 0.566620 0.178101
0.442932 0.569031 0.192352
0.561493 0.571320 0.207001
0.633240 0.573059 0.210693
0.685303 0.574554 0.209686
0.740295 0.576385 0.208466
0.788391 0.578094 0.207336
0.831085 0.579834 0.206268
0.869476 0.581543 0.205170
0.904694 0.583130 0.204132
0.937439 0.584412 0.203125
0.968445 0.585571 0.202148
0.998291 0.586700 0.201202
1.000000 0.586792 0.201111
0.118988 0.636627 0.158752
0.197906 0.638397 0.163818
0.325806 0.640167 0.177704
0.454254 0.641663 0.191895
0.571014 0.643005 0.206451
0.648438 0.644318 0.221527
0.699982 0.645233 0.224457
0.743103 0.646088 0.223480
0.790527 0.647125 0.222260
0.832703 0.648193 0.221130
0.870697 0.649139 0.220001
0.905548 0.650116 0.218903
0.937988 0.651001 0.217865
0.968719 0.651886 0.216827
0.998322 0.652771 0.215851
1.000000 0.652802 0.215790
0.123901 0.695038 0.158539
0.206451 0.696503 0.163574
0.336853 0.697876 0.177429
0.465027 0.699066 0.191528
0.579926 0.700073 0.206116
0.653687 0.701111 0.221100
0.712891 0.702057 0.236633
0.756195 0.702789 0.238953
0.793213 0.703430 0.237976
0.834229 0.704193 0.236786
0.871826 0.704956 0.235657
0.906342 0.705658 0.234497
0.938477 0.706390 0.233459
0.968964 0.707062 0.232422
0.998322 0.707764 0.231415
1.000000 0.707794 0.231323
0.128937 0.744324 0.158386
0.214874 0.745453 0.163391
0.347473 0.746552 0.177185
0.475067 0.747467 0.191315
0.588196 0.748291 0.205811
0.658569 0.749084 0.220886
0.716888 0.749817 0.236359
0.767334 0.750519 0.252502
0.804565 0.751984 0.254150
0.837128 0.752441 0.253113
0.872833 0.753021 0.252014
0.907043 0.753540 0.250916
0.938934 0.754089 0.249847
0.969177 0.754608 0.248779
0.998322 0.755096 0.247772
1.000000 0.755127 0.247681
0.134125 0.786957 0.158295
0.223480 0.787842 0.163330
0.357788 0.788666 0.177063
0.484772 0.789368 0.191193
0.595764 0.790009 0.205688
0.663147 0.790619 0.220673
0.720642 0.791199 0.236328
0.770386 0.791718 0.252380
0.814270 0.793091 0.268768
0.846954 0.794464 0.269989
0.876038 0.794800 0.269073
0.907715 0.795166 0.268036
0.939362 0.795593 0.266937
0.969391 0.795990 0.265961
0.998322 0.796356 0.264923
1.000000 0.796387 0.264862
0.139496 0.824219 0.158264
0.232117 0.824860 0.163300
0.367828 0.825531 0.177063
0.494019 0.826019 0.191162
0.601196 0.826508 0.205688
0.667572 0.826996 0.220734
0.724182 0.827393 0.236328
0.773285 0.827789 0.252472
0.816620 0.828217 0.268951
0.855499 0.830353 0.285553
0.884583 0.831329 0.286346
0.911163 0.831543 0.285461
0.939758 0.831818 0.284485
0.969604 0.832092 0.283478
0.998322 0.832367 0.282593
1.000000 0.832397 0.282501
0.144989 0.857574 0.158325
0.240753 0.858032 0.163300
0.377594 0.858521 0.177094
0.502930 0.858917 0.191223
0.606354 0.859283 0.205750
0.671783 0.859650 0.220886
0.727570 0.859894 0.236450
0.776062 0.860199 0.252686
0.818848 0.860474 0.269257
0.857269 0.860748 0.285919
0.892273 0.863525 0.302521
0.918854 0.864227 0.303070
0.943542 0.864349 0.302277
0.969757 0.864532 0.301422
0.998322 0.864716 0.300537
1.000000 0.864716 0.300476
0.150543 0.887726 0.158386
0.249329 0.888062 0.163422
0.386963 0.888397 0.177216
0.511353 0.888641 0.191345
0.611298 0.888916 0.205902
0.675690 0.889130 0.221069
0.730743 0.889343 0.236786
0.778656 0.889557 0.253052
0.820984 0.889709 0.269562
0.859009 0.889893 0.286346
0.893677 0.890076 0.303101
0.925873 0.893341 0.319672
0.950562 0.893890 0.320068
0.973969 0.893982 0.319336
0.998352 0.894073 0.318604
1.000000 0.894073 0.318542
0.156311 0.915649 0.158508
0.258026 0.915894 0.163574
0.396118 0.916077 0.177399
0.519470 0.916229 0.191559
0.615967 0.916382 0.206177
0.679474 0.916534 0.221405
0.733826 0.916626 0.237152
0.781128 0.916779 0.253479
0.822998 0.916901 0.270081
0.860687 0.916992 0.286926
0.895081 0.917084 0.303772
0.926941 0.917206 0.320526
0.952881 0.923431 0.325714
0.976135 0.924011 0.325012
0.998688 0.924072 0.324402
1.000000 0.924072 0.324402
0.162201 0.941803 0.158691
0.266602 0.941895 0.163757
0.405060 0.941986 0.177643
0.527222 0.942108 0.191864
0.620483 0.942139 0.206482
0.683105 0.942230 0.221771
0.736755 0.942291 0.237671
0.783508 0.942352 0.253998
0.824982 0.942383 0.270691
0.862274 0.942444 0.287567
0.896362 0.942505 0.304535
0.928070 0.942535 0.321259
0.953064 0.944580 0.324707
0.976227 0.947540 0.324554
0.998688 0.947540 0.323975
1.000000 0.947540 0.323914
0.168182 0.966888 0.158875
0.275146 0.966888 0.164032
0.413666 0.966888 0.177887
0.534668 0.966888 0.192139
0.624756 0.966888 0.206909
0.686554 0.966888 0.222229
0.739532 0.966888 0.238190
0.785828 0.966888 0.254669
0.826813 0.966888 0.271454
0.863831 0.966888 0.288391
0.897644 0.966888 0.305328
0.929138 0.966888 0.322144
0.953217 0.966888 0.323792
0.976288 0.966888 0.323578
0.998688 0.966888 0.323029
1.000000 0.966888 0.323029
0.099518 0.089325 0.235107
0.158081 0.093140 0.238525
0.248932 0.096771 0.242554
0.359802 0.097321 0.241455
0.485016 0.097900 0.240387
0.596558 0.098480 0.239319
0.665436 0.099091 0.238220
0.724579 0.099701 0.237152
0.776093 0.100281 0.236084
0.821594 0.100922 0.234985
0.862427 0.101532 0.233917
0.899658 0.102173 0.232941
0.934174 0.102783 0.231873
0.966827 0.103424 0.230835
0.998169 0.104095 0.229797
1.000000 0.104126 0.229736
0.102509 0.126251 0.233124
0.164307 0.127441 0.238678
0.258392 0.132935 0.242554
0.367371 0.133881 0.241394
0.492310 0.134949 0.240173
0.600952 0.135986 0.238983
0.668976 0.137024 0.237823
0.727417 0.138123 0.236664
0.778290 0.139130 0.235535
0.823334 0.140198 0.234436
0.863708 0.141235 0.233337
0.900574 0.142334 0.232239
0.934784 0.143402 0.231140
0.967133 0.144470 0.230011
0.998199 0.145569 0.228973
1.000000 0.145599 0.228943
0.107178 0.214722 0.232117
0.173706 0.217224 0.237823
0.272583 0.219391 0.242554
0.378357 0.221130 0.241333
0.502533 0.223083 0.239960
0.607025 0.225006 0.238708
0.673859 0.226868 0.237457
0.731262 0.228729 0.236267
0.781342 0.230560 0.234985
0.825714 0.232483 0.233826
0.865479 0.234314 0.232697
0.901855 0.236084 0.231567
0.935608 0.237946 0.230438
0.967529 0.239716 0.229370
0.998230 0.241608 0.228210
1.000000 0.241730 0.228180
0.111694 0.328461 0.231445
0.182129 0.331726 0.237000
0.289612 0.334747 0.245270
0.402985 0.337311 0.252655
0.511841 0.339539 0.251404
0.612457 0.341949 0.250000
0.678192 0.344330 0.248657
0.734741 0.346619 0.247345
0.784027 0.348877 0.246033
0.827759 0.351166 0.244843
0.867004 0.353363 0.243622
0.902954 0.355469 0.242432
0.936310 0.357635 0.241241
0.967896 0.359741 0.240112
0.998230 0.361847 0.238983
1.000000 0.362030 0.238922
0.116455 0.450348 0.230804
0.190674 0.453735 0.236267
0.301392 0.456726 0.244446
0.429657 0.459625 0.262268
0.535492 0.461823 0.268036
0.617523 0.463867 0.266754
0.682220 0.466156 0.265320
0.737885 0.468384 0.263977
0.786499 0.470520 0.262634
0.829651 0.472656 0.261353
0.868439 0.474701 0.260040
0.903931 0.476715 0.258820
0.936981 0.478668 0.257599
0.968201 0.480682 0.256470
0.998260 0.482574 0.255341
1.000000 0.482666 0.255219
0.121460 0.562073 0.230286
0.199280 0.564941 0.235626
0.313019 0.567474 0.243744
0.441498 0.569824 0.261536
0.560089 0.572083 0.279297
0.632233 0.573822 0.283630
0.686005 0.575409 0.282379
0.740875 0.577148 0.281006
0.788818 0.578888 0.279633
0.831421 0.580566 0.278320
0.869720 0.582275 0.277039
0.904907 0.583832 0.275787
0.937531 0.584991 0.274506
0.968475 0.586151 0.273376
0.998291 0.587311 0.272247
1.000000 0.587372 0.272125
0.126617 0.637421 0.229767
0.208191 0.639130 0.235107
0.324371 0.640686 0.243256
0.452667 0.642090 0.260895
0.569580 0.643463 0.278564
0.647400 0.644714 0.296234
0.699036 0.645691 0.299591
0.743622 0.646576 0.298370
0.790955 0.647583 0.297058
0.833038 0.648621 0.295715
0.870941 0.649567 0.294403
0.905731 0.650513 0.293152
0.938080 0.651428 0.291931
0.968750 0.652344 0.290710
0.998322 0.653198 0.289612
1.000000 0.653259 0.289551
0.131989 0.695679 0.229370
0.217133 0.697083 0.234711
0.335419 0.698242 0.242828
0.463531 0.699402 0.260437
0.578552 0.700470 0.278168
0.652679 0.701477 0.295715
0.711945 0.702393 0.313202
0.755341 0.703094 0.315674
0.792908 0.703766 0.314575
0.834564 0.704498 0.313232
0.872070 0.705261 0.311951
0.906494 0.706024 0.310730
0.938568 0.706726 0.309540
0.968994 0.707397 0.308441
0.998322 0.708069 0.307281
1.000000 0.708099 0.307190
0.137451 0.744843 0.229095
0.226013 0.745911 0.234375
0.346100 0.746857 0.242523
0.473694 0.747742 0.260162
0.586823 0.748596 0.277802
0.657562 0.749359 0.295380
0.715942 0.750061 0.312897
0.766449 0.750793 0.330048
0.803650 0.751282 0.331726
0.836243 0.751770 0.330719
0.873047 0.752350 0.329498
0.907196 0.752899 0.328339
0.939026 0.753479 0.327148
0.969238 0.753967 0.326050
0.998322 0.754456 0.324921
1.000000 0.754456 0.324921
0.143097 0.787354 0.228943
0.234924 0.788177 0.234192
0.356476 0.788910 0.242310
0.483459 0.789581 0.259949
0.594818 0.790253 0.277710
0.662262 0.790833 0.295319
0.719757 0.791382 0.312775
0.769531 0.791901 0.329926
0.813385 0.792419 0.346741
0.846069 0.793488 0.347992
0.875153 0.793854 0.347015
0.907867 0.794220 0.345917
0.939453 0.794617 0.344818
0.969452 0.794983 0.343689
0.998322 0.795380 0.342712
1.000000 0.795410 0.342621
0.148865 0.824463 0.228760
0.243835 0.825104 0.234070
0.366516 0.825653 0.242279
0.492706 0.826172 0.259888
0.600250 0.826660 0.277618
0.666626 0.827118 0.295319
0.723297 0.827545 0.312775
0.772400 0.827942 0.329956
0.815704 0.828308 0.346802
0.854584 0.829498 0.363281
0.883728 0.830444 0.363983
0.910309 0.830688 0.363098
0.939850 0.830933 0.362122
0.969635 0.831238 0.361115
0.998322 0.831512 0.360168
1.000000 0.831543 0.360077
0.154755 0.857819 0.228729
0.252808 0.858246 0.234131
0.376221 0.858643 0.242279
0.501556 0.859039 0.259979
0.605408 0.859375 0.277740
0.670807 0.859711 0.295380
0.726624 0.860016 0.312958
0.775146 0.860291 0.330139
0.817963 0.860565 0.346985
0.856384 0.860840 0.363464
0.891388 0.862671 0.379456
0.917999 0.863373 0.380035
0.942688 0.863525 0.379211
0.969788 0.863739 0.378357
0.998352 0.863892 0.377411
1.000000 0.863922 0.377411
0.160797 0.887848 0.228821
0.261566 0.888153 0.234222
0.385651 0.888458 0.242432
0.509979 0.888733 0.260193
0.610321 0.888977 0.277985
0.674744 0.889191 0.295715
0.729828 0.889404 0.313202
0.777771 0.889618 0.330475
0.820099 0.889801 0.347351
0.858154 0.889954 0.363861
0.892792 0.890137 0.379974
0.925018 0.892548 0.395538
0.949738 0.893066 0.395935
0.973114 0.893158 0.395264
0.998352 0.893311 0.394501
1.000000 0.893311 0.394409
0.166901 0.915741 0.228943
0.270355 0.915955 0.234375
0.394806 0.916138 0.242676
0.518066 0.916290 0.260468
0.614990 0.916443 0.278320
0.678528 0.916565 0.295990
0.732910 0.916718 0.313599
0.780243 0.916809 0.330902
0.822144 0.916931 0.347809
0.859802 0.917053 0.364349
0.894196 0.917145 0.380432
0.926147 0.917236 0.396240
0.952942 0.922180 0.403290
0.976135 0.922760 0.402710
0.998688 0.922821 0.402130
1.000000 0.922821 0.402069
0.173157 0.941833 0.229156
0.279083 0.941925 0.234589
0.403595 0.942017 0.242981
0.525818 0.942108 0.260803
0.619476 0.942169 0.278717
0.682129 0.942261 0.296478
0.735840 0.942291 0.314117
0.782623 0.942383 0.331421
0.824066 0.942383 0.348389
0.861420 0.942474 0.364960
0.895508 0.942505 0.381165
0.927216 0.942566 0.396973
0.953064 0.943359 0.402405
0.976227 0.947540 0.402405
0.998688 0.947540 0.401855
1.000000 0.947571 0.401794
0.179504 0.966888 0.229401
0.287659 0.966888 0.234924
0.412201 0.966888 0.243347
0.533264 0.966888 0.261261
0.623749 0.966888 0.279236
0.685608 0.966888 0.297058
0.738586 0.966888 0.314667
0.784882 0.966888 0.332031
0.825928 0.966888 0.349060
0.862946 0.966888 0.365692
0.896820 0.966888 0.381897
0.928284 0.966888 0.397736
0.953247 0.966888 0.401489
0.976318 0.966888 0.401489
0.998688 0.966888 0.400940
1.000000 0.966888 0.400909
0.105530 0.094513 0.340179
0.168243 0.098724 0.338501
0.264496 0.103394 0.337860
0.371948 0.107574 0.342346
0.488953 0.108246 0.341095
0.598938 0.109009 0.339874
0.667358 0.109741 0.338593
0.726135 0.110474 0.337341
0.777283 0.111206 0.336121
0.822510 0.111969 0.334930
0.863098 0.112732 0.333740
0.900177 0.113495 0.332489
0.934540 0.114288 0.331268
0.966980 0.115082 0.330109
0.998199 0.115845 0.328857
1.000000 0.115906 0.328766
0.108643 0.128571 0.337769
0.174988 0.135651 0.335876
0.274353 0.142578 0.337769
0.382813 0.148712 0.342133
0.496063 0.149841 0.340912
0.603149 0.151093 0.339539
0.670807 0.152344 0.338226
0.728882 0.153534 0.336853
0.779449 0.154755 0.335632
0.824219 0.155975 0.334351
0.864380 0.157196 0.333069
0.901062 0.158417 0.331818
0.935089 0.159698 0.330536
0.967285 0.160950 0.329285
0.998199 0.162201 0.328064
1.000000 0.162262 0.328003
0.113770 0.215851 0.334076
0.184265 0.218323 0.332184
0.287964 0.222473 0.338135
0.397430 0.231018 0.342438
0.505157 0.232849 0.341156
0.608521 0.234833 0.339722
0.675079 0.236786 0.338318
0.732239 0.238770 0.336884
0.782104 0.240723 0.335602
0.826263 0.242615 0.334259
0.865906 0.244568 0.332977
0.902161 0.246490 0.331635
0.935822 0.248352 0.330414
0.967621 0.250214 0.329071
0.998230 0.252075 0.327850
1.000000 0.252228 0.327789
0.118805 0.329956 0.330750
0.193298 0.333160 0.330841
0.301025 0.336029 0.337769
0.411377 0.338440 0.342834
0.513489 0.340607 0.341522
0.613403 0.343048 0.340027
0.678986 0.345459 0.338531
0.735352 0.347748 0.337158
0.784515 0.350067 0.335785
0.828125 0.352264 0.334381
0.867279 0.354462 0.333069
0.903137 0.356598 0.331818
0.936432 0.358795 0.330475
0.967957 0.360931 0.329254
0.998230 0.363037 0.328003
1.000000 0.363190 0.327942
0.124023 0.451874 0.327637
0.202423 0.455109 0.330017
0.313019 0.457916 0.336792
0.427795 0.460449 0.344910
0.533630 0.462677 0.350800
0.618378 0.464874 0.349365
0.682953 0.467133 0.347931
0.738434 0.469299 0.346497
0.786957 0.471527 0.345093
0.829987 0.473602 0.343689
0.868683 0.475647 0.342438
0.904114 0.477722 0.341095
0.937073 0.479614 0.339874
0.968262 0.481567 0.338593
0.998260 0.483521 0.337341
1.000000 0.483643 0.337311
0.129517 0.563263 0.324554
0.211578 0.566040 0.329193
0.324890 0.568481 0.335999
0.439697 0.570526 0.344055
0.558319 0.572754 0.361908
0.631042 0.574463 0.366150
0.686707 0.576080 0.364899
0.741394 0.577972 0.363464
0.789246 0.579712 0.362030
0.831726 0.581390 0.360718
0.869965 0.583038 0.359375
0.905029 0.584412 0.358093
0.937622 0.585510 0.356812
0.968536 0.586731 0.355652
0.998291 0.587860 0.354462
1.000000 0.587921 0.354370
0.135162 0.638153 0.322662
0.220947 0.639862 0.328583
0.336334 0.641327 0.335327
0.451050 0.642548 0.343384
0.567902 0.643860 0.361115
0.646240 0.645081 0.378265
0.697906 0.646088 0.381409
0.744110 0.646942 0.380219
0.791351 0.648041 0.378845
0.833344 0.649048 0.377502
0.871155 0.650024 0.376221
0.905884 0.650940 0.375000
0.938171 0.651855 0.373810
0.968811 0.652771 0.372589
0.998322 0.653595 0.371429
1.000000 0.653687 0.371399
