Color Lookup Presets Effects/z1 (63).CUBE
#Created by: Adobe Photoshop Export Color Lookup Plugin
#Copyright: (C) Copyright 2014 www.zafizack.com
TITLE "zafizack infrared Evo02"
#LUT size
LUT_3D_SIZE 6
#data domain
DOMAIN_MIN 0.0 0.0 0.0
DOMAIN_MAX 1.0 1.0 1.0
#LUT data points
0.000000 0.000000 0.000000
0.277466 0.000000 0.000000
0.555084 0.000000 0.000000
0.785278 0.000000 0.000000
0.930023 0.000000 0.000000
1.000000 0.000000 0.000000
0.000000 0.209320 0.015503
0.000000 0.209320 0.000000
0.087921 0.209320 0.000000
0.349854 0.209320 0.000000
0.506165 0.209320 0.000000
0.580688 0.209320 0.000000
0.000000 0.487732 0.034790
0.000000 0.487732 0.003906
0.000000 0.487732 0.000000
0.000000 0.487732 0.000000
0.000000 0.487732 0.000000
0.032013 0.487732 0.000000
0.000000 0.744659 0.052185
0.000000 0.744659 0.020142
0.000000 0.744659 0.000000
0.000000 0.744659 0.000000
0.000000 0.744659 0.000000
0.000000 0.744659 0.000000
0.000000 0.915314 0.063568
0.000000 0.915314 0.031097
0.000000 0.915314 0.000000
0.000000 0.915314 0.000000
0.000000 0.915314 0.000000
0.000000 0.915314 0.000000
0.000000 1.000000 0.069214
0.000000 1.000000 0.036530
0.000000 1.000000 0.000977
0.000000 1.000000 0.000000
0.000000 1.000000 0.000000
0.000000 1.000000 0.000000
0.518097 0.000000 0.223572
0.746521 0.000000 0.188568
1.000000 0.000000 0.148376
1.000000 0.000000 0.113647
1.000000 0.000000 0.091492
1.000000 0.000000 0.080719
0.041107 0.209320 0.242249
0.307312 0.209320 0.207062
0.582825 0.209320 0.166656
0.811981 0.209320 0.131744
0.956238 0.209320 0.109375
1.000000 0.209320 0.098511
0.000000 0.487732 0.263947
0.000000 0.487732 0.228607
0.034912 0.487732 0.187988
0.305908 0.487732 0.152832
0.464050 0.487732 0.130280
0.539246 0.487732 0.119324
0.000000 0.744659 0.283020
0.000000 0.744659 0.247559
0.000000 0.744659 0.206787
0.000000 0.744659 0.171387
0.000000 0.744659 0.148743
0.060486 0.744659 0.137695
0.000000 0.915314 0.295349
0.000000 0.915314 0.259857
0.000000 0.915314 0.218933
0.000000 0.915314 0.183472
0.000000 0.915314 0.160706
0.000000 0.915314 0.149597
0.000000 1.000000 0.301453
0.000000 1.000000 0.265839
0.000000 1.000000 0.224915
0.000000 1.000000 0.189392
0.000000 1.000000 0.166595
0.000000 1.000000 0.155487
1.000000 0.000000 0.502716
1.000000 0.000000 0.466156
1.000000 0.000000 0.423981
1.000000 0.000000 0.387238
1.000000 0.000000 0.363586
1.000000 0.000000 0.352020
0.619385 0.209320 0.522125
0.844147 0.209320 0.485504
1.000000 0.209320 0.443207
1.000000 0.209320 0.406403
1.000000 0.209320 0.382660
1.000000 0.209320 0.371094
0.082275 0.487732 0.544678
0.341522 0.487732 0.507965
0.614838 0.487732 0.465576
0.842896 0.487732 0.428650
0.986603 0.487732 0.404846
1.000000 0.487732 0.393250
0.000000 0.744659 0.564392
0.000000 0.744659 0.527618
0.151794 0.744659 0.485199
0.406097 0.744659 0.448181
0.560333 0.744659 0.424347
0.634094 0.744659 0.412689
0.000000 0.915314 0.577179
0.000000 0.915314 0.540405
0.000000 0.915314 0.497864
0.092072 0.915314 0.460846
0.264801 0.915314 0.436951
0.344269 0.915314 0.425262
0.000000 1.000000 0.583466
0.000000 1.000000 0.546631
0.000000 1.000000 0.504089
0.000000 1.000000 0.467010
0.106598 1.000000 0.443146
0.192627 1.000000 0.431458
1.000000 0.000000 0.753967
1.000000 0.000000 0.716644
1.000000 0.000000 0.673523
1.000000 0.000000 0.635864
1.000000 0.000000 0.611603
1.000000 0.000000 0.599731
1.000000 0.209320 0.773773
1.000000 0.209320 0.736389
1.000000 0.209320 0.693176
1.000000 0.209320 0.655518
1.000000 0.209320 0.631195
1.000000 0.209320 0.619324
0.584778 0.487732 0.796753
0.810730 0.487732 0.759308
1.000000 0.487732 0.716034
1.000000 0.487732 0.678284
1.000000 0.487732 0.653931
1.000000 0.487732 0.642059
0.116364 0.744659 0.816864
0.371155 0.744659 0.779388
0.642670 0.744659 0.736084
0.869781 0.744659 0.698242
1.000000 0.744659 0.673889
1.000000 0.744659 0.661957
0.000000 0.915314 0.829865
0.049896 0.915314 0.792389
0.353424 0.915314 0.749023
0.592743 0.915314 0.711182
0.741547 0.915314 0.686768
0.813202 0.915314 0.674835
0.000000 1.000000 0.836273
0.000000 1.000000 0.798737
0.202393 1.000000 0.755371
0.451965 1.000000 0.717499
0.604675 1.000000 0.693115
0.677856 1.000000 0.681152
1.000000 0.000000 0.918732
1.000000 0.000000 0.881042
1.000000 0.000000 0.837463
1.000000 0.000000 0.799377
1.000000 0.000000 0.774841
1.000000 0.000000 0.762817
1.000000 0.209320 0.938751
1.000000 0.209320 0.901001
1.000000 0.209320 0.857330
1.000000 0.209320 0.819244
1.000000 0.209320 0.794647
1.000000 0.209320 0.782654
0.879517 0.487732 0.961945
1.000000 0.487732 0.924133
1.000000 0.487732 0.880432
1.000000 0.487732 0.842285
1.000000 0.487732 0.817657
1.000000 0.487732 0.805634
0.445679 0.744659 0.982239
0.677185 0.744659 0.944397
0.934967 0.744659 0.900665
1.000000 0.744659 0.862457
1.000000 0.744659 0.837830
1.000000 0.744659 0.825775
0.137848 0.915314 0.995361
0.390167 0.915314 0.957550
0.660583 0.915314 0.913757
0.887146 0.915314 0.875549
1.000000 0.915314 0.850861
1.000000 0.915314 0.838776
0.000000 1.000000 1.000000
0.241302 1.000000 0.963959
0.521729 1.000000 0.920166
0.753204 1.000000 0.881927
0.898560 1.000000 0.857269
0.968781 1.000000 0.845184
1.000000 0.000000 1.000000
1.000000 0.000000 0.962128
1.000000 0.000000 0.918365
1.000000 0.000000 0.880096
1.000000 0.000000 0.855438
1.000000 0.000000 0.843384
1.000000 0.209320 1.000000
1.000000 0.209320 0.982178
1.000000 0.209320 0.938324
1.000000 0.209320 0.900055
1.000000 0.209320 0.875336
1.000000 0.209320 0.863281
1.000000 0.487732 1.000000
1.000000 0.487732 1.000000
1.000000 0.487732 0.961517
1.000000 0.487732 0.923218
1.000000 0.487732 0.898468
1.000000 0.487732 0.886383
0.595490 0.744659 1.000000
0.821075 0.744659 1.000000
1.000000 0.744659 0.981842
1.000000 0.744659 0.943481
1.000000 0.744659 0.918732
1.000000 0.744659 0.906616
0.302856 0.915314 1.000000
0.541840 0.915314 1.000000
0.804840 0.915314 0.994995
1.000000 0.915314 0.956604
1.000000 0.915314 0.931824
1.000000 0.915314 0.919708
0.148193 1.000000 1.000000
0.399445 1.000000 1.000000
0.669342 1.000000 1.000000
0.895599 1.000000 0.963043
1.000000 1.000000 0.938263
1.000000 1.000000 0.926117
