Color Lookup Presets Effects/z1 (56).CUBE
#Created by: Adobe Photoshop Export Color Lookup Plugin
#Copyright: (C) Copyright 2015 zafizack photography
TITLE "zafizack-IR-05"
#LUT size
LUT_3D_SIZE 6
#data domain
DOMAIN_MIN 0.0 0.0 0.0
DOMAIN_MAX 1.0 1.0 1.0
#LUT data points
0.000000 0.000000 0.000000
0.311523 0.086884 0.098663
0.571075 0.183319 0.221558
0.778473 0.289642 0.367798
0.932648 0.406677 0.535858
1.000000 0.568207 0.729401
0.278442 0.184265 0.317139
0.212677 0.201263 0.215973
0.445160 0.301544 0.153351
0.699768 0.393677 0.272461
0.912354 0.433411 0.375763
1.000000 0.538177 0.547424
0.597717 0.197113 0.730225
0.478119 0.288696 0.549042
0.419952 0.394958 0.431763
0.653931 0.470306 0.293365
0.884003 0.501709 0.274689
1.000000 0.565186 0.469940
0.750397 0.174866 1.000000
0.750061 0.219086 1.000000
0.653900 0.373138 0.802551
0.621002 0.580078 0.647766
0.847534 0.666351 0.469482
1.000000 0.719299 0.430267
0.762329 0.392731 1.000000
0.719513 0.448700 1.000000
0.713470 0.524872 1.000000
0.752197 0.631592 1.000000
0.814575 0.777039 0.863892
1.000000 0.858032 0.709961
0.694916 1.000000 0.961945
0.644775 1.000000 0.972260
0.650177 1.000000 0.981293
0.711182 1.000000 0.988861
0.827789 1.000000 0.995087
1.000000 1.000000 1.000000
0.000000 0.000000 0.000000
0.311523 0.086884 0.098663
0.571075 0.183319 0.221558
0.778473 0.289642 0.367798
0.932648 0.406677 0.535858
1.000000 0.568207 0.729401
0.278442 0.184265 0.317139
0.212677 0.201263 0.215973
0.445160 0.301544 0.153351
0.699768 0.393677 0.272461
0.912354 0.433411 0.375763
1.000000 0.538177 0.547424
0.597717 0.197113 0.730225
0.478119 0.288696 0.549042
0.419952 0.394958 0.431763
0.653931 0.470306 0.293365
0.884003 0.501709 0.274689
1.000000 0.565186 0.469940
0.750397 0.174866 1.000000
0.750061 0.219086 1.000000
0.653900 0.373138 0.802551
0.621002 0.580078 0.647766
0.847534 0.666351 0.469482
1.000000 0.719299 0.430267
0.762329 0.392731 1.000000
0.719513 0.448700 1.000000
0.713470 0.524872 1.000000
0.752197 0.631592 1.000000
0.814575 0.777039 0.863892
1.000000 0.858032 0.709961
0.694916 1.000000 0.961945
0.644775 1.000000 0.972260
0.650177 1.000000 0.981293
0.711182 1.000000 0.988861
0.827789 1.000000 0.995087
1.000000 1.000000 1.000000
0.000000 0.000000 0.000000
0.311523 0.086884 0.098663
0.571075 0.183319 0.221558
0.778473 0.289642 0.367798
0.932648 0.406677 0.535858
1.000000 0.568207 0.729401
0.278442 0.184265 0.317139
0.212677 0.201263 0.215973
0.445160 0.301544 0.153351
0.699768 0.393677 0.272461
0.912354 0.433411 0.375763
1.000000 0.538177 0.547424
0.597717 0.197113 0.730225
0.478119 0.288696 0.549042
0.419952 0.394958 0.431763
0.653931 0.470306 0.293365
0.884003 0.501709 0.274689
1.000000 0.565186 0.469940
0.750397 0.174866 1.000000
0.750061 0.219086 1.000000
0.653900 0.373138 0.802551
0.621002 0.580078 0.647766
0.847534 0.666351 0.469482
1.000000 0.719299 0.430267
0.762329 0.392731 1.000000
0.719513 0.448700 1.000000
0.713470 0.524872 1.000000
0.752197 0.631592 1.000000
0.814575 0.777039 0.863892
1.000000 0.858032 0.709961
0.694916 1.000000 0.961945
0.644775 1.000000 0.972260
0.650177 1.000000 0.981293
0.711182 1.000000 0.988861
0.827789 1.000000 0.995087
1.000000 1.000000 1.000000
0.000000 0.000000 0.000000
0.311523 0.086884 0.098663
0.571075 0.183319 0.221558
0.778473 0.289642 0.367798
0.932648 0.406677 0.535858
1.000000 0.568207 0.729401
0.278442 0.184265 0.317139
0.212677 0.201263 0.215973
0.445160 0.301544 0.153351
0.699768 0.393677 0.272461
0.912354 0.433411 0.375763
1.000000 0.538177 0.547424
0.597717 0.197113 0.730225
0.478119 0.288696 0.549042
0.419952 0.394958 0.431763
0.653931 0.470306 0.293365
0.884003 0.501709 0.274689
1.000000 0.565186 0.469940
0.750397 0.174866 1.000000
0.750061 0.219086 1.000000
0.653900 0.373138 0.802551
0.621002 0.580078 0.647766
0.847534 0.666351 0.469482
1.000000 0.719299 0.430267
0.762329 0.392731 1.000000
0.719513 0.448700 1.000000
0.713470 0.524872 1.000000
0.752197 0.631592 1.000000
0.814575 0.777039 0.863892
1.000000 0.858032 0.709961
0.694916 1.000000 0.961945
0.644775 1.000000 0.972260
0.650177 1.000000 0.981293
0.711182 1.000000 0.988861
0.827789 1.000000 0.995087
1.000000 1.000000 1.000000
0.000000 0.000000 0.000000
0.311523 0.086884 0.098663
0.571075 0.183319 0.221558
0.778473 0.289642 0.367798
0.932648 0.406677 0.535858
1.000000 0.568207 0.729401
0.278442 0.184265 0.317139
0.212677 0.201263 0.215973
0.445160 0.301544 0.153351
0.699768 0.393677 0.272461
0.912354 0.433411 0.375763
1.000000 0.538177 0.547424
0.597717 0.197113 0.730225
0.478119 0.288696 0.549042
0.419952 0.394958 0.431763
0.653931 0.470306 0.293365
0.884003 0.501709 0.274689
1.000000 0.565186 0.469940
0.750397 0.174866 1.000000
0.750061 0.219086 1.000000
0.653900 0.373138 0.802551
0.621002 0.580078 0.647766
0.847534 0.666351 0.469482
1.000000 0.719299 0.430267
0.762329 0.392731 1.000000
0.719513 0.448700 1.000000
0.713470 0.524872 1.000000
0.752197 0.631592 1.000000
0.814575 0.777039 0.863892
1.000000 0.858032 0.709961
0.694916 1.000000 0.961945
0.644775 1.000000 0.972260
0.650177 1.000000 0.981293
0.711182 1.000000 0.988861
0.827789 1.000000 0.995087
1.000000 1.000000 1.000000
0.000000 0.000000 0.000000
0.311523 0.086884 0.098663
0.571075 0.183319 0.221558
0.778473 0.289642 0.367798
0.932648 0.406677 0.535858
1.000000 0.568207 0.729401
0.278442 0.184265 0.317139
0.212677 0.201263 0.215973
0.445160 0.301544 0.153351
0.699768 0.393677 0.272461
0.912354 0.433411 0.375763
1.000000 0.538177 0.547424
0.597717 0.197113 0.730225
0.478119 0.288696 0.549042
0.419952 0.394958 0.431763
0.653931 0.470306 0.293365
0.884003 0.501709 0.274689
1.000000 0.565186 0.469940
0.750397 0.174866 1.000000
0.750061 0.219086 1.000000
0.653900 0.373138 0.802551
0.621002 0.580078 0.647766
0.847534 0.666351 0.469482
1.000000 0.719299 0.430267
0.762329 0.392731 1.000000
0.719513 0.448700 1.000000
0.713470 0.524872 1.000000
0.752197 0.631592 1.000000
0.814575 0.777039 0.863892
1.000000 0.858032 0.709961
0.694916 1.000000 0.961945
0.644775 1.000000 0.972260
0.650177 1.000000 0.981293
0.711182 1.000000 0.988861
0.827789 1.000000 0.995087
1.000000 1.000000 1.000000
