Color Lookup Presets Effects/z1 (60).CUBE
#Created by: Adobe Photoshop Export Color Lookup Plugin
#Copyright: (C) Copyright 2016 www.zafizack.com
TITLE "zafizack false Color preset"
#LUT size
LUT_3D_SIZE 6
#data domain
DOMAIN_MIN 0.0 0.0 0.0
DOMAIN_MAX 1.0 1.0 1.0
#LUT data points
0.063446 0.061768 0.038513
0.287109 0.138458 0.091492
0.604309 0.218658 0.191956
0.819824 0.276154 0.284027
0.940704 0.320099 0.345490
0.997223 0.381897 0.427887
0.125305 0.232147 0.167694
0.234711 0.236847 0.128815
0.580444 0.300201 0.161865
0.792114 0.347626 0.209290
0.942291 0.406647 0.280029
0.997223 0.475342 0.385284
0.252716 0.378906 0.395508
0.360779 0.401489 0.333160
0.539490 0.442932 0.288940
0.770538 0.518616 0.296051
0.939819 0.555450 0.284882
0.997223 0.590912 0.371307
0.307800 0.518219 0.482635
0.437836 0.534088 0.483734
0.595856 0.571686 0.457458
0.730896 0.629761 0.420898
0.919373 0.719910 0.424286
0.997223 0.742554 0.462189
0.441132 0.756470 0.539276
0.527618 0.773163 0.534546
0.648102 0.798889 0.531311
0.763153 0.823639 0.528320
0.882996 0.848114 0.526306
0.997223 0.907745 0.581970
0.561493 0.994629 0.579041
0.623383 0.992859 0.576752
0.704010 0.994629 0.571503
0.785889 0.994629 0.563721
0.882263 0.994629 0.591003
0.983978 0.994629 0.658478
0.065613 0.059509 0.128265
0.212708 0.077942 0.203735
0.547089 0.137207 0.290497
0.796448 0.200256 0.389221
0.936066 0.267792 0.452850
0.997223 0.344910 0.524689
0.103821 0.205475 0.295624
0.174957 0.225128 0.269836
0.507782 0.287842 0.273926
0.758179 0.338715 0.339844
0.934998 0.394623 0.422913
0.997223 0.459717 0.501373
0.242798 0.373566 0.538574
0.321075 0.404877 0.469543
0.483276 0.449127 0.418884
0.733917 0.507904 0.418213
0.928040 0.544922 0.409302
0.997223 0.581970 0.483643
0.306091 0.506317 0.626923
0.428528 0.518677 0.616180
0.555725 0.575378 0.569519
0.700623 0.629517 0.531189
0.905029 0.705505 0.524994
0.997223 0.731262 0.542389
0.351746 0.731140 0.638855
0.475311 0.749603 0.634308
0.606750 0.783508 0.626190
0.732635 0.817078 0.635254
0.867859 0.843536 0.639435
0.997223 0.898926 0.666351
0.497528 0.980865 0.669708
0.574524 0.984802 0.661377
0.672455 0.987946 0.645477
0.766205 0.994629 0.655823
0.871368 0.994629 0.681915
0.985413 0.994629 0.727386
0.070129 0.059143 0.256317
0.218506 0.075439 0.391479
0.534119 0.106079 0.467468
0.770203 0.161804 0.533966
0.931519 0.235168 0.575165
0.997223 0.323517 0.625610
0.098694 0.185944 0.448059
0.170227 0.205627 0.433685
0.455444 0.257446 0.420135
0.719727 0.312592 0.484283
0.928894 0.363281 0.547424
0.997223 0.433472 0.599518
0.205017 0.356049 0.630432
0.293823 0.389130 0.605286
0.423828 0.440857 0.554962
0.679108 0.476593 0.511139
0.911224 0.506165 0.501526
0.997223 0.557190 0.569153
0.299622 0.494812 0.757172
0.414642 0.509125 0.752808
0.537262 0.558350 0.698425
0.645294 0.623444 0.651428
0.877441 0.683960 0.614990
0.997223 0.714111 0.618835
0.298035 0.705780 0.757385
0.396027 0.729736 0.751556
0.547485 0.751984 0.744843
0.683258 0.790771 0.746429
0.842438 0.834106 0.749359
0.997223 0.888580 0.741760
0.411530 0.964050 0.770294
0.503326 0.973572 0.765808
0.616547 0.977142 0.757996
0.724548 0.986877 0.756989
0.854065 0.994629 0.771851
0.987946 0.994629 0.800507
0.074127 0.058716 0.390686
0.225281 0.072723 0.555145
0.538391 0.105225 0.628082
0.791779 0.157867 0.713348
0.923645 0.220581 0.707458
0.997223 0.309174 0.733398
0.094452 0.170258 0.562164
0.175995 0.197021 0.571930
0.463470 0.251434 0.580597
0.731079 0.289520 0.650818
0.923157 0.326294 0.671783
0.997223 0.411041 0.704865
0.182373 0.343475 0.716370
0.265564 0.372833 0.705048
0.403168 0.422943 0.671844
0.669617 0.466614 0.630035
0.891815 0.496033 0.614868
0.997223 0.548615 0.680939
0.296875 0.455994 0.840576
0.398407 0.479919 0.837585
0.517548 0.542664 0.787781
0.625092 0.610107 0.753662
0.854340 0.658630 0.699768
0.997223 0.687744 0.688812
0.296753 0.685944 0.847992
0.388367 0.713745 0.846863
0.538788 0.735870 0.844238
0.664368 0.770508 0.841766
0.825043 0.823242 0.838135
0.997223 0.877716 0.820160
0.326111 0.949036 0.848969
0.426605 0.962738 0.847565
0.564392 0.966522 0.844635
0.689941 0.976410 0.842987
0.836243 0.993652 0.843414
0.991211 0.994629 0.855530
0.076508 0.058502 0.477509
0.227783 0.071625 0.665802
0.538757 0.105255 0.734528
0.773132 0.156433 0.784882
0.931580 0.220245 0.816986
0.997223 0.300903 0.818329
0.091888 0.161987 0.643799
0.177765 0.192444 0.670715
0.467682 0.247772 0.691986
0.735046 0.283417 0.756927
0.933746 0.311523 0.786957
0.997223 0.396820 0.791901
0.169342 0.336182 0.786041
0.247925 0.361664 0.784454
0.403534 0.416748 0.763123
0.673157 0.463287 0.734406
0.908020 0.467163 0.743103
0.997223 0.531067 0.773773
0.296387 0.446136 0.893738
0.387817 0.471741 0.891388
0.502747 0.535309 0.864960
0.614624 0.601379 0.837433
0.855591 0.651215 0.795135
0.997223 0.683105 0.784485
0.298889 0.624512 0.895508
0.393799 0.649902 0.897095
0.538635 0.689026 0.897064
0.660248 0.739746 0.897064
0.818268 0.811340 0.892517
0.997223 0.862549 0.879181
0.272125 0.939087 0.904083
0.363556 0.954865 0.903503
0.524506 0.958313 0.901825
0.655518 0.968506 0.900299
0.822784 0.986450 0.900726
0.994385 0.994629 0.907227
0.078766 0.058411 0.564972
0.228271 0.071228 0.770874
0.529510 0.106598 0.812988
0.760193 0.156952 0.854095
0.937347 0.228790 0.903809
0.997223 0.293152 0.900818
0.088806 0.154480 0.725159
0.178833 0.188568 0.767273
0.470642 0.245056 0.793610
0.723602 0.289429 0.835480
0.925171 0.321442 0.863007
0.997223 0.384033 0.875702
0.157043 0.328796 0.853912
0.231842 0.351379 0.860474
0.406219 0.412170 0.847809
0.676422 0.460114 0.828491
0.897675 0.472137 0.829803
0.997223 0.514313 0.863037
0.294678 0.438293 0.945435
0.376251 0.465240 0.942505
0.490082 0.528625 0.923401
0.605591 0.593842 0.912811
0.858368 0.648529 0.881744
0.997223 0.672119 0.868134
0.297974 0.611084 0.947998
0.393646 0.631866 0.950989
0.537506 0.672668 0.951385
0.656891 0.722534 0.951538
0.811829 0.798248 0.945160
0.997223 0.849243 0.929688
0.284393 0.814178 0.949097
0.363525 0.857391 0.951019
0.515991 0.893646 0.951202
0.641449 0.929016 0.952118
0.806732 0.965546 0.954041
0.997223 0.994629 0.956360
