Color Lookup Presets Effects/z1 (95).CUBE
#Created by: Adobe Photoshop Export Color Lookup Plugin
#Copyright: (C) Copyright 2014 www.zafizack.com
TITLE "diamoon"
#LUT size
LUT_3D_SIZE 6
#data domain
DOMAIN_MIN 0.0 0.0 0.0
DOMAIN_MAX 1.0 1.0 1.0
#LUT data points
0.102203 0.102203 0.104370
0.106903 0.102203 0.108276
0.237701 0.102478 0.112244
0.547180 0.106537 0.116241
0.829193 0.110321 0.126495
1.000000 0.114075 0.139832
0.111206 0.216522 0.135895
0.166718 0.271118 0.170227
0.299683 0.249268 0.157135
0.564087 0.231689 0.141937
0.834961 0.252808 0.157440
1.000000 0.277466 0.175385
0.102203 0.322174 0.104065
0.123474 0.410339 0.116730
0.266205 0.509155 0.160034
0.572540 0.534729 0.178375
0.834625 0.562988 0.200592
1.000000 0.591309 0.226959
0.102203 0.632324 0.103943
0.131897 0.685486 0.123505
0.264801 0.737396 0.181885
0.542542 0.784698 0.262970
0.824097 0.797394 0.289398
1.000000 0.811157 0.303497
0.102203 0.862762 0.103912
0.144684 0.885803 0.122742
0.300293 0.906403 0.177704
0.568634 0.921783 0.246796
0.827393 0.936646 0.339539
1.000000 0.941956 0.381927
0.102203 1.000000 0.104279
0.129730 1.000000 0.117310
0.259613 1.000000 0.163116
0.540894 1.000000 0.232788
0.823792 1.000000 0.339447
1.000000 1.000000 0.484039
0.102203 0.102203 0.166779
0.105377 0.102203 0.166565
0.229187 0.102203 0.179077
0.537415 0.103546 0.195496
0.825928 0.107452 0.216736
1.000000 0.111267 0.240906
0.102203 0.154388 0.173279
0.114075 0.154358 0.169067
0.266449 0.160675 0.176331
0.578491 0.172729 0.192322
0.839935 0.187225 0.213318
1.000000 0.204132 0.237549
0.102203 0.323486 0.163696
0.132996 0.326172 0.161530
0.283813 0.415039 0.213806
0.590942 0.440460 0.234985
0.841461 0.469757 0.262939
1.000000 0.500488 0.295105
0.102203 0.633575 0.163116
0.150391 0.636322 0.161285
0.304688 0.693390 0.214233
0.584320 0.745483 0.291931
0.837830 0.759583 0.327271
1.000000 0.772827 0.365692
0.102203 0.863251 0.165070
0.148560 0.864777 0.163971
0.292755 0.883789 0.219025
0.572083 0.902069 0.297974
0.834320 0.920013 0.402252
1.000000 0.925262 0.445282
0.102203 1.000000 0.168549
0.141144 1.000000 0.167664
0.279968 1.000000 0.223572
0.561615 1.000000 0.302216
0.830933 1.000000 0.406982
1.000000 1.000000 0.529297
0.102203 0.102203 0.362823
0.109528 0.102203 0.362427
0.221741 0.102203 0.362122
0.527985 0.102203 0.387848
0.822968 0.104614 0.419098
1.000000 0.108490 0.451263
0.102203 0.148529 0.361694
0.119354 0.150177 0.357727
0.258270 0.152374 0.357300
0.570343 0.164093 0.383057
0.837250 0.177612 0.414032
1.000000 0.193665 0.447052
0.102203 0.324890 0.360718
0.131317 0.327606 0.356659
0.303497 0.330597 0.353027
0.609161 0.352325 0.379089
0.848053 0.378418 0.411011
1.000000 0.407532 0.445435
0.102203 0.634796 0.359924
0.147736 0.637817 0.356384
0.328156 0.641479 0.353607
0.604370 0.698883 0.442535
0.844696 0.714935 0.477875
1.000000 0.730225 0.512695
0.102203 0.863800 0.363739
0.144379 0.865417 0.361816
0.315582 0.867188 0.360291
0.592316 0.885803 0.449554
0.841339 0.903717 0.542694
1.000000 0.909058 0.575043
0.102203 1.000000 0.370331
0.137115 1.000000 0.368622
0.302368 1.000000 0.365845
0.582184 1.000000 0.453735
0.837952 1.000000 0.546173
1.000000 1.000000 0.633820
0.102203 0.102203 0.679443
0.110138 0.102203 0.679047
0.225098 0.102203 0.678772
0.518982 0.102203 0.678497
0.819885 0.102203 0.696960
1.000000 0.105713 0.714966
0.102203 0.149414 0.678528
0.121338 0.151093 0.675995
0.262634 0.153381 0.675720
0.562317 0.155579 0.675232
0.834442 0.168701 0.694214
1.000000 0.183746 0.712646
0.102203 0.326477 0.677917
0.133850 0.329315 0.675171
0.307709 0.332611 0.672882
0.601135 0.338104 0.672882
0.845032 0.363861 0.692627
1.000000 0.392456 0.712158
0.102203 0.636047 0.677460
0.144928 0.639374 0.675171
0.321289 0.643585 0.673584
0.605896 0.649200 0.674530
0.845306 0.667114 0.694763
1.000000 0.684357 0.713959
0.102203 0.864410 0.680298
0.140289 0.866241 0.679169
0.307770 0.867950 0.678131
0.593994 0.869904 0.678955
0.841888 0.888123 0.729980
1.000000 0.893524 0.747040
0.102203 1.000000 0.684723
0.133331 1.000000 0.683441
0.295319 1.000000 0.681396
0.584198 1.000000 0.681396
0.838562 1.000000 0.731689
1.000000 1.000000 0.777252
0.102203 0.102203 0.906464
0.107300 0.102203 0.906342
0.211395 0.102203 0.906250
0.501892 0.102203 0.906158
0.817139 0.102203 0.906067
1.000000 0.102905 0.912384
0.102203 0.151154 0.906219
0.114319 0.152771 0.905334
0.247406 0.155060 0.905273
0.546814 0.157501 0.905121
0.831787 0.160400 0.905121
1.000000 0.174835 0.911713
0.102203 0.329315 0.906006
0.125092 0.332550 0.905121
0.289734 0.336212 0.904297
0.584320 0.342316 0.904358
0.842041 0.350006 0.904633
1.000000 0.378113 0.911499
0.102203 0.638367 0.905853
0.134705 0.641998 0.905151
0.300171 0.646637 0.904724
0.587341 0.652649 0.905029
0.842041 0.658691 0.905396
1.000000 0.676178 0.912109
0.102203 0.865021 0.906189
0.136383 0.866882 0.905853
0.300018 0.868652 0.905457
0.587341 0.870605 0.905640
0.835999 0.872894 0.906433
1.000000 0.878632 0.912933
0.102203 1.000000 0.907684
0.129700 1.000000 0.907257
0.288391 1.000000 0.906433
0.577942 1.000000 0.906433
0.832886 1.000000 0.907074
1.000000 1.000000 0.925201
0.102203 0.102203 1.000000
0.104462 0.102203 1.000000
0.198944 0.102203 1.000000
0.484924 0.102203 1.000000
0.811615 0.102203 1.000000
1.000000 0.102203 1.000000
0.102203 0.152771 1.000000
0.111542 0.154419 1.000000
0.233704 0.157074 1.000000
0.531097 0.159546 1.000000
0.826447 0.162872 1.000000
1.000000 0.166809 1.000000
0.102203 0.332336 1.000000
0.116272 0.335022 1.000000
0.263611 0.336365 1.000000
0.555389 0.342743 1.000000
0.834015 0.353333 1.000000
1.000000 0.364868 1.000000
0.102203 0.640656 1.000000
0.125122 0.644897 1.000000
0.279968 0.649841 1.000000
0.568695 0.656036 1.000000
0.835571 0.662109 1.000000
1.000000 0.667969 1.000000
0.102203 0.865967 1.000000
0.126129 0.867798 1.000000
0.279755 0.869659 1.000000
0.569092 0.871643 1.000000
0.829773 0.874054 1.000000
1.000000 0.876099 1.000000
0.102203 1.000000 1.000000
0.126282 1.000000 1.000000
0.281708 1.000000 1.000000
0.571686 1.000000 1.000000
0.830688 1.000000 1.000000
1.000000 1.000000 1.000000
