Color Lookup Presets Effects/z1 (74).CUBE
#Created by: Adobe Photoshop Export Color Lookup Plugin
#Copyright: (C) Copyright 2016 www.zafizack.com
TITLE "zafizack pastel color preset"
#LUT size
LUT_3D_SIZE 16
#data domain
DOMAIN_MIN 0.0 0.0 0.0
DOMAIN_MAX 1.0 1.0 1.0
#LUT data points
0.031982 0.022614 0.021820
0.119568 0.054138 0.053497
0.214996 0.084900 0.083649
0.328430 0.119110 0.118042
0.450500 0.155090 0.154236
0.534241 0.185059 0.184021
0.609711 0.213165 0.211731
0.684570 0.239105 0.237000
0.759033 0.263275 0.260101
0.832520 0.286896 0.282593
0.873566 0.317078 0.312836
0.901093 0.351532 0.347260
0.929169 0.388092 0.382233
0.956421 0.418304 0.407349
0.979584 0.442993 0.428070
1.000000 0.464325 0.446106
0.042786 0.067230 0.032288
0.089355 0.081879 0.050720
0.188934 0.122009 0.084290
0.299408 0.157715 0.118317
0.418304 0.194366 0.153625
0.513794 0.226501 0.184326
0.587952 0.255219 0.211090
0.662079 0.282745 0.236908
0.735107 0.309418 0.261658
0.807922 0.335449 0.285400
0.873596 0.361237 0.309631
0.900848 0.394897 0.344574
0.928680 0.429657 0.379456
0.956238 0.463257 0.409973
0.979736 0.487579 0.430603
1.000000 0.506073 0.447723
0.058960 0.123474 0.042297
0.105835 0.138519 0.061768
0.157928 0.154144 0.082001
0.275146 0.203918 0.121857
0.391174 0.241028 0.157501
0.495667 0.274811 0.189178
0.569122 0.303436 0.214844
0.641846 0.330872 0.239532
0.714600 0.357513 0.263641
0.786682 0.383636 0.286957
0.858246 0.408478 0.309204
0.900848 0.437927 0.338867
0.928223 0.471405 0.373474
0.956146 0.505493 0.408295
0.980011 0.521576 0.428406
1.000000 0.531097 0.442810
0.077942 0.195374 0.056030
0.122559 0.206665 0.072845
0.173187 0.221680 0.093811
0.238800 0.240631 0.119659
0.366272 0.299683 0.165192
0.479858 0.335938 0.199188
0.552002 0.365173 0.224304
0.624023 0.393372 0.248596
0.695923 0.420258 0.271912
0.767120 0.446442 0.294464
0.837677 0.471436 0.316010
0.900940 0.496674 0.338470
0.928009 0.520966 0.369385
0.955811 0.539276 0.399933
0.980316 0.555084 0.427032
1.000000 0.563507 0.440216
0.100861 0.281128 0.076324
0.143555 0.286957 0.087097
0.190277 0.299988 0.106781
0.251404 0.316315 0.131989
0.325500 0.336731 0.161377
0.458710 0.404663 0.211365
0.537506 0.436432 0.238068
0.608521 0.464905 0.261963
0.679199 0.492157 0.284729
0.749786 0.511200 0.304382
0.819305 0.527710 0.322968
0.888428 0.543457 0.340698
0.927948 0.558533 0.364868
0.955414 0.574554 0.394196
0.980499 0.589294 0.421356
1.000000 0.599640 0.440979
0.125153 0.376129 0.097321
0.165405 0.377747 0.101654
0.210602 0.388977 0.122131
0.268280 0.402924 0.147217
0.335907 0.419128 0.174866
0.413605 0.439117 0.204926
0.524048 0.500336 0.250580
0.595764 0.520111 0.271606
0.665741 0.537750 0.291504
0.735199 0.554718 0.310425
0.803864 0.570496 0.328217
0.872192 0.585876 0.345428
0.927795 0.599823 0.364166
0.955078 0.613159 0.391815
0.980591 0.626099 0.419250
1.000000 0.635986 0.440430
0.143860 0.456329 0.115051
0.183380 0.456879 0.113342
0.226349 0.466370 0.134216
0.281036 0.477722 0.159027
0.344849 0.489777 0.185974
0.415955 0.503143 0.214142
0.494751 0.517853 0.243011
0.584167 0.565887 0.279602
0.654053 0.584534 0.299713
0.723022 0.601227 0.318329
0.791107 0.616608 0.335876
0.858551 0.631378 0.352783
0.924744 0.645264 0.368652
0.954742 0.655670 0.393158
0.980743 0.666443 0.420319
1.000000 0.675079 0.441528
0.157104 0.518341 0.129456
0.194977 0.516724 0.120819
0.236633 0.524841 0.142120
0.289368 0.534821 0.167023
0.350250 0.545471 0.193909
0.417969 0.556976 0.221497
0.494568 0.569794 0.250305
0.549805 0.580841 0.270752
0.639313 0.627869 0.306366
0.712708 0.650421 0.328217
0.780426 0.665649 0.345581
0.847107 0.679993 0.362152
0.912811 0.693329 0.377930
0.954346 0.702148 0.397430
0.980743 0.710205 0.424164
1.000000 0.717102 0.445557
0.170349 0.583130 0.144043
0.206848 0.579071 0.128418
0.247101 0.586060 0.149963
0.298370 0.594940 0.175262
0.356628 0.603943 0.202148
0.421234 0.613739 0.229584
0.494049 0.624878 0.257721
0.551239 0.635010 0.279388
0.605164 0.645111 0.298767
0.691406 0.687622 0.331940
0.771179 0.717743 0.356964
0.838043 0.731537 0.373383
0.903015 0.744385 0.388916
0.954041 0.752777 0.405060
0.980743 0.757355 0.431091
1.000000 0.762573 0.452942
0.184021 0.649994 0.158691
0.219543 0.644684 0.136078
0.258118 0.650055 0.157928
0.307831 0.657440 0.183685
0.363739 0.665253 0.210571
0.425812 0.673401 0.238007
0.494934 0.682831 0.265991
0.553619 0.691864 0.288391
0.605377 0.701294 0.307770
0.660248 0.711121 0.326660
0.742920 0.748291 0.357513
0.829834 0.786255 0.386078
0.895203 0.798889 0.401611
0.953674 0.808014 0.415924
0.980499 0.807678 0.440063
1.000000 0.810272 0.463104
0.197968 0.719269 0.173340
0.232300 0.713074 0.143311
0.269501 0.716888 0.165771
0.317871 0.722900 0.192230
0.371674 0.729279 0.219269
0.431183 0.735870 0.246582
0.497223 0.743683 0.274567
0.556793 0.751526 0.298035
0.606567 0.760010 0.316833
0.659637 0.769348 0.336060
0.715240 0.778015 0.354828
0.794189 0.810272 0.383209
0.888611 0.856171 0.415405
0.952087 0.866852 0.430176
0.979858 0.860779 0.451233
1.000000 0.860687 0.477142
0.212036 0.791382 0.188019
0.246094 0.784546 0.151123
0.281586 0.786987 0.173767
0.328308 0.791534 0.200775
0.380249 0.796387 0.228027
0.437042 0.801544 0.255432
0.500153 0.807251 0.283203
0.560730 0.813965 0.308075
0.608246 0.821411 0.326508
0.659363 0.829590 0.345520
0.713348 0.838593 0.364349
0.769989 0.846619 0.382996
0.845001 0.873169 0.408691
0.947052 0.927246 0.445129
0.979340 0.916168 0.465576
1.000000 0.912567 0.497101
0.223114 0.848236 0.199432
0.255280 0.842957 0.160309
0.291168 0.844879 0.179779
0.336792 0.848694 0.207764
0.387177 0.853119 0.235229
0.442230 0.857910 0.262878
0.503082 0.863159 0.290649
0.564240 0.869598 0.316620
0.610352 0.876465 0.335236
0.659424 0.884888 0.353912
0.711884 0.893829 0.373077
0.767273 0.903107 0.391907
0.824402 0.910980 0.410004
0.899933 0.937592 0.435913
0.978638 0.968964 0.482483
1.000000 0.961090 0.514709
0.232422 0.897919 0.209106
0.264557 0.893463 0.170441
0.299011 0.893799 0.184753
0.343811 0.896576 0.213074
0.393036 0.899933 0.241028
0.446472 0.903717 0.268585
0.505585 0.908142 0.296631
0.567078 0.913544 0.323364
0.611725 0.919617 0.341644
0.659607 0.927063 0.360443
0.710510 0.935333 0.379211
0.764709 0.944489 0.398224
0.821411 0.953033 0.416595
0.878815 0.958191 0.433899
0.951691 0.976532 0.487457
1.000000 0.992798 0.534210
0.242096 0.948883 0.218719
0.272949 0.945099 0.181732
0.307007 0.944550 0.189484
0.351044 0.946259 0.218567
0.399048 0.948273 0.246643
0.450775 0.951172 0.274506
0.508179 0.954376 0.302338
0.570129 0.958679 0.330170
0.613586 0.963989 0.348358
0.660004 0.970703 0.366882
0.709564 0.978241 0.385712
0.763489 0.978424 0.405212
0.818665 0.978638 0.429657
0.873291 0.978760 0.463196
0.923340 0.978760 0.502777
0.978882 1.000000 0.565887
0.252289 1.000000 0.229309
0.282715 0.998016 0.191650
0.315643 0.996674 0.194244
0.358490 0.997009 0.223846
0.405182 0.997925 0.252533
0.455566 0.999969 0.280304
0.512024 1.000000 0.309021
0.574402 1.000000 0.337524
0.617279 1.000000 0.356018
0.663605 1.000000 0.375885
0.713501 1.000000 0.398163
0.766479 1.000000 0.425751
0.820709 1.000000 0.462982
0.871918 1.000000 0.503326
0.919678 1.000000 0.559906
0.958191 1.000000 0.608398
0.028656 0.017181 0.048248
0.081329 0.020874 0.086090
0.168640 0.042236 0.109467
0.286346 0.068268 0.140106
0.413696 0.095978 0.172333
0.505493 0.121521 0.198090
0.585205 0.144501 0.221527
0.664703 0.167267 0.243530
0.743073 0.189301 0.264404
0.820251 0.210938 0.284332
0.868530 0.242676 0.311768
0.897461 0.280640 0.345673
0.926758 0.319153 0.378662
0.955933 0.356659 0.411469
0.979492 0.381714 0.429413
1.000000 0.402466 0.445648
0.028259 0.066467 0.086609
0.078064 0.070343 0.087128
0.164795 0.100372 0.115204
0.278046 0.136108 0.149719
0.400055 0.170837 0.183685
0.500732 0.200745 0.212616
0.577454 0.227203 0.237183
0.653259 0.252106 0.260681
0.727875 0.276031 0.283081
0.801666 0.299133 0.304718
0.872345 0.322418 0.326141
0.900024 0.357513 0.361023
0.927277 0.391327 0.391388
0.955048 0.423370 0.418182
0.979248 0.450287 0.441345
1.000000 0.472992 0.460968
0.035828 0.130737 0.105835
0.091370 0.133301 0.101532
0.145477 0.145355 0.113373
0.256897 0.186096 0.151154
0.374420 0.222961 0.186951
0.483307 0.256622 0.218903
0.557922 0.284729 0.245239
0.632080 0.311798 0.270386
0.705811 0.338135 0.294769
0.779205 0.363861 0.318512
0.851898 0.389038 0.341003
0.899414 0.419037 0.371185
0.926880 0.452576 0.403290
0.954468 0.482666 0.429077
0.979248 0.504730 0.451050
1.000000 0.515320 0.468719
0.053680 0.202789 0.125214
0.108704 0.203552 0.116760
0.158875 0.212708 0.121490
0.227448 0.232147 0.147247
0.350830 0.282135 0.188324
0.467133 0.318115 0.223907
0.540710 0.346954 0.249451
0.614105 0.374634 0.273682
0.687042 0.401642 0.297272
0.759552 0.427429 0.320068
0.831268 0.452454 0.341400
0.899567 0.477173 0.363190
0.927094 0.510071 0.398926
0.954773 0.526611 0.425537
0.979614 0.538849 0.444519
1.000000 0.548431 0.461029
0.074097 0.286713 0.146515
0.129578 0.285706 0.136108
0.174164 0.290466 0.132172
0.238190 0.307281 0.156799
0.315247 0.328308 0.185852
0.444641 0.386871 0.230164
0.526154 0.418213 0.258118
0.598358 0.446747 0.282654
0.670105 0.473602 0.305359
0.741669 0.498901 0.326843
0.812531 0.515442 0.345520
0.882660 0.531494 0.363403
0.926910 0.547943 0.389191
0.954834 0.565033 0.422333
0.979919 0.576355 0.442108
1.000000 0.584778 0.457367
0.096649 0.378906 0.166962
0.151978 0.377991 0.155853
0.193634 0.379517 0.144775
0.253815 0.393951 0.169037
0.324036 0.410400 0.195953
0.404846 0.430817 0.225281
0.512817 0.488953 0.267090
0.585510 0.508545 0.289154
0.656616 0.526215 0.309601
0.727356 0.543091 0.328735
0.797058 0.559143 0.346558
0.866241 0.574432 0.363708
0.926819 0.589172 0.382690
0.954468 0.603790 0.415344
0.980194 0.616852 0.442932
1.000000 0.623657 0.456696
0.115387 0.461395 0.185242
0.170868 0.460175 0.173737
0.208923 0.459229 0.155396
0.266602 0.470734 0.179474
0.332550 0.483337 0.205597
0.406403 0.496979 0.232391
0.486755 0.511841 0.260254
0.573181 0.554810 0.293732
0.644989 0.573303 0.314026
0.715118 0.589905 0.333221
0.783997 0.605377 0.350983
0.852478 0.620148 0.367798
0.919891 0.634460 0.383179
0.954071 0.646271 0.412262
0.980316 0.658478 0.443604
1.000000 0.665100 0.459473
0.128571 0.522064 0.198517
0.183044 0.520569 0.187225
0.218842 0.518005 0.161713
0.274567 0.528290 0.185852
0.337463 0.539154 0.211487
0.407501 0.550934 0.237732
0.486389 0.563873 0.265625
0.543060 0.575134 0.285553
0.634644 0.622253 0.320068
0.704498 0.639893 0.339600
0.773407 0.655121 0.357239
0.841248 0.669159 0.373657
0.907715 0.682648 0.388916
0.953827 0.692993 0.412201
0.980408 0.702484 0.444519
1.000000 0.708893 0.464722
0.141724 0.584839 0.212311
0.195557 0.583588 0.200684
0.228729 0.579529 0.168121
0.282898 0.588379 0.192596
0.343445 0.597717 0.218384
0.410278 0.607788 0.244080
0.485260 0.619110 0.271149
0.543732 0.629364 0.292114
0.599213 0.639832 0.311310
0.687683 0.682465 0.343292
0.764160 0.707275 0.365479
0.831940 0.721313 0.381683
0.897919 0.734344 0.396881
0.953400 0.743958 0.415283
0.980499 0.749939 0.448608
1.000000 0.755005 0.472260
0.155182 0.650330 0.225891
0.208313 0.649261 0.214600
0.239471 0.644226 0.174896
0.292145 0.651428 0.199768
0.350464 0.659271 0.225433
0.414429 0.667816 0.250946
0.485748 0.677338 0.277710
0.545776 0.686737 0.299316
0.599060 0.696289 0.318298
0.655487 0.705994 0.337189
0.739868 0.743713 0.366425
0.823700 0.776520 0.391724
0.889923 0.789215 0.406769
0.952789 0.799591 0.421448
0.980194 0.800537 0.455231
1.000000 0.803528 0.481110
0.169037 0.718170 0.239136
0.221161 0.716858 0.227966
0.249146 0.712097 0.183685
0.301971 0.717499 0.206787
0.358063 0.723511 0.232574
0.419556 0.730560 0.258057
0.487518 0.738251 0.284576
0.548706 0.746582 0.306946
0.599731 0.754883 0.325623
0.654205 0.764343 0.344635
0.711456 0.773407 0.362915
0.792206 0.805939 0.389832
0.883240 0.846741 0.418030
0.948029 0.857910 0.432251
0.979645 0.854370 0.464111
1.000000 0.854187 0.491699
0.182983 0.788635 0.252899
0.234222 0.787231 0.241821
0.261688 0.783325 0.198761
0.312012 0.786407 0.214203
0.366211 0.790802 0.240112
0.425171 0.796112 0.265778
0.489960 0.802307 0.291901
0.552307 0.809113 0.315430
0.601349 0.816345 0.333496
0.653656 0.824982 0.352264
0.709198 0.833832 0.370880
0.767029 0.842224 0.388916
0.843475 0.869141 0.413208
0.942932 0.918365 0.445038
0.979034 0.910553 0.477325
1.000000 0.906311 0.504944
0.194397 0.844788 0.262390
0.244110 0.844513 0.251801
0.271515 0.841919 0.209503
0.320801 0.844513 0.219635
0.373383 0.848511 0.246033
0.430511 0.853088 0.271729
0.493164 0.858826 0.298218
0.555939 0.865326 0.322632
0.603210 0.872345 0.340546
0.653717 0.880493 0.358948
0.707336 0.889893 0.377838
0.763977 0.899292 0.396393
0.822266 0.907288 0.413605
0.899109 0.933838 0.437836
0.978424 0.964996 0.493744
1.000000 0.956512 0.524109
0.203735 0.893280 0.271637
0.252960 0.893127 0.260925
0.279724 0.891449 0.219971
0.327484 0.892761 0.224243
0.378784 0.895813 0.250885
0.434326 0.899384 0.276886
0.495239 0.903778 0.303162
0.558563 0.909363 0.328217
0.604675 0.915619 0.346039
0.653717 0.923065 0.364227
0.705902 0.931488 0.382965
0.761322 0.940796 0.401611
0.819031 0.949463 0.419586
0.878113 0.955841 0.436432
0.954163 0.976349 0.500397
1.000000 0.989258 0.548401
0.214203 0.943573 0.279144
0.261292 0.943542 0.268524
0.287903 0.941864 0.228119
0.335052 0.942841 0.228546
0.385101 0.944550 0.255493
0.439056 0.947113 0.281555
0.498047 0.950500 0.307892
0.562042 0.954742 0.333771
0.606659 0.960266 0.351379
0.654083 0.966858 0.369415
0.704926 0.974792 0.387970
0.759796 0.978424 0.409698
0.816681 0.978546 0.437561
0.873016 0.978729 0.474823
0.923431 0.978546 0.509155
0.981262 1.000000 0.576324
0.223419 0.994690 0.288849
0.270508 0.994537 0.277985
0.296265 0.993622 0.239227
0.341888 0.993805 0.233246
0.391113 0.994690 0.260803
0.443329 0.996094 0.286835
0.500793 0.998108 0.313080
0.565277 1.000000 0.340424
0.609955 1.000000 0.360199
0.657654 1.000000 0.381592
0.709198 1.000000 0.406372
0.763428 1.000000 0.436829
0.819336 1.000000 0.477600
0.869568 1.000000 0.514099
0.920319 1.000000 0.570190
0.960236 1.000000 0.622223
0.029663 0.015961 0.083862
0.079590 0.014984 0.172241
0.144714 0.019226 0.179535
0.240631 0.035339 0.189819
0.371857 0.058563 0.223389
0.470154 0.081329 0.250732
0.554382 0.103882 0.275055
0.638062 0.125824 0.297607
0.721161 0.147675 0.318848
0.803345 0.169159 0.338684
0.859924 0.201813 0.363525
0.891754 0.245209 0.395081
0.922974 0.287994 0.426605
0.953918 0.329681 0.458160
0.978729 0.357880 0.477142
1.000000 0.380829 0.492645
0.026062 0.054199 0.153656
0.071259 0.057373 0.170624
0.137421 0.063202 0.173553
0.233063 0.084656 0.186035
0.358612 0.115509 0.217621
0.466248 0.142303 0.245178
0.546906 0.165680 0.267700
0.626984 0.187805 0.289001
0.706421 0.209442 0.308685
0.784973 0.230621 0.327026
0.862335 0.251068 0.344116
0.895111 0.289825 0.375671
0.924744 0.329926 0.408142
0.954254 0.366211 0.436035
0.979034 0.393616 0.456116
1.000000 0.416260 0.472809
0.025818 0.117920 0.163605
0.070801 0.126617 0.171875
0.135071 0.133636 0.174072
0.228943 0.153564 0.187439
0.350616 0.185638 0.218414
0.465729 0.214325 0.245819
0.543213 0.238983 0.268677
0.619751 0.263550 0.291412
0.695923 0.287567 0.313202
0.771057 0.311707 0.334534
0.845612 0.335754 0.355164
0.897919 0.365967 0.381927
0.924805 0.399261 0.408691
0.953552 0.433289 0.436920
0.978882 0.462494 0.461609
1.000000 0.486084 0.481812
0.029785 0.206390 0.188873
0.074219 0.209930 0.185272
0.139252 0.211639 0.181274
0.215607 0.222412 0.188354
0.332916 0.263336 0.227905
0.452423 0.299591 0.262939
0.529144 0.328552 0.289215
0.603821 0.356018 0.313995
0.677765 0.382355 0.337830
0.751312 0.407928 0.360535
0.824310 0.432861 0.381805
0.895905 0.455353 0.399445
0.924103 0.484528 0.425079
0.952484 0.507202 0.451050
0.978790 0.521576 0.474243
1.000000 0.532440 0.492767
0.047455 0.288269 0.210175
0.094299 0.290497 0.202148
0.156616 0.291443 0.195740
0.224670 0.298279 0.193268
0.305359 0.319794 0.221924
0.430664 0.368561 0.261475
0.514435 0.399994 0.292480
0.587860 0.428284 0.316711
0.660858 0.454956 0.339264
0.733734 0.480469 0.360992
0.805573 0.503143 0.380981
0.876740 0.519226 0.398682
0.925568 0.534698 0.420807
0.952698 0.547424 0.443298
0.979126 0.559967 0.466003
1.000000 0.569611 0.483978
0.066986 0.378632 0.230804
0.115082 0.380920 0.221100
0.176880 0.380981 0.213470
0.239136 0.384613 0.202484
0.312714 0.401855 0.228607
0.396423 0.422455 0.257477
0.502167 0.477295 0.295990
0.575165 0.496552 0.319519
0.647156 0.514282 0.341156
0.718933 0.531158 0.360138
0.789886 0.546936 0.377869
0.860138 0.562408 0.394531
0.925781 0.577515 0.411987
0.953308 0.590271 0.440094
0.979431 0.600677 0.461670
1.000000 0.608978 0.479401
0.085297 0.463623 0.248779
0.134399 0.464294 0.237396
0.194122 0.463684 0.229492
0.251862 0.464172 0.210510
0.320587 0.477081 0.235352
0.397034 0.491028 0.261627
0.479645 0.505981 0.288574
0.563324 0.543579 0.318817
0.635925 0.562042 0.339966
0.706757 0.578461 0.360077
0.776855 0.593903 0.377930
0.846313 0.608734 0.394104
0.914581 0.622925 0.408997
0.953491 0.636292 0.439880
0.979645 0.644440 0.461029
1.000000 0.651154 0.477936
0.097534 0.522980 0.261902
0.146240 0.523743 0.250092
0.205048 0.522888 0.241486
0.259094 0.521637 0.215118
0.324890 0.532806 0.239594
0.397247 0.545013 0.264801
0.478699 0.558167 0.291504
0.536774 0.569550 0.311218
0.625000 0.611420 0.342407
0.696686 0.628815 0.361633
0.766327 0.643890 0.379761
0.834991 0.658112 0.396484
0.902588 0.671692 0.410919
0.952881 0.683258 0.435059
0.979858 0.691071 0.463684
1.000000 0.696198 0.479980
0.110046 0.584656 0.274628
0.158966 0.585510 0.262146
0.216400 0.584473 0.253418
0.267029 0.581818 0.219940
0.330414 0.591705 0.244263
0.399475 0.601959 0.269012
0.476776 0.613495 0.294739
0.536865 0.623962 0.315277
0.593719 0.634552 0.333893
0.684296 0.677704 0.364655
0.757141 0.696838 0.384155
0.825653 0.710602 0.400330
0.892700 0.723511 0.415253
0.952484 0.734619 0.433289
0.980042 0.740662 0.469055
1.000000 0.743683 0.484619
0.123077 0.649017 0.287201
0.171600 0.650055 0.274902
0.227905 0.648712 0.265961
0.275970 0.645203 0.225586
0.336731 0.653320 0.249725
0.402954 0.662140 0.274017
0.476654 0.671814 0.299286
0.538208 0.681335 0.320251
0.593109 0.691071 0.338684
0.650818 0.700867 0.357300
0.737274 0.738861 0.385193
0.817749 0.766449 0.407227
0.884827 0.779022 0.421509
0.950378 0.790100 0.435333
0.979858 0.792908 0.476135
1.000000 0.793457 0.492035
0.136414 0.715515 0.299530
0.184387 0.716614 0.286987
0.239471 0.715332 0.278107
0.284088 0.711914 0.232727
0.344238 0.718048 0.255219
0.407654 0.724976 0.279572
0.477936 0.732849 0.304260
0.540924 0.741302 0.325867
0.593323 0.750061 0.343811
0.649445 0.759644 0.362518
0.707520 0.768677 0.380402
0.790131 0.801636 0.405792
0.878204 0.837036 0.430328
0.943787 0.848175 0.443604
0.979309 0.847382 0.482910
1.000000 0.845795 0.501953
0.150055 0.784393 0.311859
0.197906 0.785980 0.299408
0.251556 0.784210 0.290466
0.293854 0.781250 0.242157
0.352417 0.785553 0.261292
0.413208 0.790741 0.285339
0.480438 0.797119 0.309906
0.544312 0.804016 0.332275
0.594604 0.811707 0.349854
0.648193 0.820160 0.368011
0.705261 0.829437 0.386261
0.764130 0.837952 0.403717
0.842224 0.864960 0.426422
0.938385 0.909332 0.453949
0.978760 0.904419 0.493683
1.000000 0.899567 0.516083
0.161255 0.839935 0.320923
0.208160 0.842407 0.308685
0.260986 0.841797 0.300049
0.303345 0.840027 0.251404
0.359253 0.843475 0.265961
0.418304 0.848572 0.290131
0.483124 0.854126 0.314575
0.548035 0.860870 0.337891
0.596222 0.868103 0.355164
0.648010 0.876404 0.373077
0.702972 0.885773 0.391266
0.760834 0.895355 0.409424
0.820221 0.903412 0.426056
0.898529 0.929901 0.448395
0.978058 0.960571 0.506714
1.000000 0.951569 0.539246
0.170959 0.888031 0.328217
0.217560 0.890411 0.316132
0.268738 0.889771 0.307770
0.310822 0.888824 0.259125
0.364990 0.891144 0.269409
0.422333 0.894989 0.293884
0.485260 0.899506 0.318329
0.550812 0.905273 0.342224
0.597870 0.911285 0.359039
0.647949 0.919128 0.376770
0.701324 0.927673 0.394775
0.757904 0.937012 0.412933
0.816772 0.945740 0.430450
0.876862 0.952301 0.446472
0.955780 0.976044 0.508514
1.000000 0.985748 0.564728
0.181000 0.937286 0.335236
0.225830 0.940002 0.323486
0.276306 0.938965 0.315125
0.318481 0.938416 0.266022
0.370941 0.940155 0.273132
0.426788 0.942932 0.297485
0.488068 0.946350 0.321960
0.553802 0.950806 0.346405
0.599487 0.956024 0.363342
0.648193 0.962799 0.380798
0.700256 0.971039 0.398621
0.755585 0.978333 0.418121
0.814667 0.978546 0.449310
0.872559 0.978668 0.489441
0.923462 0.978333 0.519379
0.983612 1.000000 0.588776
0.191040 0.987640 0.342621
0.236176 0.990326 0.330719
0.284576 0.989685 0.322662
0.326111 0.989685 0.273773
0.377258 0.990417 0.277069
0.431580 0.992096 0.301514
0.490845 0.994080 0.325897
0.555817 0.997498 0.350769
0.602081 1.000000 0.369324
0.651306 1.000000 0.391876
0.704132 1.000000 0.418304
0.760101 1.000000 0.451355
0.815094 1.000000 0.487671
0.866974 1.000000 0.528656
0.921051 1.000000 0.581909
0.961975 1.000000 0.636932
0.030518 0.014648 0.121124
0.078033 0.011475 0.266785
0.142395 0.015778 0.277893
0.233368 0.017700 0.291290
0.332001 0.028931 0.290558
0.436371 0.047180 0.319946
0.523926 0.067841 0.345306
0.611603 0.088440 0.368805
0.699097 0.109283 0.390625
0.786011 0.129883 0.410736
0.851379 0.161713 0.432190
0.885529 0.209167 0.459473
0.918915 0.256348 0.487305
0.951813 0.304474 0.507416
0.978088 0.338531 0.518768
1.000000 0.365479 0.526733
0.024689 0.045410 0.218994
0.069122 0.049469 0.261566
0.133667 0.055542 0.268311
0.219269 0.057343 0.277740
0.316864 0.075439 0.280090
0.430817 0.101715 0.308746
0.515015 0.124603 0.332458
0.599182 0.146332 0.354248
0.682831 0.167755 0.374603
0.766052 0.188568 0.393463
0.848267 0.208954 0.410339
0.888458 0.250427 0.437012
0.920349 0.295197 0.466888
0.951782 0.336853 0.494202
0.978271 0.369598 0.506927
1.000000 0.396912 0.516174
0.024475 0.105194 0.240723
0.063568 0.111023 0.264709
0.122498 0.113953 0.266571
0.210541 0.123779 0.270569
0.308350 0.140930 0.275421
0.429230 0.170441 0.303680
0.510284 0.193451 0.325623
0.590912 0.215271 0.345917
0.671509 0.236389 0.365112
0.751312 0.257111 0.383118
0.830353 0.277283 0.399597
0.891846 0.305420 0.421051
0.921936 0.345642 0.450134
0.951782 0.380951 0.474060
0.978424 0.410522 0.495270
1.000000 0.436096 0.506500
0.024353 0.182098 0.249725
0.060303 0.190826 0.259064
0.120819 0.198975 0.262207
0.204376 0.209656 0.268768
0.303162 0.226013 0.276093
0.426636 0.257599 0.305786
0.509613 0.281372 0.327179
0.587402 0.303314 0.346313
0.664703 0.323883 0.364105
0.740326 0.343597 0.380096
0.813873 0.364594 0.395264
0.887939 0.385712 0.410187
0.922028 0.419952 0.437195
0.951355 0.456146 0.467255
0.978455 0.486664 0.494598
1.000000 0.501282 0.507813
0.026062 0.290283 0.282013
0.062927 0.295044 0.279755
0.121674 0.296143 0.274841
0.202789 0.299225 0.271332
0.293976 0.309113 0.275543
0.412140 0.348145 0.314301
0.500183 0.379517 0.342865
0.572174 0.404999 0.363220
0.644714 0.429016 0.382263
0.718079 0.452362 0.400543
0.791656 0.474976 0.417938
0.865448 0.494690 0.433838
0.920868 0.509613 0.453064
0.950409 0.525787 0.481262
0.978363 0.541138 0.505310
1.000000 0.554352 0.517639
0.042358 0.378632 0.303711
0.081696 0.383728 0.297424
0.140686 0.383942 0.290802
0.219391 0.386475 0.285126
0.299622 0.392029 0.277496
0.387054 0.412903 0.306274
0.490021 0.457458 0.340393
0.562744 0.483154 0.369110
0.633850 0.498688 0.385986
0.705658 0.513916 0.401581
0.777374 0.528290 0.416138
0.849548 0.542267 0.430115
0.921326 0.555939 0.443024
0.950592 0.568939 0.470673
0.978577 0.581665 0.498169
1.000000 0.592529 0.515503
0.058929 0.465942 0.322937
0.099976 0.468781 0.313690
0.157776 0.468109 0.306213
0.234406 0.468872 0.298798
0.306915 0.470001 0.281219
0.386688 0.484253 0.306946
0.471802 0.499634 0.333496
0.552216 0.531189 0.361145
0.625488 0.549011 0.384674
0.695679 0.564087 0.402924
0.766205 0.578278 0.417114
0.836609 0.592041 0.430237
0.906921 0.605286 0.442535
0.950836 0.615936 0.463989
0.978760 0.626221 0.492157
