Color Lookup Presets Effects/z1 (69).CUBE
#Created by: Adobe Photoshop Export Color Lookup Plugin
#Copyright: (C) Copyright 2016 www.zafizack.com
TITLE "zafizack pastel color preset"
#LUT size
LUT_3D_SIZE 6
#data domain
DOMAIN_MIN 0.0 0.0 0.0
DOMAIN_MAX 1.0 1.0 1.0
#LUT data points
0.062500 0.061188 0.037994
0.264282 0.116272 0.085327
0.577423 0.181946 0.163849
0.798889 0.231812 0.240021
0.925446 0.282166 0.309418
0.997223 0.338013 0.383057
0.124298 0.240356 0.115417
0.240295 0.225006 0.079559
0.570496 0.281036 0.118469
0.777863 0.319611 0.176086
0.929321 0.377777 0.249634
0.997223 0.438141 0.343597
0.255188 0.449097 0.264435
0.367767 0.423218 0.210907
0.548615 0.410034 0.156433
0.766907 0.484375 0.195435
0.930511 0.525879 0.216187
0.997223 0.560486 0.316406
0.366028 0.616394 0.355164
0.461731 0.599762 0.323273
0.602875 0.594543 0.273956
0.737762 0.614777 0.241058
0.917572 0.695496 0.267670
0.997223 0.717255 0.351135
0.519623 0.814697 0.450256
0.580017 0.811218 0.422638
0.669830 0.813232 0.378204
0.774109 0.825104 0.348694
0.888519 0.841766 0.329742
0.997223 0.900543 0.443390
0.637878 0.994629 0.514221
0.678375 0.993011 0.494537
0.727112 0.994629 0.451630
0.799744 0.994629 0.419556
0.890839 0.994629 0.447632
0.985229 0.994629 0.535706
0.064423 0.058380 0.155426
0.188995 0.066498 0.250671
0.506958 0.093750 0.307678
0.767609 0.141357 0.380829
0.918457 0.207245 0.439636
0.997223 0.277252 0.500244
0.080841 0.207825 0.283417
0.171906 0.224762 0.277191
0.484283 0.278198 0.299927
0.738037 0.323212 0.355713
0.919678 0.375000 0.424591
0.997223 0.431396 0.489929
0.128296 0.430267 0.418182
0.292419 0.446777 0.390472
0.485352 0.434113 0.351349
0.726959 0.488708 0.382690
0.915833 0.526764 0.404053
0.997223 0.558929 0.475311
0.224640 0.599060 0.497162
0.383057 0.604675 0.486755
0.557800 0.604309 0.443604
0.706207 0.619995 0.421844
0.901184 0.684357 0.440979
0.997223 0.707642 0.495667
0.378906 0.796173 0.552979
0.511902 0.806976 0.540985
0.635406 0.809021 0.513855
0.748779 0.820923 0.503479
0.876038 0.837067 0.496002
0.997223 0.890869 0.555176
0.518097 0.983551 0.592651
0.614563 0.986572 0.584595
0.701935 0.988342 0.553162
0.781738 0.994629 0.537048
0.880096 0.994629 0.558502
0.986328 0.994629 0.632385
0.068756 0.057343 0.335541
0.196198 0.062714 0.499115
0.486694 0.070404 0.538269
0.735535 0.097565 0.564392
0.910797 0.167603 0.592255
0.997223 0.246124 0.624542
0.079742 0.186310 0.507782
0.167816 0.202271 0.516754
0.437256 0.230286 0.512115
0.697418 0.269775 0.540771
0.911591 0.318359 0.579041
0.997223 0.387115 0.610291
0.109497 0.395142 0.591461
0.213928 0.419189 0.582886
0.410706 0.446045 0.555908
0.664124 0.477570 0.540588
0.894287 0.501282 0.546875
0.997223 0.542908 0.586761
0.127380 0.584351 0.671448
0.260315 0.591217 0.663300
0.470032 0.606720 0.626556
0.646210 0.628082 0.590881
0.872375 0.669891 0.590149
0.997223 0.698029 0.612762
0.212341 0.776215 0.690857
0.357391 0.790314 0.686005
0.555511 0.801697 0.672699
0.692139 0.819733 0.656036
0.848480 0.833344 0.652283
0.997223 0.879333 0.674286
0.363373 0.969666 0.717621
0.490417 0.977295 0.711761
0.626404 0.979950 0.694519
0.738983 0.987732 0.676697
0.859894 0.994629 0.682922
0.988342 0.994629 0.743622
0.072723 0.056366 0.509399
0.199005 0.060760 0.688080
0.490540 0.069824 0.728973
0.760254 0.080292 0.771057
0.902527 0.140961 0.741669
0.997223 0.220917 0.751129
0.077271 0.170685 0.653961
0.169098 0.193146 0.687164
0.442078 0.221527 0.697479
0.705750 0.238678 0.730377
0.903076 0.274963 0.729340
0.997223 0.356354 0.738159
0.104187 0.374969 0.729492
0.195404 0.395905 0.735291
0.395752 0.424896 0.721863
0.656097 0.452759 0.709015
0.875916 0.472076 0.699463
0.997223 0.520477 0.723175
0.125549 0.545715 0.790161
0.245300 0.561981 0.791626
0.438202 0.588104 0.766571
0.611298 0.621399 0.751556
0.843781 0.653625 0.733765
0.997223 0.676849 0.734009
0.125671 0.759979 0.817261
0.239716 0.776611 0.813232
0.454285 0.785858 0.803680
0.640930 0.804169 0.798920
0.823364 0.831299 0.794830
0.997223 0.868683 0.794342
0.223358 0.957245 0.828735
0.351776 0.968262 0.824615
0.543640 0.970673 0.816101
0.688660 0.978882 0.809662
0.838013 0.993683 0.808350
0.991333 0.994629 0.840332
0.075073 0.055817 0.612579
0.198975 0.060242 0.809692
0.489929 0.069946 0.845245
0.739349 0.085480 0.862061
0.912262 0.131165 0.861938
0.997223 0.205811 0.848083
0.075287 0.162903 0.754028
0.168732 0.188049 0.800964
0.443787 0.216553 0.818512
0.708862 0.232483 0.850555
0.914490 0.254669 0.857513
0.997223 0.336090 0.839172
0.100922 0.363434 0.824432
0.183441 0.381073 0.840057
0.396057 0.417419 0.834473
0.659546 0.448120 0.831299
0.890167 0.446930 0.839752
0.997223 0.497681 0.832886
0.124847 0.534088 0.881012
0.236511 0.551971 0.883362
0.426361 0.578735 0.873169
0.602997 0.609924 0.865082
0.845337 0.639709 0.852905
0.997223 0.664429 0.842987
0.125275 0.706055 0.883728
0.235992 0.725586 0.886017
0.439972 0.747833 0.885681
0.618469 0.777374 0.886078
0.809082 0.822235 0.886108
0.997223 0.854950 0.882385
0.131134 0.948914 0.897522
0.252319 0.961670 0.897156
0.461761 0.963837 0.894409
0.635803 0.971832 0.891724
0.820984 0.987152 0.892273
0.994385 0.994629 0.900757
0.076202 0.056061 0.710541
0.198395 0.060059 0.914856
0.479370 0.071472 0.920898
0.725159 0.091034 0.927368
0.920685 0.138123 0.935913
0.997223 0.191864 0.925781
0.073273 0.155396 0.846375
0.168396 0.183228 0.905548
0.444977 0.212585 0.917999
0.697998 0.240143 0.924347
0.905701 0.267792 0.928650
0.997223 0.317749 0.922760
0.097809 0.352631 0.912445
0.172699 0.367096 0.922882
0.398346 0.411560 0.922424
0.662292 0.444366 0.923157
0.881012 0.451111 0.923309
0.997223 0.477875 0.922272
0.124237 0.524017 0.940857
0.228455 0.541748 0.944855
0.416840 0.570251 0.937408
0.596313 0.599884 0.935059
0.848755 0.635529 0.931244
0.997223 0.648743 0.924408
0.124847 0.693054 0.944061
0.232239 0.710358 0.948456
0.435059 0.734070 0.948975
0.614075 0.762756 0.950500
0.802795 0.809326 0.950165
0.997223 0.839417 0.943024
0.122375 0.861420 0.945679
0.217743 0.889618 0.948486
0.419464 0.912537 0.948700
0.603821 0.937256 0.950043
0.796356 0.967926 0.953247
0.997223 0.994629 0.956360
