Color Lookup Presets Effects/z1 (99).CUBE
#Created by: Adobe Photoshop Export Color Lookup Plugin
#Copyright: (C) Copyright 2014 www.zafizack.com
TITLE "zamrood"
#LUT size
LUT_3D_SIZE 16
#data domain
DOMAIN_MIN 0.0 0.0 0.0
DOMAIN_MAX 1.0 1.0 1.0
#LUT data points
0.000000 0.000000 0.000000
0.032776 0.000000 0.003601
0.104156 0.000000 0.008484
0.188538 0.000000 0.014313
0.285370 0.000000 0.020813
0.391357 0.000000 0.027985
0.503326 0.000000 0.035767
0.606049 0.000000 0.044006
0.691223 0.000000 0.044006
0.762604 0.000000 0.035767
0.822937 0.000000 0.027985
0.873779 0.000000 0.020813
0.916321 0.000000 0.014313
0.951324 0.000000 0.008484
0.979279 0.000000 0.003601
1.000000 0.000000 0.000000
0.000000 0.025360 0.003601
0.014130 0.025360 0.003601
0.080780 0.021973 0.008484
0.161804 0.018677 0.014313
0.256287 0.015411 0.020813
0.361176 0.012238 0.027985
0.473297 0.009155 0.035767
0.582031 0.005981 0.044006
0.672424 0.002258 0.044006
0.748077 0.000000 0.035767
0.811920 0.000000 0.027985
0.865814 0.000000 0.020813
0.910919 0.000000 0.014313
0.948120 0.000000 0.008484
0.977905 0.000000 0.003601
1.000000 0.000000 0.000000
0.000000 0.094360 0.008484
0.014526 0.094360 0.008484
0.058807 0.094360 0.008484
0.136749 0.090027 0.014313
0.228485 0.085663 0.020813
0.332031 0.081299 0.027985
0.444000 0.077240 0.035767
0.557312 0.072937 0.044006
0.653198 0.067993 0.044006
0.733215 0.062500 0.035767
0.800720 0.056946 0.027985
0.857605 0.051514 0.020813
0.905365 0.046173 0.014313
0.944855 0.040741 0.008484
0.976471 0.035583 0.003601
1.000000 0.030548 0.000000
0.000000 0.170471 0.014313
0.014954 0.170471 0.014313
0.059296 0.170471 0.014313
0.113251 0.170471 0.014313
0.201996 0.166199 0.020813
0.303833 0.161957 0.027985
0.415314 0.157745 0.035767
0.531830 0.153534 0.044006
0.633453 0.148468 0.044006
0.718018 0.142792 0.035767
0.789307 0.137207 0.027985
0.849396 0.131622 0.020813
0.899780 0.126068 0.014313
0.941528 0.120544 0.008484
0.975067 0.115051 0.003601
1.000000 0.109619 0.000000
0.000000 0.253906 0.020813
0.015350 0.253906 0.020813
0.059814 0.253906 0.020813
0.113800 0.253906 0.020813
0.176727 0.253906 0.020813
0.276703 0.249420 0.027985
0.387360 0.245056 0.035767
0.505524 0.240662 0.044006
0.613190 0.235718 0.044006
0.702515 0.229797 0.035767
0.777618 0.224243 0.027985
0.840973 0.218414 0.020813
0.894104 0.212921 0.014313
0.938141 0.207275 0.008484
0.973602 0.201599 0.003601
1.000000 0.196289 0.000000
0.000000 0.345947 0.027985
0.015778 0.345947 0.027985
0.060364 0.345947 0.027985
0.114349 0.345947 0.027985
0.177307 0.345947 0.027985
0.250549 0.345947 0.027985
0.360291 0.341431 0.035767
0.478790 0.337036 0.044006
0.592407 0.331909 0.044006
0.686676 0.326141 0.035767
0.765808 0.320496 0.027985
0.832428 0.314697 0.020813
0.888336 0.308899 0.014313
0.934753 0.303284 0.008484
0.972168 0.297760 0.003601
1.000000 0.292053 0.000000
0.000000 0.445679 0.035767
0.016205 0.445679 0.035767
0.060852 0.445679 0.035767
0.114929 0.445679 0.035767
0.177887 0.445679 0.035767
0.251129 0.445679 0.035767
0.334015 0.445679 0.035767
0.452576 0.441284 0.044006
0.571106 0.436218 0.044006
0.670502 0.430664 0.035767
0.753723 0.424896 0.027985
0.823761 0.419617 0.020813
0.882538 0.413910 0.014313
0.931305 0.408447 0.008484
0.970673 0.402863 0.003601
1.000000 0.397247 0.000000
0.000000 0.549103 0.044006
0.016602 0.549103 0.044006
0.061340 0.549103 0.044006
0.115448 0.549103 0.044006
0.178497 0.549103 0.044006
0.251770 0.549103 0.044006
0.334564 0.549103 0.044006
0.426819 0.549103 0.044006
0.549194 0.544708 0.044006
0.653992 0.539948 0.035767
0.741486 0.535034 0.027985
0.815002 0.529938 0.020813
0.876648 0.525024 0.014313
0.927856 0.519989 0.008484
0.969238 0.514832 0.003601
1.000000 0.509644 0.000000
0.000000 0.640839 0.044006
0.016602 0.640839 0.044006
0.061340 0.640839 0.044006
0.115448 0.640839 0.044006
0.178497 0.640839 0.044006
0.251770 0.640839 0.044006
0.334564 0.640839 0.044006
0.426819 0.640839 0.044006
0.526703 0.640839 0.044006
0.637115 0.637207 0.035767
0.728973 0.633331 0.027985
0.806091 0.629669 0.020813
0.870667 0.625702 0.014313
0.924347 0.622070 0.008484
0.967743 0.618073 0.003601
1.000000 0.614410 0.000000
0.000000 0.721344 0.035767
0.016205 0.721344 0.035767
0.060852 0.721344 0.035767
0.114929 0.721344 0.035767
0.177887 0.721344 0.035767
0.251129 0.721344 0.035767
0.334015 0.721344 0.035767
0.426239 0.721344 0.035767
0.526123 0.721344 0.035767
0.619873 0.721344 0.035767
0.716339 0.718567 0.027985
0.797028 0.715607 0.020813
0.864624 0.712769 0.014313
0.920776 0.709961 0.008484
0.966217 0.707184 0.003601
1.000000 0.704041 0.000000
0.000000 0.792603 0.027985
0.015778 0.792603 0.027985
0.060364 0.792603 0.027985
0.114349 0.792603 0.027985
0.177307 0.792603 0.027985
0.250549 0.792603 0.027985
0.333374 0.792603 0.027985
0.425629 0.792603 0.027985
0.525574 0.792603 0.027985
0.619415 0.792603 0.027985
0.703369 0.792603 0.027985
0.787872 0.790558 0.020813
0.858551 0.788452 0.014313
0.917206 0.786316 0.008484
0.964722 0.784210 0.003601
1.000000 0.782104 0.000000
0.000000 0.856079 0.020813
0.015350 0.856079 0.020813
0.059814 0.856079 0.020813
0.113800 0.856079 0.020813
0.176727 0.856079 0.020813
0.249908 0.856079 0.020813
0.332733 0.856079 0.020813
0.425018 0.856079 0.020813
0.525024 0.856079 0.020813
0.619019 0.856079 0.020813
0.703064 0.856079 0.020813
0.778503 0.856079 0.020813
0.852356 0.854736 0.014313
0.913605 0.853180 0.008484
0.963165 0.851654 0.003601
1.000000 0.850128 0.000000
0.000000 0.912109 0.014313
0.014954 0.912109 0.014313
0.059296 0.912109 0.014313
0.113251 0.912109 0.014313
0.176147 0.912109 0.014313
0.249298 0.912109 0.014313
0.332092 0.912109 0.014313
0.424377 0.912109 0.014313
0.524506 0.912109 0.014313
0.618622 0.912109 0.014313
0.702759 0.912109 0.014313
0.778320 0.912109 0.014313
0.846069 0.912109 0.014313
0.909973 0.911194 0.008484
0.961670 0.910156 0.003601
1.000000 0.909271 0.000000
0.000000 0.960388 0.008484
0.014526 0.960388 0.008484
0.058807 0.960388 0.008484
0.112701 0.960388 0.008484
0.175568 0.960388 0.008484
0.248627 0.960388 0.008484
0.331512 0.960388 0.008484
0.423767 0.960388 0.008484
0.523956 0.960388 0.008484
0.618225 0.960388 0.008484
0.702423 0.960388 0.008484
0.778107 0.960388 0.008484
0.845917 0.960388 0.008484
0.906281 0.960388 0.008484
0.960083 0.959930 0.003601
1.000000 0.959259 0.000000
0.000000 0.998840 0.003601
0.014130 0.998840 0.003601
0.058289 0.998840 0.003601
0.112213 0.998840 0.003601
0.174957 0.998840 0.003601
0.248108 0.998840 0.003601
0.330811 0.998840 0.003601
0.423218 0.998840 0.003601
0.523376 0.998840 0.003601
0.617767 0.998840 0.003601
0.702148 0.998840 0.003601
0.777893 0.998840 0.003601
0.845764 0.998840 0.003601
0.906128 0.998840 0.003601
0.958527 0.998840 0.003601
1.000000 0.998596 0.000000
0.000000 1.000000 0.000000
0.013733 1.000000 0.000000
0.057770 1.000000 0.000000
0.111633 1.000000 0.000000
0.174347 1.000000 0.000000
0.247437 1.000000 0.000000
0.330261 1.000000 0.000000
0.422577 1.000000 0.000000
0.522827 1.000000 0.000000
0.617310 1.000000 0.000000
0.701752 1.000000 0.000000
0.777618 1.000000 0.000000
0.845642 1.000000 0.000000
0.906067 1.000000 0.000000
0.958466 1.000000 0.000000
1.000000 1.000000 0.000000
0.000000 0.000000 0.032959
0.014130 0.000000 0.032959
0.080780 0.000000 0.037964
0.161804 0.000000 0.043030
0.256287 0.000000 0.048340
0.361176 0.000000 0.053864
0.473297 0.000000 0.059387
0.582031 0.000000 0.065247
0.672424 0.000000 0.062164
0.748077 0.000000 0.050903
0.811920 0.000000 0.040253
0.865814 0.000000 0.030334
0.910919 0.000000 0.021210
0.948120 0.000000 0.013092
0.977905 0.000000 0.006226
1.000000 0.000000 0.000916
0.000000 0.025360 0.032959
0.014526 0.026093 0.040527
0.081299 0.022675 0.045776
0.162476 0.019348 0.051086
0.256958 0.016083 0.056671
0.361877 0.012817 0.062286
0.474060 0.009705 0.068146
0.582672 0.006622 0.074036
0.672913 0.002930 0.071045
0.748444 0.000000 0.059296
0.812164 0.000000 0.048187
0.865997 0.000000 0.037689
0.911011 0.000000 0.027954
0.948181 0.000000 0.019073
0.977936 0.000000 0.011261
1.000000 0.000000 0.004761
0.000000 0.094360 0.040527
0.014954 0.095032 0.048462
0.059296 0.095032 0.048462
0.137299 0.090668 0.053986
0.229156 0.086487 0.059540
0.332703 0.082123 0.065308
0.444672 0.077850 0.071136
0.557953 0.073578 0.077240
0.653595 0.068726 0.074036
0.733582 0.063110 0.062164
0.800964 0.057587 0.050903
0.857819 0.052124 0.040253
0.905518 0.046753 0.030334
0.944916 0.041473 0.021210
0.976532 0.036316 0.013092
1.000000 0.031158 0.006226
0.000000 0.170471 0.048462
0.015350 0.171356 0.056763
0.059814 0.171356 0.056763
0.113800 0.171356 0.056763
0.202576 0.167084 0.062378
0.304474 0.162598 0.068268
0.416016 0.158325 0.074127
0.532410 0.154144 0.080292
0.633911 0.149231 0.077240
0.718353 0.143707 0.065247
0.789520 0.137848 0.053772
0.849548 0.132385 0.042847
0.899902 0.126770 0.032715
0.941589 0.121185 0.023407
0.975128 0.115692 0.015076
1.000000 0.110229 0.007843
0.000000 0.253906 0.056763
0.015778 0.254517 0.065430
0.060364 0.254517 0.065430
0.114349 0.254517 0.065430
0.177307 0.254517 0.065430
0.277313 0.250122 0.071259
0.388000 0.245728 0.077301
0.506134 0.241364 0.083405
0.613678 0.236359 0.080292
0.702881 0.230560 0.068146
0.777924 0.224884 0.056580
0.841156 0.219086 0.045593
0.894226 0.213623 0.035278
0.938232 0.207916 0.025665
0.973633 0.202484 0.017059
1.000000 0.196869 0.009583
0.000000 0.345947 0.065430
0.016205 0.346588 0.074249
0.060852 0.346588 0.074249
0.114929 0.346588 0.074249
0.177887 0.346588 0.074249
0.251129 0.346588 0.074249
0.360962 0.342102 0.080414
0.479431 0.337860 0.086517
0.592896 0.332855 0.083405
0.687042 0.326813 0.071136
0.766052 0.321136 0.059418
0.832642 0.315460 0.048279
0.888489 0.309845 0.037781
0.934845 0.303894 0.028046
0.972229 0.298370 0.019135
1.000000 0.292816 0.011322
0.000000 0.445679 0.074249
0.016602 0.446320 0.083496
0.061340 0.446320 0.083496
0.115448 0.446320 0.083496
0.178497 0.446320 0.083496
0.251770 0.446320 0.083496
0.334564 0.446320 0.083496
0.453125 0.441895 0.089844
0.571564 0.437225 0.086517
0.670898 0.431519 0.074127
0.754089 0.425873 0.062286
0.824005 0.420227 0.050995
0.882690 0.414642 0.040344
0.931427 0.408997 0.030396
0.970764 0.403442 0.021301
1.000000 0.397888 0.013153
0.000000 0.549103 0.083496
0.017029 0.549652 0.093048
0.061890 0.549652 0.093048
0.116028 0.549652 0.093048
0.179077 0.549652 0.093048
0.252411 0.549652 0.093048
0.335236 0.549652 0.093048
0.427460 0.549652 0.093048
0.549744 0.545532 0.089844
0.654388 0.540588 0.077301
0.741760 0.535553 0.065308
0.815186 0.530518 0.053864
0.876770 0.525696 0.042938
0.927917 0.520599 0.032806
0.969269 0.515442 0.023499
1.000000 0.510437 0.015167
0.000000 0.640839 0.083496
0.017029 0.641205 0.093048
0.061890 0.641205 0.093048
0.116028 0.641205 0.093048
0.179077 0.641205 0.093048
0.252411 0.641205 0.093048
0.335236 0.641205 0.093048
0.427460 0.641205 0.093048
0.527283 0.641205 0.093048
0.637482 0.637665 0.080414
0.729340 0.633789 0.068268
0.806305 0.630096 0.056671
0.870789 0.626160 0.045715
0.924438 0.622498 0.035370
0.967773 0.618652 0.025726
1.000000 0.614777 0.017151
0.000000 0.721344 0.074249
0.016602 0.721649 0.083496
0.061340 0.721649 0.083496
0.115448 0.721649 0.083496
0.178497 0.721649 0.083496
0.251770 0.721649 0.083496
0.334564 0.721649 0.083496
0.426819 0.721649 0.083496
0.526703 0.721649 0.083496
0.620300 0.721649 0.083496
0.716675 0.718872 0.071259
0.797211 0.716156 0.059540
0.864777 0.713074 0.048340
0.920837 0.710297 0.037872
0.966278 0.707489 0.028107
1.000000 0.704681 0.019196
0.000000 0.792603 0.065430
0.016205 0.793060 0.074249
0.060852 0.793060 0.074249
0.114929 0.793060 0.074249
0.177887 0.793060 0.074249
0.251129 0.793060 0.074249
0.334015 0.793060 0.074249
0.426239 0.793060 0.074249
0.526123 0.793060 0.074249
0.619873 0.793060 0.074249
0.703735 0.793060 0.074249
0.788116 0.790833 0.062378
0.858673 0.788666 0.051086
0.917328 0.786560 0.040436
0.964752 0.784485 0.030487
1.000000 0.782379 0.021393
0.000000 0.856079 0.056763
0.015778 0.856415 0.065430
0.060364 0.856415 0.065430
0.114349 0.856415 0.065430
0.177307 0.856415 0.065430
0.250549 0.856415 0.065430
0.333374 0.856415 0.065430
0.425629 0.856415 0.065430
0.525574 0.856415 0.065430
0.619415 0.856415 0.065430
0.703369 0.856415 0.065430
0.778778 0.856415 0.065430
0.852448 0.854919 0.053986
0.913666 0.853363 0.043030
0.963196 0.851868 0.032898
1.000000 0.850311 0.023560
0.000000 0.912109 0.048462
0.015350 0.912323 0.056763
0.059814 0.912323 0.056763
0.113800 0.912323 0.056763
0.176727 0.912323 0.056763
0.249908 0.912323 0.056763
0.332733 0.912323 0.056763
0.425018 0.912323 0.056763
0.525024 0.912323 0.056763
0.619019 0.912323 0.056763
0.703064 0.912323 0.056763
0.778503 0.912323 0.056763
0.846222 0.912323 0.056763
0.910065 0.911285 0.045776
0.961670 0.910248 0.035461
1.000000 0.909363 0.025818
0.000000 0.960388 0.040527
0.014954 0.960480 0.048462
0.059296 0.960480 0.048462
0.113251 0.960480 0.048462
0.176147 0.960480 0.048462
0.249298 0.960480 0.048462
0.332092 0.960480 0.048462
0.424377 0.960480 0.048462
0.524506 0.960480 0.048462
0.618622 0.960480 0.048462
0.702759 0.960480 0.048462
0.778320 0.960480 0.048462
0.846069 0.960480 0.048462
0.906342 0.960480 0.048462
0.960144 0.959991 0.037964
1.000000 0.959412 0.028229
0.000000 0.998840 0.032959
0.014526 0.998871 0.040527
0.058807 0.998871 0.040527
0.112701 0.998871 0.040527
0.175568 0.998871 0.040527
0.248627 0.998871 0.040527
0.331512 0.998871 0.040527
0.423767 0.998871 0.040527
0.523956 0.998871 0.040527
0.618225 0.998871 0.040527
0.702423 0.998871 0.040527
0.778107 0.998871 0.040527
0.845917 0.998871 0.040527
0.906281 0.998871 0.040527
0.958557 0.998871 0.040527
1.000000 0.998657 0.030579
0.000000 1.000000 0.025909
0.014130 1.000000 0.032959
0.058289 1.000000 0.032959
0.112213 1.000000 0.032959
0.174957 1.000000 0.032959
0.248108 1.000000 0.032959
0.330811 1.000000 0.032959
0.423218 1.000000 0.032959
0.523376 1.000000 0.032959
0.617767 1.000000 0.032959
0.702148 1.000000 0.032959
0.777893 1.000000 0.032959
0.845764 1.000000 0.032959
0.906128 1.000000 0.032959
0.958527 1.000000 0.032959
1.000000 1.000000 0.032959
0.000000 0.000000 0.082703
0.014526 0.000000 0.082703
0.058807 0.000000 0.082703
0.136749 0.000000 0.085052
0.228485 0.000000 0.087433
0.332031 0.000000 0.089935
0.444000 0.000000 0.092346
0.557312 0.000000 0.094788
0.653198 0.000000 0.088257
0.733215 0.000000 0.073425
0.800720 0.000000 0.059357
0.857605 0.000000 0.046082
0.905365 0.000000 0.033691
0.944855 0.000000 0.022583
0.976471 0.000000 0.012756
1.000000 0.000000 0.004791
0.000000 0.026093 0.082703
0.014954 0.026794 0.091553
0.059296 0.026794 0.091553
0.137299 0.023407 0.093964
0.229156 0.019958 0.096405
0.332703 0.016663 0.098846
0.444672 0.013428 0.101318
0.557953 0.010345 0.103973
0.653595 0.006622 0.097229
0.733582 0.002258 0.082001
0.800964 0.000000 0.067474
0.857819 0.000000 0.053680
0.905518 0.000000 0.040710
0.944916 0.000000 0.028870
0.976532 0.000000 0.018250
1.000000 0.000000 0.009216
0.000000 0.094360 0.082703
0.014954 0.095032 0.091553
0.059814 0.095734 0.100494
0.137878 0.091492 0.102936
0.229828 0.087128 0.105621
0.333405 0.082764 0.108185
0.445404 0.078644 0.110687
0.558502 0.074402 0.113220
0.654083 0.069550 0.106476
0.733948 0.063904 0.090790
0.801239 0.058350 0.075684
0.858002 0.052887 0.061493
0.905670 0.047485 0.048126
0.944977 0.042206 0.035675
0.976563 0.036865 0.024231
1.000000 0.031799 0.014252
0.000000 0.170471 0.091553
0.015350 0.171356 0.100494
0.060364 0.171997 0.109833
0.114349 0.171997 0.109833
0.203186 0.167725 0.112366
0.305145 0.163483 0.114960
0.416595 0.159271 0.117554
0.533051 0.154785 0.120331
0.634369 0.149933 0.113220
0.718750 0.144318 0.097229
0.789825 0.138672 0.082001
0.849762 0.133057 0.067444
0.900024 0.127533 0.053680
0.941681 0.122009 0.040710
0.975159 0.116516 0.028870
1.000000 0.110962 0.018250
0.000000 0.253906 0.100494
0.015778 0.254517 0.109833
0.060852 0.255219 0.119446
0.114929 0.255219 0.119446
0.177887 0.255219 0.119446
0.277954 0.250793 0.122070
0.388702 0.246582 0.124725
0.506775 0.242279 0.127411
0.614136 0.237061 0.120331
0.703247 0.231384 0.103973
0.778198 0.225494 0.088257
0.841370 0.219971 0.073425
0.894379 0.214233 0.059357
0.938293 0.208801 0.046082
0.973694 0.203125 0.033691
1.000000 0.197632 0.022583
0.000000 0.345947 0.109833
0.016205 0.346588 0.119446
0.061340 0.347260 0.129181
0.115448 0.347260 0.129181
0.178497 0.347260 0.129181
0.251770 0.347260 0.129181
0.361542 0.342957 0.131866
0.480011 0.338593 0.134644
0.593414 0.333527 0.127411
0.687469 0.327759 0.110687
0.766357 0.321869 0.094788
0.832825 0.316101 0.079651
0.888641 0.310455 0.065277
0.934906 0.304840 0.051514
0.972229 0.299042 0.038818
1.000000 0.293427 0.027130
0.000000 0.445679 0.119446
0.016602 0.446320 0.129181
0.061890 0.446960 0.139404
0.116028 0.446960 0.139404
0.179077 0.446960 0.139404
0.252411 0.446960 0.139404
0.335236 0.446960 0.139404
0.453857 0.442902 0.142212
0.572083 0.437805 0.134644
0.671265 0.432129 0.117554
0.754333 0.426453 0.101318
0.824219 0.420837 0.085876
0.882813 0.415253 0.071167
0.931458 0.409668 0.057190
0.970795 0.404114 0.044098
1.000000 0.398560 0.031830
0.000000 0.549103 0.129181
0.017029 0.549652 0.139435
0.062408 0.550232 0.149811
0.116577 0.550232 0.149811
0.179688 0.550232 0.149811
0.252991 0.550232 0.149811
0.335876 0.550232 0.149811
0.428131 0.550232 0.149811
0.550293 0.546112 0.142212
0.654785 0.541138 0.124725
0.742096 0.536102 0.108185
0.815369 0.531403 0.092346
0.876923 0.526245 0.077332
0.927979 0.521179 0.062897
0.969299 0.515961 0.049469
1.000000 0.511169 0.036896
0.000000 0.640839 0.129181
0.017029 0.641205 0.139435
0.062408 0.641937 0.149811
0.116577 0.641937 0.149811
0.179688 0.641937 0.149811
0.252991 0.641937 0.149811
0.335876 0.641937 0.149811
0.428131 0.641937 0.149811
0.527740 0.641937 0.149811
0.637939 0.638062 0.131866
0.729584 0.634460 0.114960
0.806519 0.630524 0.098846
0.870941 0.626862 0.083527
0.924530 0.622925 0.068909
0.967804 0.619232 0.055084
1.000000 0.615234 0.041992
0.000000 0.721344 0.119446
0.016602 0.721649 0.129181
0.061890 0.721954 0.139404
0.116028 0.721954 0.139404
0.179077 0.721954 0.139404
0.252411 0.721954 0.139404
0.335236 0.721954 0.139404
0.427460 0.721954 0.139404
0.527283 0.721954 0.139404
0.620728 0.721954 0.139404
0.716919 0.719208 0.122070
0.797455 0.716461 0.105621
0.864899 0.713531 0.089935
0.920929 0.710602 0.074921
0.966309 0.707794 0.060760
1.000000 0.704987 0.047424
0.000000 0.792603 0.109833
0.016205 0.793060 0.119446
0.061340 0.793304 0.129181
0.115448 0.793304 0.129181
0.178497 0.793304 0.129181
0.251770 0.793304 0.129181
0.334564 0.793304 0.129181
0.426819 0.793304 0.129181
0.526703 0.793304 0.129181
0.620300 0.793304 0.129181
0.704010 0.793304 0.129181
0.788300 0.791229 0.112366
0.858795 0.789093 0.096405
0.917389 0.786987 0.081177
0.964783 0.784912 0.066681
1.000000 0.782654 0.052856
0.000000 0.856079 0.100494
0.015778 0.856415 0.109833
0.060852 0.856598 0.119446
0.114929 0.856598 0.119446
0.177887 0.856598 0.119446
0.251129 0.856598 0.119446
0.334015 0.856598 0.119446
0.426239 0.856598 0.119446
0.526123 0.856598 0.119446
0.619873 0.856598 0.119446
0.703735 0.856598 0.119446
0.779022 0.856598 0.119446
0.852631 0.855042 0.102966
0.913757 0.853577 0.087433
0.963226 0.852020 0.072662
1.000000 0.850586 0.058624
0.000000 0.912109 0.091553
0.015350 0.912323 0.100494
0.060364 0.912476 0.109833
0.114349 0.912476 0.109833
0.177307 0.912476 0.109833
0.250549 0.912476 0.109833
0.333374 0.912476 0.109833
0.425629 0.912476 0.109833
0.525574 0.912476 0.109833
0.619415 0.912476 0.109833
0.703369 0.912476 0.109833
0.778778 0.912476 0.109833
0.846405 0.912476 0.109833
0.910126 0.911407 0.093933
0.961700 0.910339 0.078857
1.000000 0.909454 0.064392
0.000000 0.960388 0.082703
0.014954 0.960480 0.091553
0.059814 0.960541 0.100494
0.113800 0.960541 0.100494
0.176727 0.960541 0.100494
0.249908 0.960541 0.100494
0.332733 0.960541 0.100494
0.425018 0.960541 0.100494
0.525024 0.960541 0.100494
0.619019 0.960541 0.100494
0.703064 0.960541 0.100494
0.778503 0.960541 0.100494
0.846222 0.960541 0.100494
0.906464 0.960541 0.100494
0.960175 0.960052 0.085052
1.000000 0.959564 0.070374
0.000000 0.998840 0.074127
0.014526 0.998871 0.082703
0.059296 0.998901 0.091553
0.113251 0.998901 0.091553
0.176147 0.998901 0.091553
0.249298 0.998901 0.091553
0.332092 0.998901 0.091553
0.424377 0.998901 0.091553
0.524506 0.998901 0.091553
0.618622 0.998901 0.091553
0.702759 0.998901 0.091553
0.778320 0.998901 0.091553
0.846069 0.998901 0.091553
0.906342 0.998901 0.091553
0.958618 0.998901 0.091553
1.000000 0.998688 0.076569
0.000000 1.000000 0.065918
0.014130 1.000000 0.074127
0.058807 1.000000 0.082703
0.112701 1.000000 0.082703
0.175568 1.000000 0.082703
0.248627 1.000000 0.082703
0.331512 1.000000 0.082703
0.423767 1.000000 0.082703
0.523956 1.000000 0.082703
0.618225 1.000000 0.082703
0.702423 1.000000 0.082703
0.778107 1.000000 0.082703
0.845917 1.000000 0.082703
0.906281 1.000000 0.082703
0.958557 1.000000 0.082703
1.000000 1.000000 0.082703
0.000000 0.000000 0.141632
0.014954 0.000000 0.141632
0.059296 0.000000 0.141632
0.113251 0.000000 0.141632
0.201996 0.000000 0.139954
0.303833 0.000000 0.138245
0.415314 0.000000 0.136566
0.531830 0.000000 0.134705
0.633453 0.000000 0.123901
0.718018 0.000000 0.104736
0.789307 0.000000 0.086487
0.849396 0.000000 0.069397
0.899780 0.000000 0.053192
0.941528 0.000000 0.038361
0.975067 0.000000 0.024841
1.000000 0.000000 0.013245
0.000000 0.026794 0.141632
0.015350 0.027405 0.151398
0.059814 0.027405 0.151398
0.113800 0.027405 0.151398
0.202576 0.023987 0.149597
0.304474 0.020630 0.147827
0.416016 0.017365 0.146088
0.532410 0.014130 0.144348
0.633911 0.010345 0.133026
0.718353 0.005981 0.113312
0.789520 0.001648 0.094757
0.849548 0.000000 0.077179
0.899902 0.000000 0.060486
0.941589 0.000000 0.045044
0.975128 0.000000 0.030853
1.000000 0.000000 0.018311
0.000000 0.095032 0.141632
0.015350 0.095734 0.151398
0.060364 0.096588 0.161591
0.114349 0.096588 0.161591
0.203186 0.092194 0.159760
0.305145 0.087982 0.157928
0.416595 0.083618 0.156097
0.533051 0.079285 0.154327
0.634369 0.074402 0.142578
0.718750 0.068726 0.122284
0.789825 0.063110 0.103058
0.849762 0.057587 0.085022
0.900024 0.052124 0.068024
0.941681 0.046753 0.051941
0.975159 0.041473 0.037170
1.000000 0.036316 0.023834
0.000000 0.170471 0.141632
0.015350 0.171356 0.151398
0.060364 0.171997 0.161591
0.114929 0.172668 0.172089
0.203857 0.168396 0.169952
0.305878 0.164154 0.168091
0.417358 0.159882 0.166229
0.533722 0.155731 0.164398
0.634918 0.150635 0.152313
0.719177 0.144989 0.131348
0.790131 0.139313 0.111755
0.849945 0.133698 0.093262
0.900208 0.128143 0.075653
0.941772 0.122620 0.059204
0.975159 0.117126 0.043854
1.000000 0.111694 0.029755
0.000000 0.253906 0.151398
0.015778 0.254517 0.161591
0.060852 0.255219 0.172089
0.115448 0.256195 0.182678
0.178497 0.256195 0.182678
0.278564 0.251709 0.180725
0.389374 0.247345 0.178802
0.507446 0.242950 0.176941
0.614655 0.237915 0.164398
0.703644 0.232025 0.142578
0.778473 0.226440 0.122284
0.841583 0.220642 0.103027
0.894501 0.215027 0.085022
0.938385 0.209412 0.068024
0.973724 0.203735 0.051941
1.000000 0.198364 0.037170
0.000000 0.345947 0.161591
0.016205 0.346588 0.172089
0.061340 0.347260 0.182678
0.116028 0.347900 0.193787
0.179077 0.347900 0.193787
0.252411 0.347900 0.193787
0.362152 0.343689 0.191711
0.480713 0.339264 0.189606
0.593872 0.334167 0.176941
0.687836 0.328400 0.154327
0.766663 0.322693 0.133026
0.833069 0.316833 0.113312
0.888763 0.311096 0.094757
0.934967 0.305511 0.077179
0.972260 0.299957 0.060486
1.000000 0.294067 0.045044
0.000000 0.445679 0.172089
0.016602 0.446320 0.182678
0.061890 0.446960 0.193787
0.116577 0.447571 0.205017
0.179688 0.447571 0.205017
0.252991 0.447571 0.205017
0.335876 0.447571 0.205017
0.454437 0.443542 0.202911
0.572632 0.438507 0.189606
0.671722 0.432800 0.166199
0.754608 0.427094 0.144348
0.824432 0.421478 0.123901
0.882965 0.415894 0.104736
0.931580 0.410248 0.086487
0.970825 0.404694 0.069397
1.000000 0.399109 0.053192
