Color Lookup Presets Effects/z1 (95).CUBE
#Created by: Adobe Photoshop Export Color Lookup Plugin
#Copyright: (C) Copyright 2014 www.zafizack.com
TITLE "diamoon"
#LUT size
LUT_3D_SIZE 16
#data domain
DOMAIN_MIN 0.0 0.0 0.0
DOMAIN_MAX 1.0 1.0 1.0
#LUT data points
0.102203 0.102203 0.104370
0.102203 0.102203 0.105713
0.102203 0.102203 0.107025
0.106903 0.102203 0.108276
0.127197 0.102203 0.109619
0.172180 0.102203 0.110931
0.237701 0.102478 0.112244
0.328674 0.103821 0.113556
0.436615 0.105164 0.114899
0.547180 0.106537 0.116241
0.653442 0.107788 0.118225
0.748688 0.109039 0.122314
0.829193 0.110321 0.126495
0.900848 0.111542 0.130798
0.976898 0.112823 0.135223
1.000000 0.114075 0.139832
0.102203 0.105103 0.104340
0.102203 0.110016 0.108490
0.102203 0.111115 0.109833
0.107727 0.112244 0.111115
0.129761 0.113342 0.112427
0.175690 0.114471 0.113770
0.242065 0.115601 0.115112
0.333740 0.118317 0.116455
0.441498 0.121979 0.118805
0.551788 0.125916 0.122894
0.657501 0.129974 0.127075
0.751801 0.134125 0.131409
0.831299 0.138489 0.135895
0.902283 0.142670 0.140472
0.977844 0.147217 0.145355
1.000000 0.152100 0.150482
0.102203 0.134460 0.111542
0.102203 0.149567 0.115814
0.106323 0.164154 0.123657
0.117493 0.165192 0.124878
0.148865 0.164734 0.124847
0.191132 0.163635 0.124054
0.251862 0.161835 0.122772
0.339325 0.162476 0.123566
0.448242 0.166748 0.127777
0.558197 0.171509 0.132080
0.662506 0.176239 0.136505
0.755219 0.181335 0.141174
0.833435 0.186920 0.146149
0.903473 0.192261 0.151276
0.978638 0.198395 0.156616
1.000000 0.204651 0.162201
0.111206 0.216522 0.135895
0.125275 0.237305 0.149078
0.145630 0.255493 0.160553
0.166718 0.271118 0.170227
0.197906 0.265778 0.167664
0.240417 0.257935 0.162994
0.299683 0.249268 0.157135
0.379578 0.241516 0.151123
0.470398 0.234619 0.145569
0.564087 0.231689 0.141937
0.666870 0.238159 0.146820
0.757935 0.245117 0.152008
0.834961 0.252808 0.157440
0.904236 0.260864 0.163116
0.978912 0.269104 0.169067
1.000000 0.277466 0.175385
0.102203 0.189148 0.104187
0.102203 0.207977 0.108337
0.102570 0.229126 0.112549
0.112244 0.252899 0.116821
0.138153 0.279541 0.129089
0.186981 0.285919 0.133423
0.257294 0.292450 0.137939
0.352448 0.299164 0.142670
0.461578 0.306732 0.147675
0.568787 0.315094 0.152893
0.670319 0.324188 0.158295
0.759644 0.332947 0.163971
0.835663 0.342865 0.169952
0.904419 0.352448 0.176331
0.978882 0.363312 0.183258
1.000000 0.374207 0.190613
0.102203 0.245392 0.104095
0.102203 0.268921 0.108276
0.105377 0.295044 0.112518
0.115021 0.322937 0.116791
0.147491 0.353699 0.128906
0.191162 0.386658 0.143433
0.262421 0.394440 0.148499
0.357880 0.402527 0.153717
0.466339 0.411926 0.159210
0.571899 0.421295 0.164886
0.671631 0.431305 0.170898
0.760101 0.441681 0.177368
0.835571 0.452881 0.184326
0.904053 0.463379 0.191620
0.978485 0.475006 0.199493
1.000000 0.485840 0.207733
0.102203 0.322174 0.104065
0.102203 0.349854 0.108215
0.108276 0.379272 0.112427
0.123474 0.410339 0.116730
0.157349 0.442749 0.128754
0.203186 0.475922 0.143433
0.266205 0.509155 0.160034
0.361176 0.517029 0.165802
0.468353 0.525391 0.171844
0.572540 0.534729 0.178375
0.671417 0.544464 0.185364
0.759308 0.553589 0.192749
0.834625 0.562988 0.200592
0.903351 0.572388 0.208923
0.978027 0.581909 0.217773
1.000000 0.591309 0.226959
0.102203 0.419922 0.104034
0.102325 0.447357 0.108643
0.110474 0.474762 0.113831
0.126404 0.502716 0.123505
0.157471 0.530853 0.141296
0.201202 0.559357 0.160461
0.261505 0.587646 0.181396
0.340118 0.615204 0.204651
0.444061 0.622467 0.213013
0.549805 0.630188 0.221283
0.652283 0.637970 0.229279
0.745514 0.645691 0.236725
0.826813 0.653534 0.243103
0.899597 0.662323 0.248260
0.976807 0.670776 0.251740
1.000000 0.679535 0.255005
0.102203 0.547607 0.104095
0.104370 0.565643 0.109436
0.111786 0.578644 0.115662
0.132507 0.589722 0.127472
0.195496 0.597290 0.131866
0.251526 0.624420 0.143829
0.309631 0.656433 0.160187
0.378052 0.687683 0.179749
0.464783 0.714264 0.202850
0.577942 0.714966 0.211304
0.686157 0.713379 0.220184
0.775421 0.713074 0.230194
0.844147 0.717377 0.245636
0.899445 0.734436 0.281464
0.975922 0.747864 0.294586
1.000000 0.759247 0.292572
0.102203 0.632324 0.103943
0.104584 0.650482 0.108521
0.112518 0.668030 0.113800
0.131897 0.685486 0.123505
0.162842 0.702850 0.141296
0.205963 0.720276 0.160645
0.264801 0.737396 0.181885
0.341248 0.753906 0.205627
0.436401 0.769562 0.232513
0.542542 0.784698 0.262970
0.646332 0.788971 0.272766
0.741425 0.793213 0.281708
0.824097 0.797394 0.289398
0.897919 0.801941 0.295319
0.975739 0.806519 0.299774
1.000000 0.811157 0.303497
0.102203 0.722809 0.103912
0.105133 0.736664 0.108093
0.113739 0.750214 0.112335
0.138458 0.763367 0.116699
0.172668 0.776123 0.128906
0.218628 0.788422 0.143890
0.279694 0.800568 0.160919
0.358307 0.812286 0.180756
0.455231 0.823639 0.204071
0.560028 0.834717 0.231415
0.660736 0.845428 0.263123
0.751526 0.848389 0.274200
0.829620 0.851379 0.285767
0.900208 0.854340 0.297546
0.976013 0.857178 0.309631
1.000000 0.860199 0.322327
0.102203 0.798370 0.103912
0.105408 0.807800 0.108093
0.113739 0.817047 0.112366
0.137695 0.826172 0.116760
0.171021 0.835052 0.129242
0.215729 0.843872 0.144318
0.275543 0.852570 0.161377
0.353729 0.860992 0.181305
0.450439 0.869354 0.204651
0.555634 0.877563 0.232056
0.657410 0.885620 0.263519
0.749725 0.893433 0.299408
0.828461 0.895691 0.311646
0.899597 0.897949 0.324280
0.975616 0.900208 0.337494
1.000000 0.902527 0.351013
0.102203 0.862762 0.103912
0.105591 0.869598 0.108368
0.114777 0.877777 0.113739
0.144684 0.885803 0.122742
0.183258 0.893372 0.139648
0.234741 0.900146 0.157898
0.300293 0.906403 0.177704
0.380432 0.912048 0.199249
0.472748 0.917023 0.222351
0.568634 0.921783 0.246796
0.661896 0.926331 0.272766
0.748901 0.930908 0.301422
0.827393 0.936646 0.339539
0.898895 0.938477 0.353333
0.975159 0.940216 0.367462
1.000000 0.941956 0.381927
0.102203 0.922241 0.103973
0.104950 0.926453 0.108246
0.112885 0.930786 0.112549
0.134125 0.935059 0.117035
0.165894 0.939392 0.130035
0.208984 0.943726 0.145233
0.267578 0.948059 0.162354
0.344391 0.952515 0.182251
0.440857 0.956940 0.205597
0.547882 0.961487 0.232788
0.651886 0.966034 0.263947
0.745972 0.970703 0.299408
0.826294 0.975525 0.339539
0.898254 0.980377 0.384399
0.974792 0.981842 0.399506
1.000000 0.983276 0.414734
0.102203 0.988678 0.104095
0.104340 0.991577 0.108368
0.112213 0.994629 0.112762
0.131897 0.997803 0.117188
0.163239 1.000000 0.130554
0.205597 1.000000 0.145630
0.263367 1.000000 0.162781
0.339844 1.000000 0.182617
0.436554 1.000000 0.205872
0.544434 1.000000 0.232788
0.649048 1.000000 0.263947
0.744110 1.000000 0.299408
0.825104 1.000000 0.339539
0.897552 1.000000 0.384216
0.974304 1.000000 0.433014
1.000000 1.000000 0.448883
0.102203 1.000000 0.104279
0.103638 1.000000 0.108521
0.111511 1.000000 0.112885
0.129730 1.000000 0.117310
0.160583 1.000000 0.130951
0.202240 1.000000 0.146057
0.259613 1.000000 0.163116
0.335907 1.000000 0.182800
0.432556 1.000000 0.205872
0.540894 1.000000 0.232788
0.646393 1.000000 0.263947
0.742218 1.000000 0.299408
0.823792 1.000000 0.339447
0.896759 1.000000 0.384003
0.973969 1.000000 0.432800
1.000000 1.000000 0.484039
0.102203 0.102203 0.113190
0.102203 0.102203 0.113190
0.102203 0.102203 0.114288
0.106354 0.102203 0.115356
0.125427 0.102203 0.116425
0.169983 0.102203 0.117889
0.234619 0.102203 0.121124
0.324951 0.102844 0.124420
0.432495 0.104218 0.128387
0.543671 0.105530 0.132996
0.650757 0.106812 0.137817
0.746826 0.108093 0.142853
0.828033 0.109375 0.148071
0.900208 0.110657 0.153473
0.976532 0.111877 0.159119
1.000000 0.113098 0.165100
0.102203 0.105133 0.113159
0.102203 0.105255 0.112946
0.102203 0.106354 0.114075
0.108551 0.107544 0.115143
0.132324 0.108673 0.116180
0.178986 0.109833 0.117279
0.246460 0.110962 0.120422
0.339142 0.112030 0.123749
0.447144 0.113220 0.127716
0.556366 0.114532 0.132324
0.661011 0.115753 0.137054
0.753998 0.119415 0.141998
0.832611 0.123383 0.147217
0.903137 0.127441 0.152527
0.978485 0.131592 0.158203
1.000000 0.135895 0.164185
0.102203 0.153748 0.141602
0.107666 0.155579 0.142151
0.114868 0.169159 0.153381
0.140350 0.168671 0.153320
0.171661 0.165985 0.151306
0.214508 0.161957 0.147827
0.274994 0.157410 0.143524
0.357086 0.153107 0.139282
0.453522 0.150299 0.136505
0.562347 0.154602 0.141418
0.665771 0.159058 0.146576
0.757538 0.163788 0.152008
0.834778 0.168335 0.157532
0.904419 0.173523 0.163605
0.979309 0.178711 0.169861
1.000000 0.183960 0.176483
0.102203 0.189362 0.140930
0.110077 0.191467 0.141479
0.121368 0.207306 0.152649
0.142975 0.221924 0.162598
0.174744 0.219696 0.160706
0.218414 0.215302 0.157166
0.280518 0.211121 0.152985
0.364044 0.206573 0.148743
0.460632 0.203796 0.145996
0.568634 0.209625 0.151398
0.670502 0.215454 0.156982
0.760559 0.221954 0.162964
0.836670 0.228424 0.169281
0.905396 0.235199 0.175903
0.979736 0.242462 0.182800
1.000000 0.249817 0.190155
0.102203 0.189423 0.112488
0.102203 0.190094 0.112274
0.103546 0.208954 0.116272
0.113098 0.230194 0.126434
0.141022 0.253937 0.139648
0.190674 0.259766 0.143433
0.262054 0.265656 0.147369
0.358154 0.271667 0.151428
0.467682 0.278839 0.156403
0.574036 0.286407 0.162323
0.674011 0.294006 0.168549
0.762604 0.302704 0.175110
0.837646 0.311005 0.182007
0.905792 0.320618 0.189484
0.979767 0.329803 0.197449
1.000000 0.339844 0.205872
0.102203 0.245667 0.112244
0.102203 0.246490 0.112061
0.106323 0.270020 0.116089
0.117584 0.295959 0.125702
0.150543 0.324249 0.138855
0.195068 0.354980 0.153564
0.267487 0.362366 0.157867
0.364075 0.369843 0.162415
0.472626 0.378235 0.167938
0.577576 0.387970 0.174500
0.676056 0.397247 0.181305
0.763214 0.407410 0.188721
0.837646 0.417786 0.196625
0.905579 0.428894 0.205139
0.979553 0.439362 0.214142
1.000000 0.450989 0.223724
0.102203 0.322601 0.112030
0.102203 0.323456 0.111847
0.109283 0.351105 0.115875
0.126465 0.380615 0.125031
0.160858 0.411804 0.138092
0.207703 0.444336 0.152832
0.271759 0.477509 0.169556
0.368011 0.485474 0.174561
0.475372 0.494019 0.180664
0.578674 0.503479 0.187958
0.676056 0.513031 0.195862
0.762634 0.522675 0.204254
0.836975 0.532471 0.213226
0.904846 0.542328 0.222687
0.979004 0.552094 0.232758
1.000000 0.562012 0.243378
0.102203 0.415985 0.113373
0.103210 0.414734 0.114044
0.110779 0.443085 0.123749
0.127899 0.472656 0.140045
0.161316 0.503479 0.156342
0.210785 0.535248 0.173004
0.278137 0.566284 0.191010
0.363831 0.595886 0.211884
0.470673 0.603546 0.219299
0.572601 0.610992 0.229095
0.667999 0.617554 0.240509
0.753998 0.623474 0.252960
0.829468 0.629486 0.265900
0.899841 0.636719 0.277405
0.976990 0.644592 0.286011
1.000000 0.652893 0.291382
0.102203 0.547943 0.112335
0.105743 0.543060 0.113373
0.112946 0.556213 0.123718
0.134430 0.568451 0.139099
0.197723 0.574707 0.142242
0.258820 0.600433 0.152802
0.320282 0.632324 0.168854
0.392822 0.663635 0.188446
0.484375 0.689362 0.211395
0.590485 0.692291 0.220825
0.693512 0.691742 0.230682
0.779236 0.692322 0.242126
0.844849 0.698364 0.261261
0.900208 0.717316 0.298523
0.977112 0.730988 0.310364
1.000000 0.743164 0.308838
0.102203 0.632843 0.111877
0.105927 0.633636 0.111725
0.114624 0.653046 0.115723
0.141205 0.671509 0.126190
0.175049 0.689209 0.141693
0.220337 0.706635 0.159485
0.280609 0.723724 0.179474
0.358643 0.740387 0.201996
0.454437 0.756500 0.227264
0.559387 0.772186 0.255066
0.661011 0.776794 0.264557
0.752899 0.781464 0.273193
0.831390 0.786194 0.281433
0.901947 0.790771 0.289581
0.977386 0.795135 0.299042
1.000000 0.799103 0.312012
0.102203 0.723083 0.112030
0.106354 0.723785 0.111847
0.114899 0.737701 0.115906
0.142365 0.751190 0.125397
0.177460 0.764343 0.138855
0.224548 0.777130 0.153900
0.286713 0.789581 0.171173
0.366364 0.801575 0.191345
0.463226 0.813232 0.214752
0.566711 0.824615 0.241882
0.665955 0.835571 0.272766
0.755188 0.838654 0.285004
0.831818 0.841705 0.297668
0.901642 0.844696 0.310669
0.976990 0.847748 0.324097
1.000000 0.850677 0.338104
0.102203 0.798615 0.112244
0.106628 0.799103 0.112030
0.114929 0.808563 0.116119
0.141663 0.817871 0.126190
0.175873 0.826843 0.139771
0.221619 0.835938 0.155060
0.282501 0.844696 0.172546
0.361511 0.853333 0.192810
0.458496 0.861755 0.216431
0.562592 0.870056 0.243683
0.662842 0.878235 0.274628
0.753265 0.886078 0.309448
0.830719 0.888428 0.322815
0.901001 0.890717 0.336670
0.976532 0.892975 0.351013
1.000000 0.895233 0.366058
0.102203 0.862946 0.112366
0.106598 0.863342 0.112244
0.114655 0.869659 0.116364
0.142212 0.877075 0.128845
0.178467 0.884308 0.144867
0.227081 0.891205 0.162292
0.290314 0.897552 0.181458
0.369354 0.903351 0.202301
0.463165 0.908752 0.224884
0.562347 0.913818 0.249115
0.659729 0.919006 0.276337
0.751434 0.925018 0.310974
0.829742 0.931030 0.349670
0.900421 0.932800 0.364594
0.976135 0.934601 0.379944
1.000000 0.936310 0.395782
0.102203 0.922394 0.112610
0.106232 0.922699 0.112549
0.114105 0.926941 0.116699
0.137970 0.931244 0.128052
0.170471 0.935547 0.141907
0.214630 0.939850 0.157440
0.274261 0.944183 0.175171
0.351990 0.948547 0.195801
0.448822 0.952972 0.219635
0.554657 0.957336 0.247009
0.657104 0.961761 0.277771
0.749542 0.966431 0.312622
0.828583 0.971100 0.351379
0.899780 0.975800 0.394379
0.975647 0.977173 0.410431
1.000000 0.978516 0.426941
0.102203 0.988739 0.112915
0.105621 0.989075 0.112823
0.113403 0.991974 0.117004
0.135742 0.995087 0.129089
0.167786 0.998322 0.143036
0.211182 1.000000 0.158600
0.270050 1.000000 0.176483
0.347504 1.000000 0.197174
0.444489 1.000000 0.221039
0.551178 1.000000 0.248230
0.654449 1.000000 0.279205
0.747711 1.000000 0.314148
0.827393 1.000000 0.353180
0.899017 1.000000 0.395966
0.975311 1.000000 0.442139
1.000000 1.000000 0.459076
0.102203 1.000000 0.113220
0.104858 1.000000 0.113190
0.112701 1.000000 0.117310
0.133423 1.000000 0.130066
0.164948 1.000000 0.144104
0.207703 1.000000 0.159729
0.266205 1.000000 0.177582
0.343445 1.000000 0.198181
0.440582 1.000000 0.222076
0.547882 1.000000 0.249512
0.651886 1.000000 0.280640
0.745972 1.000000 0.315674
0.826294 1.000000 0.354645
0.898224 1.000000 0.397705
0.974792 1.000000 0.444000
1.000000 1.000000 0.492157
0.102203 0.102203 0.132751
0.102203 0.102203 0.132721
0.102203 0.102203 0.132629
0.105896 0.102203 0.135925
0.123932 0.102203 0.139374
0.168030 0.102203 0.142883
0.232056 0.102203 0.146515
0.321777 0.102203 0.150269
0.428894 0.103210 0.154633
0.540558 0.104553 0.159973
0.648285 0.105896 0.165527
0.745361 0.107147 0.171387
0.827026 0.108429 0.177551
0.899506 0.109680 0.183960
0.976135 0.110962 0.190613
1.000000 0.112213 0.197784
0.102203 0.105133 0.132568
0.102203 0.105255 0.131958
0.102203 0.105469 0.131897
0.108063 0.106598 0.135223
0.130768 0.107788 0.138641
0.176880 0.108917 0.142029
0.243683 0.110077 0.145691
0.335785 0.111206 0.149384
0.443817 0.112396 0.153900
0.553314 0.113678 0.159180
0.658600 0.114899 0.164703
0.752502 0.116699 0.170410
0.831665 0.120636 0.176453
0.902405 0.124725 0.182800
0.978058 0.128815 0.189545
1.000000 0.132996 0.196686
0.108704 0.179169 0.195251
0.120514 0.181732 0.196136
0.143127 0.180206 0.193665
0.169403 0.177887 0.192749
0.201508 0.172546 0.188934
0.244934 0.165283 0.182831
0.304596 0.157349 0.175598
0.384247 0.149750 0.168152
0.474579 0.143494 0.161926
0.567169 0.139557 0.158264
0.669586 0.143768 0.163788
0.759857 0.147736 0.169434
0.836365 0.151978 0.175507
0.905396 0.156403 0.181854
0.979889 0.161072 0.188629
1.000000 0.166077 0.195801
0.102203 0.168945 0.152618
0.102203 0.170502 0.152954
0.110565 0.170074 0.151337
0.124878 0.183655 0.162079
0.157623 0.183167 0.161530
0.202515 0.181763 0.160004
0.266815 0.180298 0.158081
0.357086 0.180511 0.158295
0.466522 0.184998 0.163116
0.573334 0.190002 0.168793
0.674408 0.195648 0.174896
0.762970 0.200592 0.181213
0.838348 0.206512 0.187988
0.906433 0.212219 0.195038
0.980530 0.218781 0.202484
1.000000 0.225800 0.210388
0.102203 0.189728 0.130981
0.102203 0.190399 0.130402
0.104553 0.191071 0.129791
0.114105 0.209991 0.142365
0.144043 0.231201 0.156342
0.194611 0.236328 0.160400
0.267334 0.241943 0.164642
0.364288 0.247101 0.168884
0.473694 0.253143 0.174133
0.579224 0.260345 0.180603
0.678101 0.267242 0.187195
0.765289 0.274628 0.194275
0.839508 0.282532 0.201660
0.906982 0.290771 0.209503
0.980652 0.299866 0.218018
1.000000 0.308716 0.226837
0.102203 0.246094 0.130341
0.102203 0.246918 0.129730
0.107361 0.247650 0.129150
0.120575 0.271210 0.141632
0.153931 0.297180 0.155518
0.199280 0.325562 0.171143
0.272919 0.332367 0.175781
0.370605 0.339447 0.180695
0.479248 0.347260 0.186523
0.583008 0.356049 0.193604
0.680450 0.365051 0.200958
0.766357 0.374420 0.208771
0.839813 0.384796 0.217194
0.906982 0.395050 0.226135
0.980499 0.405518 0.235474
1.000000 0.416412 0.245392
0.102203 0.323059 0.129669
0.102203 0.323975 0.129028
0.110382 0.324860 0.128448
0.129639 0.352509 0.140900
0.164734 0.382080 0.154663
0.212555 0.413391 0.170349
0.277618 0.445923 0.188354
0.375092 0.453766 0.193756
0.482605 0.462372 0.200226
0.584778 0.471832 0.208008
0.680939 0.481628 0.216278
0.765991 0.491425 0.225220
0.839172 0.501251 0.234558
0.906342 0.511780 0.244476
0.979889 0.521759 0.254791
1.000000 0.531372 0.265503
0.102203 0.413574 0.144409
0.103027 0.414673 0.145264
0.112427 0.420074 0.143219
0.139740 0.455750 0.154938
0.184052 0.491364 0.166931
0.244293 0.524780 0.180634
0.321503 0.555725 0.196991
0.414703 0.584961 0.216888
0.521729 0.592560 0.223999
0.615906 0.600159 0.233704
0.701508 0.606873 0.245239
0.776215 0.612579 0.258942
0.842224 0.617035 0.275024
0.905701 0.620392 0.293060
0.978699 0.623444 0.311737
1.000000 0.628113 0.327515
0.102203 0.548431 0.130859
0.105713 0.545471 0.135681
0.114624 0.535614 0.141357
0.136322 0.550354 0.159760
0.191772 0.556274 0.165192
0.266541 0.574982 0.171387
0.335327 0.604492 0.187866
0.415192 0.634216 0.208557
0.509399 0.659943 0.232758
0.608887 0.664642 0.242462
0.703644 0.666718 0.253082
0.783020 0.670105 0.265900
0.841522 0.681976 0.294098
0.900543 0.701935 0.326202
0.978424 0.714691 0.331909
1.000000 0.727051 0.329163
0.102203 0.633179 0.129181
0.105713 0.634003 0.128662
0.117310 0.634857 0.128174
0.146149 0.654388 0.140717
0.183044 0.673370 0.154633
0.232574 0.691833 0.170471
0.297241 0.709900 0.188782
0.379242 0.727325 0.210022
0.476135 0.743988 0.234528
0.577576 0.759979 0.262238
0.674072 0.764526 0.273376
0.760803 0.769043 0.284912
0.835419 0.773529 0.296875
0.903809 0.777893 0.309296
0.978363 0.782043 0.321899
1.000000 0.786194 0.334900
0.102203 0.723389 0.129700
0.106171 0.724091 0.129181
0.118317 0.724884 0.128662
0.146454 0.738800 0.141296
0.182495 0.752411 0.155457
0.230774 0.765594 0.171539
0.294037 0.778320 0.190125
0.374390 0.790710 0.211639
0.471375 0.802673 0.236298
0.573578 0.814301 0.264313
0.671234 0.825500 0.295593
0.758759 0.828705 0.307861
0.834198 0.831848 0.320679
0.903168 0.834991 0.333649
0.977875 0.838013 0.346893
1.000000 0.841156 0.360626
0.102203 0.798798 0.130188
0.106354 0.799377 0.129700
0.118408 0.799988 0.129211
0.145844 0.809418 0.142029
0.180878 0.818756 0.156433
0.227722 0.827881 0.172821
0.289734 0.836823 0.191559
0.369568 0.845612 0.213318
0.466522 0.854187 0.238159
0.569458 0.862579 0.266235
0.667969 0.870789 0.297546
0.756836 0.878845 0.332367
0.833069 0.881012 0.345673
0.902466 0.883331 0.359344
0.977478 0.885712 0.373444
1.000000 0.888000 0.387939
0.102203 0.863098 0.130768
0.106262 0.863556 0.130402
0.117523 0.864044 0.130005
0.144348 0.870422 0.143066
0.178162 0.876801 0.157623
0.224091 0.882996 0.174103
0.285431 0.889252 0.193085
0.364868 0.895386 0.214966
0.461578 0.901489 0.239899
0.565247 0.907562 0.268005
0.665070 0.913544 0.299377
0.755005 0.919525 0.333893
0.832062 0.925446 0.372070
0.901794 0.927185 0.386658
0.977051 0.928986 0.401520
1.000000 0.930786 0.416656
0.102203 0.922455 0.131592
0.105865 0.922852 0.131256
0.115875 0.923218 0.130981
0.141937 0.927460 0.144135
0.175232 0.931793 0.158752
0.220581 0.935974 0.175446
0.281281 0.940308 0.194550
0.359894 0.944672 0.216522
0.456818 0.949005 0.241516
0.561584 0.953308 0.269562
0.662384 0.957672 0.300812
0.753235 0.962158 0.335541
0.830872 0.966766 0.373718
0.901154 0.971436 0.415375
0.976654 0.972809 0.430786
1.000000 0.974213 0.446350
0.102203 0.988831 0.132477
0.105133 0.989197 0.132294
0.114624 0.989380 0.132050
0.139618 0.992432 0.145264
0.172455 0.995483 0.160034
0.216919 0.998596 0.176758
0.276886 1.000000 0.195953
0.355225 1.000000 0.218018
0.452515 1.000000 0.242950
0.558136 1.000000 0.270874
0.659729 1.000000 0.302216
0.751312 1.000000 0.337067
0.829773 1.000000 0.375458
0.900482 1.000000 0.416992
0.976196 1.000000 0.460785
1.000000 1.000000 0.476624
0.102203 1.000000 0.133514
0.104462 1.000000 0.133301
0.113922 1.000000 0.133057
0.137207 1.000000 0.146362
0.169495 1.000000 0.161194
0.213379 1.000000 0.177948
0.273041 1.000000 0.197205
0.351227 1.000000 0.219086
0.448608 1.000000 0.243988
0.554688 1.000000 0.272217
0.657104 1.000000 0.303711
0.749542 1.000000 0.338623
0.828583 1.000000 0.376892
0.899780 1.000000 0.418549
0.975800 1.000000 0.462341
1.000000 1.000000 0.507172
0.102203 0.102203 0.166779
0.102203 0.102203 0.166748
0.102203 0.102203 0.166656
0.105377 0.102203 0.166565
0.122406 0.102203 0.170593
0.166046 0.102203 0.174774
0.229187 0.102203 0.179077
0.318268 0.102203 0.183594
0.425201 0.102264 0.189056
0.537415 0.103546 0.195496
0.646088 0.104889 0.202332
0.743683 0.106201 0.209442
0.825928 0.107452 0.216736
0.898865 0.108734 0.224426
0.975708 0.110046 0.232513
1.000000 0.111267 0.240906
0.102203 0.105103 0.166595
0.102203 0.105225 0.165894
0.102203 0.105469 0.165771
0.107574 0.105713 0.165710
0.129150 0.106873 0.169678
0.174835 0.108063 0.173828
0.240875 0.109192 0.178162
0.332367 0.110321 0.182648
0.439941 0.111511 0.188049
0.550262 0.112793 0.194458
0.656311 0.114075 0.201172
0.750885 0.115326 0.208221
0.830658 0.118042 0.215485
0.901855 0.122009 0.223206
0.977661 0.126068 0.231110
1.000000 0.130280 0.239655
0.130188 0.211090 0.266602
0.155457 0.214630 0.268005
0.179901 0.212158 0.264618
0.201324 0.204559 0.257538
0.232758 0.195587 0.251709
0.274170 0.184479 0.242828
0.330566 0.172180 0.231812
0.405396 0.160400 0.219971
0.489410 0.150574 0.209625
0.575195 0.143433 0.202087
0.667267 0.140991 0.200104
0.758514 0.145081 0.207062
0.835541 0.149323 0.214386
0.904846 0.153656 0.222107
0.979584 0.158203 0.230194
1.000000 0.162964 0.238678
0.102203 0.154388 0.173279
0.102203 0.155762 0.173279
0.104218 0.155548 0.171814
0.114075 0.154358 0.169067
0.146393 0.155396 0.170105
0.194397 0.157104 0.172089
0.266449 0.160675 0.176331
0.363251 0.164276 0.180756
0.472900 0.168488 0.186096
0.578491 0.172729 0.192322
0.677917 0.177338 0.198914
0.765594 0.182373 0.206024
0.839935 0.187225 0.213318
0.907654 0.192657 0.221100
0.981201 0.198273 0.229095
1.000000 0.204132 0.237549
0.102203 0.190308 0.165344
0.102203 0.190735 0.164612
0.104340 0.191376 0.163879
0.115143 0.192017 0.163116
0.147247 0.210876 0.178497
0.198853 0.215515 0.182953
0.272522 0.220245 0.187561
0.370605 0.225098 0.192413
0.480072 0.230530 0.198212
0.584473 0.236908 0.205231
0.682220 0.243408 0.212646
0.768188 0.250092 0.220276
0.841400 0.256805 0.228241
0.908295 0.264191 0.236603
0.981506 0.272339 0.245575
1.000000 0.280579 0.254944
0.102203 0.246552 0.164520
0.102203 0.247314 0.163757
0.107178 0.248077 0.163055
0.123657 0.248810 0.162354
0.157471 0.272339 0.177582
0.203705 0.298431 0.194885
0.278717 0.304810 0.199982
0.377472 0.311584 0.205414
0.486237 0.318817 0.211884
0.588745 0.326538 0.219482
0.684906 0.334991 0.227509
0.769531 0.344116 0.235931
0.841919 0.353302 0.244690
0.908325 0.362854 0.254089
0.981323 0.372864 0.264008
1.000000 0.383270 0.274200
0.102203 0.323486 0.163696
0.102203 0.324371 0.162933
0.110199 0.325317 0.162231
0.132996 0.326172 0.161530
0.168732 0.353912 0.176697
0.217712 0.383606 0.193970
0.283813 0.415039 0.213806
0.382416 0.422821 0.219635
0.489838 0.431122 0.226685
0.590942 0.440460 0.234985
0.685699 0.449921 0.243774
0.769318 0.459656 0.253174
0.841461 0.469757 0.262939
0.907806 0.479950 0.273193
0.980896 0.490112 0.283936
1.000000 0.500488 0.295105
