Color Lookup Presets Effects/z1 (59).CUBE
#Created by: Adobe Photoshop Export Color Lookup Plugin
#Copyright: (C) Copyright 2014 www.zafizack.com
TITLE "Diean"
#LUT size
LUT_3D_SIZE 16
#data domain
DOMAIN_MIN 0.0 0.0 0.0
DOMAIN_MAX 1.0 1.0 1.0
#LUT data points
0.000000 0.000000 0.000000
0.058502 0.007935 0.003693
0.157776 0.019836 0.009277
0.241302 0.028839 0.013489
0.328400 0.037506 0.017609
0.417816 0.045776 0.021515
0.505219 0.053497 0.025208
0.586853 0.060669 0.028625
0.659485 0.067413 0.031860
0.725342 0.073792 0.034943
0.786743 0.079834 0.037872
0.845764 0.085632 0.040680
0.904755 0.091278 0.043427
0.969269 0.096832 0.046143
1.000000 0.099152 0.047241
1.000000 0.099152 0.047241
0.000031 0.013947 0.008240
0.028931 0.024597 0.013641
0.142334 0.037811 0.017731
0.228333 0.043579 0.020477
0.315247 0.048492 0.022827
0.406006 0.052948 0.024933
0.494781 0.056915 0.026855
0.578644 0.061005 0.028778
0.652954 0.066803 0.031586
0.720184 0.073303 0.034698
0.782776 0.079437 0.037689
0.842407 0.085358 0.040527
0.901917 0.091034 0.043304
0.966461 0.096649 0.046051
1.000000 0.099152 0.047241
1.000000 0.099152 0.047241
0.000092 0.079865 0.043732
0.023438 0.083221 0.039581
0.140381 0.132355 0.075958
0.236969 0.144897 0.074677
0.325256 0.151398 0.073151
0.414093 0.150116 0.072510
0.500549 0.146423 0.070648
0.582489 0.140747 0.067841
0.654877 0.133453 0.064178
0.720337 0.124634 0.059814
0.781342 0.114990 0.055023
0.840088 0.105316 0.050262
0.899200 0.097473 0.046448
0.964142 0.096497 0.045959
1.000000 0.099152 0.047241
1.000000 0.099152 0.047241
0.000183 0.139496 0.077484
0.025543 0.143555 0.073242
0.134216 0.181946 0.094818
0.232300 0.225281 0.131317
0.323517 0.233398 0.128357
0.418274 0.239990 0.124908
0.508942 0.243439 0.120758
0.589783 0.236389 0.117004
0.661346 0.226868 0.111969
0.725189 0.214417 0.105469
0.784332 0.199402 0.097656
0.841156 0.181396 0.088379
0.898743 0.160736 0.077881
0.961914 0.138885 0.066895
1.000000 0.115814 0.055450
1.000000 0.099152 0.047241
0.000275 0.199097 0.112427
0.027832 0.204071 0.108093
0.121246 0.224854 0.106293
0.227417 0.275452 0.152100
0.320496 0.314209 0.186371
0.415222 0.319244 0.182098
0.507294 0.322449 0.177338
0.593292 0.323425 0.172028
0.667542 0.321838 0.166199
0.732117 0.316010 0.160248
0.790009 0.304871 0.154053
0.845551 0.293213 0.147614
0.900970 0.280426 0.140625
0.961334 0.266754 0.133240
1.000000 0.248810 0.123596
1.000000 0.226654 0.111877
0.000397 0.265839 0.151794
0.030396 0.272095 0.147522
0.115570 0.284454 0.132996
0.214844 0.324341 0.164856
0.314758 0.370209 0.209076
0.414978 0.410217 0.247742
0.507935 0.414459 0.243927
0.594910 0.416809 0.239777
0.670044 0.416962 0.235291
0.738220 0.422913 0.230225
0.798035 0.425995 0.225616
0.851776 0.421082 0.221100
0.904755 0.413727 0.216675
0.961914 0.406036 0.212067
1.000000 0.395966 0.206116
1.000000 0.382416 0.198151
0.000519 0.343109 0.197052
0.033173 0.350220 0.192505
0.119598 0.364075 0.178467
0.200104 0.384125 0.181793
0.303009 0.427368 0.223755
0.408752 0.473145 0.271454
0.510864 0.513031 0.315735
0.598480 0.517029 0.313019
0.674377 0.519104 0.309906
0.742310 0.525818 0.306061
0.801483 0.529480 0.302856
0.855255 0.529968 0.299622
0.907379 0.530182 0.296417
0.962463 0.530884 0.293488
1.000000 0.528259 0.289185
1.000000 0.517792 0.281921
0.000641 0.424835 0.244965
0.036255 0.433258 0.240356
0.123749 0.448151 0.226501
0.194641 0.459656 0.215668
0.290985 0.492157 0.242279
0.399841 0.534180 0.287048
0.502777 0.575165 0.334503
0.602722 0.612915 0.383942
0.679657 0.617676 0.382599
0.747406 0.625183 0.380463
0.805634 0.629639 0.378906
0.858429 0.632141 0.377747
0.909119 0.633972 0.376373
0.962097 0.636475 0.375549
1.000000 0.635834 0.373108
1.000000 0.629059 0.367767
0.000793 0.510468 0.295288
0.039276 0.519653 0.290253
0.127960 0.534760 0.276245
0.199829 0.546448 0.265198
0.279083 0.562653 0.264374
0.391693 0.599884 0.306030
0.496735 0.635712 0.349854
0.593750 0.670074 0.395691
0.683228 0.701965 0.443298
0.752350 0.711487 0.446289
0.809845 0.716553 0.446198
0.861450 0.720154 0.446503
0.910858 0.723175 0.446655
0.961578 0.726624 0.447266
1.000000 0.727875 0.446747
1.000000 0.723480 0.443207
0.000732 0.594391 0.333374
0.042358 0.603119 0.326782
0.131897 0.617676 0.311737
0.205078 0.628754 0.299591
0.278137 0.639008 0.287476
0.389160 0.669189 0.321472
0.496338 0.700012 0.362915
0.594055 0.729187 0.406036
0.677460 0.755463 0.448090
0.752899 0.779480 0.490875
0.813477 0.788879 0.503357
0.863556 0.792664 0.504425
0.911133 0.796143 0.505554
0.960510 0.800018 0.507141
1.000000 0.801941 0.507599
1.000000 0.799042 0.505188
0.000580 0.674133 0.363586
0.045227 0.683044 0.356415
0.135895 0.696808 0.340881
0.210052 0.707550 0.328430
0.284851 0.717499 0.315887
0.388733 0.738983 0.336609
0.496918 0.764832 0.375946
0.595367 0.788879 0.416870
0.678375 0.810455 0.456390
0.747528 0.829224 0.494080
0.810059 0.845581 0.532715
0.864868 0.855042 0.555420
0.911530 0.858673 0.557220
0.959534 0.862396 0.559326
1.000000 0.864929 0.560791
1.000000 0.862762 0.558929
0.000427 0.752899 0.393433
0.048279 0.761810 0.385559
0.139862 0.775513 0.369965
0.215088 0.785858 0.357208
0.291321 0.795685 0.344360
0.388397 0.810974 0.352661
0.497772 0.831940 0.389984
0.595062 0.850433 0.429230
0.676300 0.866791 0.466248
0.745026 0.881226 0.501343
0.804596 0.894348 0.535339
0.859650 0.906067 0.570526
0.912018 0.915131 0.605133
0.958862 0.918610 0.607666
1.000000 0.921082 0.609680
1.000000 0.919556 0.608337
0.000305 0.834564 0.425018
0.051208 0.843903 0.416748
0.143738 0.857483 0.401001
0.220337 0.868286 0.388336
0.298096 0.878296 0.376160
0.386169 0.889587 0.373474
0.495087 0.905090 0.409241
0.592194 0.919189 0.445221
0.673126 0.931183 0.478943
0.742004 0.941864 0.511139
0.801666 0.951477 0.542267
0.855316 0.960236 0.573486
0.906219 0.968048 0.606781
0.957947 0.973663 0.645813
1.000000 0.976654 0.659821
1.000000 0.975250 0.658539
0.000183 0.930939 0.464569
0.054321 0.941406 0.456146
0.147675 0.957245 0.441803
0.226501 0.970245 0.433990
0.306732 0.983002 0.425812
0.389282 0.995514 0.417114
0.489624 1.000000 0.434906
0.587982 1.000000 0.464935
0.669769 1.000000 0.493774
0.739655 1.000000 0.521973
0.800232 1.000000 0.549774
0.854492 1.000000 0.578217
0.904938 1.000000 0.608521
0.955170 1.000000 0.643799
1.000000 1.000000 0.681580
1.000000 1.000000 0.681580
0.000061 1.000000 0.492310
0.059052 1.000000 0.478638
0.155060 1.000000 0.461395
0.234711 1.000000 0.447083
0.315338 1.000000 0.432587
0.397461 1.000000 0.417847
0.499786 1.000000 0.437805
0.596008 1.000000 0.467590
0.675690 1.000000 0.496002
0.743988 1.000000 0.523834
0.803497 1.000000 0.551392
0.857178 1.000000 0.579712
0.906769 1.000000 0.609711
0.955841 1.000000 0.644318
1.000000 1.000000 0.681580
1.000000 1.000000 0.681580
0.000000 1.000000 0.489258
0.066345 1.000000 0.477325
0.162781 1.000000 0.460022
0.242584 1.000000 0.445679
0.323761 1.000000 0.431091
0.405457 1.000000 0.416412
0.509155 1.000000 0.440521
0.603333 1.000000 0.470062
0.681488 1.000000 0.498260
0.748322 1.000000 0.525726
0.806915 1.000000 0.553101
0.859589 1.000000 0.581085
0.908539 1.000000 0.610840
0.956909 1.000000 0.645142
1.000000 1.000000 0.681580
1.000000 1.000000 0.681580
0.000275 0.000000 0.015228
0.020599 0.001801 0.011139
0.133606 0.017029 0.007965
0.220856 0.026703 0.012512
0.307739 0.035492 0.016632
0.399445 0.044128 0.020752
0.489105 0.052032 0.024506
0.573700 0.059418 0.028046
0.648560 0.066376 0.031372
0.716553 0.072906 0.034515
0.779175 0.079071 0.037476
0.839203 0.084991 0.040375
0.899292 0.090790 0.043182
0.964294 0.096497 0.045959
1.000000 0.099152 0.047241
1.000000 0.099152 0.047241
0.000275 0.014130 0.022491
0.022430 0.016541 0.023010
0.141083 0.035278 0.018707
0.229462 0.043945 0.020660
0.316467 0.048798 0.022949
0.407593 0.053192 0.025055
0.496674 0.057159 0.026947
0.579987 0.061188 0.028900
0.654480 0.066895 0.031616
0.721619 0.073395 0.034760
0.783661 0.079559 0.037720
0.842865 0.085388 0.040558
0.902405 0.091095 0.043335
0.966705 0.096710 0.046051
1.000000 0.099152 0.047241
1.000000 0.099152 0.047241
0.000397 0.080109 0.060181
0.024139 0.083557 0.061218
0.131409 0.120789 0.080261
0.229004 0.133362 0.078461
0.320831 0.142700 0.075775
0.415802 0.150574 0.072754
0.502563 0.146881 0.070892
0.584351 0.141388 0.068146
0.656586 0.133881 0.064392
0.721832 0.125031 0.059998
0.782532 0.115479 0.055267
0.840851 0.105713 0.050476
0.899750 0.097687 0.046539
0.964569 0.096497 0.045959
1.000000 0.099152 0.047241
1.000000 0.099152 0.047241
0.000488 0.139832 0.095612
0.026367 0.143951 0.096741
0.123779 0.169708 0.101440
0.222992 0.213013 0.135864
0.315613 0.221039 0.132355
0.412201 0.228119 0.128265
0.504608 0.232941 0.123444
0.590698 0.234863 0.117706
0.662933 0.227509 0.112305
0.726624 0.215302 0.105896
0.785400 0.199799 0.097870
0.842224 0.181885 0.088654
0.899292 0.161163 0.078094
0.962524 0.139557 0.067230
1.000000 0.116394 0.055725
1.000000 0.099152 0.047241
0.000580 0.199768 0.131805
0.028748 0.204865 0.133057
0.112823 0.215790 0.118164
0.217346 0.263641 0.158691
0.311310 0.302155 0.191040
0.408539 0.307983 0.186157
0.501923 0.311493 0.180542
0.589539 0.313141 0.174591
0.665131 0.312408 0.168427
0.733704 0.316864 0.160828
0.791412 0.306274 0.154816
0.846252 0.294464 0.148315
0.901550 0.281891 0.141418
0.961853 0.268250 0.134033
1.000000 0.250885 0.124695
1.000000 0.228821 0.113007
0.000732 0.266754 0.171997
0.031342 0.272858 0.173340
0.116760 0.285461 0.158997
0.204376 0.313446 0.173218
0.305847 0.359772 0.216034
0.407135 0.399567 0.252472
0.502136 0.404297 0.247772
0.590546 0.407166 0.242859
0.667114 0.408051 0.237976
0.736084 0.414490 0.231812
0.797424 0.420410 0.226563
0.852814 0.422577 0.222015
0.905396 0.414978 0.217438
0.962433 0.407654 0.213043
1.000000 0.397614 0.207092
1.000000 0.383942 0.199036
0.000854 0.343872 0.217621
0.034302 0.351379 0.219238
0.120819 0.365051 0.205048
0.191010 0.375946 0.194275
0.293823 0.418152 0.232574
0.401062 0.463898 0.278412
0.504120 0.503357 0.319885
0.593475 0.508148 0.316559
0.670990 0.510986 0.312897
0.739990 0.518311 0.308075
0.800690 0.524323 0.303864
0.855713 0.529633 0.300446
0.908112 0.531647 0.297485
0.962769 0.532379 0.294617
1.000000 0.529724 0.290314
1.000000 0.519623 0.283112
0.001007 0.425934 0.266205
0.037201 0.434448 0.267853
0.125031 0.449280 0.253998
0.196259 0.460938 0.243347
0.281555 0.484100 0.253235
0.391785 0.526123 0.296021
0.496277 0.567535 0.341553
0.596924 0.604919 0.387909
0.675598 0.610107 0.385620
0.744385 0.618317 0.382507
0.804596 0.625275 0.380188
0.858673 0.631409 0.378510
0.909760 0.635406 0.377472
0.962616 0.637726 0.376495
1.000000 0.637146 0.374146
1.000000 0.630402 0.368835
0.001129 0.511810 0.317169
0.040497 0.520721 0.318542
0.129272 0.536011 0.304657
0.201630 0.547791 0.293732
0.273682 0.558441 0.282745
0.383453 0.593231 0.317200
0.489868 0.629272 0.358887
0.587952 0.663452 0.402374
0.678894 0.695618 0.447479
0.748840 0.705475 0.448456
0.808350 0.712585 0.447357
0.861664 0.719116 0.447083
0.911285 0.724304 0.447540
0.961700 0.727722 0.448120
1.000000 0.728699 0.447449
1.000000 0.724396 0.443939
0.001099 0.595184 0.355316
0.043365 0.604309 0.355621
0.133270 0.618591 0.340424
0.206635 0.629822 0.328461
0.280273 0.640198 0.316437
0.381439 0.663849 0.334167
0.489563 0.694946 0.373291
0.588440 0.724030 0.414063
0.672607 0.750366 0.453735
0.749176 0.774536 0.494049
0.811432 0.785309 0.504333
0.863251 0.791534 0.504974
0.911377 0.797089 0.506317
0.960785 0.800720 0.507721
1.000000 0.802887 0.508392
1.000000 0.799957 0.505951
0.000946 0.675140 0.386383
0.046265 0.683929 0.385803
0.137207 0.697876 0.370361
0.211761 0.708557 0.358002
0.286774 0.718658 0.345642
0.381042 0.735016 0.350677
0.490265 0.760834 0.387543
0.589630 0.785004 0.426056
0.673340 0.806396 0.463165
0.743347 0.825500 0.498474
0.807587 0.842896 0.534607
0.864197 0.854065 0.555969
0.911865 0.859375 0.557831
0.959808 0.863098 0.559906
1.000000 0.865448 0.561249
1.000000 0.863434 0.559540
0.000854 0.753876 0.416962
0.049408 0.762848 0.415710
0.141235 0.776306 0.400024
0.216949 0.786652 0.387299
0.293610 0.796722 0.374634
0.380585 0.808319 0.368164
0.490967 0.829163 0.402924
0.589996 0.848206 0.438751
0.672394 0.864960 0.472900
0.742157 0.879730 0.505768
0.802704 0.893127 0.538025
0.858734 0.905273 0.571594
0.912170 0.915405 0.605499
0.959290 0.919281 0.608246
1.000000 0.921539 0.610107
1.000000 0.920135 0.608826
0.000702 0.835388 0.449005
0.052277 0.844849 0.447418
0.145264 0.858582 0.431732
0.221985 0.869263 0.419037
0.300293 0.879425 0.406250
0.383179 0.889496 0.392670
0.490631 0.904663 0.420410
0.588806 0.918854 0.453308
0.670929 0.931091 0.484772
0.740234 0.941986 0.515045
0.800751 0.951721 0.544983
0.854645 0.960510 0.574982
0.906067 0.968231 0.607361
0.958282 0.974121 0.646057
1.000000 0.977081 0.660217
1.000000 0.975464 0.658722
0.000580 0.931488 0.488342
0.055511 0.942596 0.486969
0.149445 0.958405 0.472198
0.228729 0.971100 0.460083
0.309052 0.984039 0.448334
0.391266 0.997101 0.436462
0.487579 1.000000 0.443573
0.586761 1.000000 0.471069
0.669037 1.000000 0.498108
0.739014 1.000000 0.524811
0.799927 1.000000 0.551605
0.854736 1.000000 0.579407
0.905090 1.000000 0.609039
0.955353 1.000000 0.643951
1.000000 1.000000 0.681580
1.000000 1.000000 0.681580
0.000427 1.000000 0.514465
0.061066 1.000000 0.506378
0.157104 1.000000 0.483643
0.236542 1.000000 0.465424
0.317474 1.000000 0.447327
0.399109 1.000000 0.429443
0.498871 1.000000 0.442963
0.595612 1.000000 0.471008
0.676025 1.000000 0.498291
0.744507 1.000000 0.525177
0.803986 1.000000 0.552063
0.857666 1.000000 0.579987
0.907043 1.000000 0.609894
0.956024 1.000000 0.644470
1.000000 1.000000 0.681580
1.000000 1.000000 0.681580
0.000336 1.000000 0.507507
0.068115 1.000000 0.497742
0.164429 1.000000 0.475037
0.244446 1.000000 0.457031
0.325684 1.000000 0.439514
0.406982 1.000000 0.422272
0.510254 1.000000 0.442963
0.604309 1.000000 0.471191
0.682587 1.000000 0.498688
0.748932 1.000000 0.526001
0.807373 1.000000 0.553314
0.859924 1.000000 0.581299
0.908813 1.000000 0.611023
0.957275 1.000000 0.645416
1.000000 1.000000 0.681580
1.000000 1.000000 0.681580
0.000702 0.000000 0.040100
0.021240 0.001831 0.036133
0.101257 0.008209 0.019897
0.196289 0.020874 0.012482
0.286377 0.033325 0.015625
0.380035 0.042328 0.019897
0.471741 0.050476 0.023773
0.559296 0.058075 0.027374
0.637177 0.065277 0.030853
0.707062 0.071899 0.034027
0.771362 0.078278 0.037109
0.832367 0.084320 0.040039
0.893463 0.090240 0.042908
0.959106 0.096069 0.045746
1.000000 0.099152 0.047241
1.000000 0.099152 0.047241
0.000702 0.014313 0.047852
0.022949 0.016663 0.048706
0.104187 0.023834 0.032593
0.200806 0.035278 0.025330
0.295258 0.049866 0.024506
0.388977 0.055725 0.026276
0.479950 0.059448 0.028046
0.566315 0.062927 0.029724
0.643005 0.066620 0.031494
0.712067 0.072388 0.034271
0.775879 0.078766 0.037354
0.836304 0.084717 0.040222
0.896576 0.090546 0.043060
0.961975 0.096313 0.045868
1.000000 0.099152 0.047241
1.000000 0.099152 0.047241
0.000732 0.080566 0.081146
0.024902 0.084045 0.082275
0.118591 0.105316 0.086853
0.218445 0.118805 0.084076
0.312286 0.129211 0.080658
0.409637 0.138367 0.076508
0.502808 0.145355 0.071838
0.585785 0.142242 0.068573
0.657806 0.134949 0.064911
0.722931 0.126068 0.060516
0.783295 0.116150 0.055603
0.841492 0.106537 0.050873
0.900024 0.098358 0.046875
0.964844 0.096497 0.045959
1.000000 0.099152 0.047241
1.000000 0.099152 0.047241
0.000854 0.140350 0.116974
0.027100 0.144592 0.118164
0.111542 0.155609 0.109863
0.211731 0.198547 0.142181
0.306610 0.207428 0.137726
0.405212 0.215424 0.132782
0.499664 0.220947 0.127075
0.587036 0.223724 0.120697
0.662720 0.223206 0.113525
0.728210 0.215729 0.106140
0.786957 0.200439 0.098206
0.843231 0.182404 0.088898
0.899872 0.161865 0.078461
0.962891 0.139984 0.067444
1.000000 0.116699 0.055878
1.000000 0.099152 0.047241
0.000946 0.200317 0.153503
0.029510 0.205353 0.154785
0.114197 0.216492 0.145630
0.206055 0.250671 0.166992
0.301483 0.289032 0.197327
0.400604 0.295258 0.191254
0.496429 0.299774 0.184906
0.585571 0.302124 0.178223
0.662201 0.302246 0.171478
0.731812 0.307861 0.162964
0.792725 0.307495 0.155487
0.847626 0.295898 0.149078
0.902313 0.283447 0.142273
0.962738 0.270081 0.135010
1.000000 0.252533 0.125580
1.000000 0.231140 0.114227
0.001068 0.267365 0.194122
0.032379 0.273865 0.195801
0.118225 0.286285 0.187256
0.193054 0.301666 0.183563
0.295654 0.347931 0.224426
0.398438 0.387543 0.258453
0.495544 0.393066 0.252930
0.585938 0.396576 0.247162
0.663574 0.397919 0.241425
0.734009 0.405762 0.234314
0.796021 0.412567 0.228241
0.852783 0.418427 0.222900
0.906158 0.416504 0.218353
0.962952 0.409210 0.213989
1.000000 0.399292 0.208069
1.000000 0.385834 0.200134
0.001190 0.344971 0.240509
0.035126 0.352295 0.242310
0.122162 0.366211 0.234497
0.192719 0.377167 0.223816
0.283478 0.407593 0.243347
0.392151 0.453766 0.287140
0.496613 0.493103 0.325928
0.588043 0.498169 0.321503
0.666931 0.501892 0.317017
0.737305 0.510132 0.310944
0.799011 0.517059 0.305878
0.855042 0.523010 0.301575
0.908173 0.528534 0.298126
0.963318 0.533844 0.295715
1.000000 0.531006 0.291321
1.000000 0.521576 0.284393
0.001343 0.427002 0.289764
0.038147 0.435455 0.291748
0.126495 0.450531 0.284607
0.197906 0.462311 0.274139
0.271179 0.474976 0.266754
0.383026 0.517426 0.307404
0.488464 0.558777 0.350433
0.590576 0.595917 0.393585
0.670898 0.601746 0.390259
0.741394 0.610748 0.385620
0.802551 0.618652 0.382324
0.857544 0.625336 0.379669
0.909637 0.631927 0.378174
0.963257 0.638336 0.377380
1.000000 0.638428 0.375183
1.000000 0.631744 0.369873
0.001495 0.512665 0.341370
0.041382 0.521973 0.343597
0.130798 0.537201 0.336761
0.203217 0.548920 0.326050
0.275574 0.559814 0.315460
0.374329 0.585724 0.331451
0.482056 0.621643 0.370544
0.581390 0.656097 0.411530
0.673492 0.688477 0.453339
0.745209 0.698608 0.451782
0.806000 0.706604 0.449524
0.860260 0.713623 0.448212
0.910614 0.720367 0.447998
0.962128 0.727020 0.448639
1.000000 0.729858 0.448364
1.000000 0.725433 0.444794
0.001465 0.596375 0.380005
0.044281 0.605499 0.380890
0.134857 0.619812 0.372742
0.208466 0.631042 0.360931
0.282318 0.641266 0.348938
0.372131 0.657837 0.349609
0.481903 0.688965 0.386261
0.582214 0.718140 0.424469
0.667206 0.744598 0.461578
0.744965 0.768982 0.498871
0.808350 0.780029 0.506653
0.861115 0.786743 0.506104
0.910553 0.793030 0.506531
0.961090 0.799408 0.507996
1.000000 0.803772 0.509125
1.000000 0.800690 0.506561
0.001343 0.675873 0.411255
0.047424 0.685089 0.411316
0.138794 0.698792 0.402588
0.213501 0.709595 0.390472
0.289032 0.719604 0.378052
0.371826 0.730438 0.367340
0.482910 0.756470 0.401794
0.583527 0.780609 0.437622
0.667877 0.802124 0.472107
0.738861 0.821136 0.505096
0.804016 0.838562 0.538452
0.861816 0.850037 0.557068
0.910583 0.855896 0.558044
0.960052 0.861450 0.559875
1.000000 0.865509 0.561554
1.000000 0.864075 0.560089
0.001251 0.754486 0.442261
0.050385 0.763550 0.441589
0.142731 0.777222 0.432587
0.218628 0.787750 0.420105
0.295563 0.797485 0.407379
0.377533 0.807220 0.393860
0.483826 0.826355 0.418488
0.583435 0.845367 0.451477
0.667175 0.862061 0.483246
0.737732 0.876923 0.513794
0.798889 0.890472 0.543762
0.855957 0.902710 0.574890
0.910645 0.912903 0.605652
0.959229 0.917603 0.607727
1.000000 0.921173 0.609924
1.000000 0.920502 0.609161
0.001129 0.836060 0.475006
0.053619 0.845581 0.473785
0.146729 0.859344 0.464722
0.223755 0.870026 0.452179
0.302917 0.880127 0.439240
0.385651 0.890228 0.425812
0.483398 0.903320 0.437378
0.582642 0.917572 0.467682
0.665344 0.929962 0.496613
0.735504 0.940826 0.524689
0.796936 0.950745 0.552521
0.852081 0.959717 0.580627
0.904449 0.967560 0.610474
0.958069 0.973755 0.646240
1.000000 0.976990 0.659485
1.000000 0.975494 0.658447
0.001007 0.932098 0.515045
0.056488 0.943237 0.514008
0.151550 0.959351 0.505737
0.231140 0.972107 0.493713
0.311401 0.984833 0.481903
0.393799 0.998047 0.470184
0.480133 1.000000 0.462372
0.580261 1.000000 0.487183
0.663422 1.000000 0.511688
0.734344 1.000000 0.536011
0.796204 1.000000 0.560547
0.851959 1.000000 0.586029
0.903564 1.000000 0.613434
0.954987 1.000000 0.645569
1.000000 1.000000 0.680206
1.000000 1.000000 0.680695
0.000885 1.000000 0.541626
0.062805 1.000000 0.533875
0.159180 1.000000 0.517303
0.238892 1.000000 0.499176
0.319824 1.000000 0.481140
0.401794 1.000000 0.463531
0.491760 1.000000 0.461884
0.589355 1.000000 0.487122
0.670380 1.000000 0.511749
0.739746 1.000000 0.536194
0.800354 1.000000 0.560822
0.854858 1.000000 0.586334
0.905487 1.000000 0.613739
0.955719 1.000000 0.645844
1.000000 1.000000 0.679962
1.000000 1.000000 0.680359
0.000793 1.000000 0.535278
0.070129 1.000000 0.526154
0.166687 1.000000 0.509369
0.246582 1.000000 0.491669
0.328033 1.000000 0.474365
0.409576 1.000000 0.457275
0.502441 1.000000 0.461639
0.597900 1.000000 0.487152
0.676849 1.000000 0.511841
0.744629 1.000000 0.536346
0.804016 1.000000 0.561035
0.857635 1.000000 0.586639
0.907379 1.000000 0.614166
0.957031 1.000000 0.646484
1.000000 1.000000 0.680084
1.000000 1.000000 0.680115
0.001160 0.000000 0.068024
0.021973 0.001831 0.064056
0.101990 0.008209 0.047668
0.168365 0.012939 0.034546
0.256104 0.018677 0.019409
0.357849 0.038055 0.019592
0.453552 0.048889 0.023010
0.544067 0.056732 0.026733
0.624939 0.064087 0.030273
0.696899 0.070923 0.033569
0.762939 0.077393 0.036682
0.825806 0.083679 0.039734
0.887604 0.089722 0.042664
0.954224 0.095612 0.045532
1.000000 0.099152 0.047241
1.000000 0.099152 0.047241
0.001160 0.014435 0.076172
0.023743 0.016968 0.077240
0.104797 0.024078 0.061035
0.172028 0.029572 0.048248
0.261566 0.033386 0.032379
0.364014 0.049500 0.030548
0.462616 0.062439 0.029480
0.551941 0.065613 0.031006
0.631165 0.068542 0.032410
0.701965 0.071991 0.034088
0.767517 0.077881 0.036926
0.829498 0.084015 0.039886
0.890778 0.089996 0.042786
0.956970 0.095856 0.045654
1.000000 0.099152 0.047241
1.000000 0.099152 0.047241
0.001190 0.080872 0.109985
0.025696 0.084412 0.111267
0.108215 0.093201 0.101074
0.181488 0.106476 0.096588
0.279266 0.118500 0.092255
0.380920 0.129883 0.087494
0.478546 0.139130 0.082367
0.569702 0.145630 0.076569
0.647949 0.147614 0.071259
0.714996 0.139221 0.067078
0.776672 0.129761 0.062347
0.835754 0.119385 0.057220
0.894897 0.109344 0.052246
0.959686 0.101776 0.048523
1.000000 0.099152 0.047241
1.000000 0.099152 0.047241
0.001221 0.140717 0.140717
0.027893 0.144989 0.142029
0.111511 0.154938 0.132660
0.198181 0.182709 0.150818
0.295563 0.192352 0.145142
0.396606 0.201202 0.138977
0.493164 0.207764 0.132324
0.582428 0.211517 0.125000
0.659393 0.212311 0.117279
0.729218 0.217377 0.106995
0.787750 0.202423 0.099213
0.843994 0.184418 0.089935
0.900543 0.164032 0.079559
0.963135 0.142181 0.068542
1.000000 0.118805 0.056915
1.000000 0.099854 0.047607
0.001343 0.200806 0.177734
0.030548 0.206146 0.179321
0.115326 0.217285 0.170563
0.193420 0.235809 0.177765
0.289764 0.273834 0.205688
0.391937 0.281036 0.198425
0.490021 0.286285 0.190887
0.580658 0.289429 0.183105
0.658813 0.290436 0.175537
0.729858 0.297852 0.165802
0.792938 0.304199 0.156708
0.848816 0.297272 0.149841
0.903412 0.285034 0.143127
0.963348 0.271698 0.135895
1.000000 0.254669 0.126709
1.000000 0.233307 0.115356
0.001465 0.268280 0.219177
0.033203 0.274689 0.221161
0.119293 0.287415 0.213379
0.189209 0.297028 0.209015
0.283661 0.334290 0.235657
0.388245 0.373779 0.267059
0.487976 0.379852 0.260040
0.580261 0.384186 0.253143
0.659698 0.386597 0.246613
0.731415 0.395905 0.237762
0.794464 0.403931 0.230438
0.852173 0.410828 0.224243
0.907104 0.417480 0.219269
0.963745 0.410919 0.214996
1.000000 0.400940 0.209045
1.000000 0.387634 0.201202
0.001617 0.345795 0.266388
0.036072 0.353455 0.268890
0.123505 0.367432 0.261993
0.194305 0.378174 0.258423
0.271240 0.395172 0.257660
0.381622 0.441498 0.298981
0.487610 0.480408 0.334351
0.581329 0.486450 0.328735
0.662292 0.491119 0.322968
0.734406 0.500580 0.314911
0.797272 0.508972 0.308655
0.854034 0.515900 0.303345
0.907959 0.522278 0.299133
0.963654 0.528961 0.296112
1.000000 0.531799 0.292328
1.000000 0.523376 0.285614
