Color Lookup Presets Effects/z1 (98).CUBE
#Created by: Adobe Photoshop Export Color Lookup Plugin
#Copyright: (C) Copyright 2015 www.zafizack.com
TITLE "zafizack-VG-Olivia"
#LUT size
LUT_3D_SIZE 6
#data domain
DOMAIN_MIN 0.0 0.0 0.0
DOMAIN_MAX 1.0 1.0 1.0
#LUT data points
0.067780 0.076263 0.096771
0.187317 0.076904 0.096222
0.464478 0.077728 0.095551
0.682404 0.078613 0.094879
0.839111 0.079590 0.094116
0.978882 0.080627 0.093323
0.070374 0.234222 0.095398
0.193481 0.236206 0.094696
0.472198 0.238434 0.093872
0.685577 0.240784 0.093079
0.840546 0.243103 0.092224
0.978882 0.245575 0.091400
0.073761 0.533386 0.093719
0.200897 0.535339 0.092926
0.480682 0.537476 0.092072
0.688965 0.539551 0.091187
0.842072 0.541626 0.090332
0.978882 0.543610 0.089539
0.077148 0.709717 0.092133
0.208099 0.710510 0.091309
0.488312 0.711334 0.090424
0.691864 0.712128 0.089569
0.843292 0.712860 0.088806
0.978882 0.713623 0.088074
0.080322 0.841217 0.090698
0.214722 0.841522 0.089874
0.494934 0.841858 0.089020
0.694275 0.842224 0.088257
0.844330 0.842529 0.087555
0.978882 0.842773 0.086914
0.083313 0.951324 0.089386
0.220734 0.951324 0.088654
0.500610 0.951324 0.087860
0.696289 0.951324 0.087158
0.845123 0.951324 0.086548
0.978882 0.951324 0.086029
0.068298 0.076569 0.298187
0.188538 0.077301 0.297119
0.466064 0.078186 0.295685
0.683075 0.079102 0.294281
0.839417 0.080139 0.292786
0.978882 0.081177 0.291229
0.071136 0.235229 0.295380
0.195038 0.237305 0.293945
0.474060 0.239655 0.292328
0.686310 0.242035 0.290710
0.840881 0.244446 0.289001
0.978882 0.246887 0.287415
0.074615 0.534454 0.292023
0.202759 0.536407 0.290405
0.482697 0.538574 0.288635
0.689728 0.540649 0.286987
0.842377 0.542664 0.285309
0.978882 0.544586 0.283722
0.078094 0.710144 0.288849
0.210083 0.710907 0.287170
0.490417 0.711761 0.285431
0.692596 0.712524 0.283844
0.843597 0.713226 0.282227
0.978882 0.713959 0.280823
0.081299 0.841370 0.286041
0.216736 0.841705 0.284363
0.496948 0.842072 0.282654
0.694977 0.842377 0.281189
0.844604 0.842682 0.279816
0.978882 0.842896 0.278564
0.084259 0.951324 0.283417
0.222687 0.951324 0.281921
0.502289 0.951324 0.280426
0.696899 0.951324 0.279083
0.845367 0.951324 0.277954
0.978882 0.951324 0.276947
0.068695 0.076843 0.530975
0.189484 0.077576 0.530334
0.467285 0.078491 0.529480
0.683594 0.079468 0.528625
0.839661 0.080505 0.527710
0.978882 0.081604 0.526794
0.071655 0.235962 0.529297
0.196289 0.238129 0.528412
0.475494 0.240509 0.527435
0.686920 0.242920 0.526459
0.841125 0.245361 0.525482
0.978882 0.247803 0.524506
0.075287 0.535156 0.527252
0.204163 0.537140 0.526276
0.484283 0.539307 0.525299
0.690277 0.541473 0.524200
0.842651 0.543396 0.523285
0.978882 0.545349 0.522369
0.078766 0.710449 0.525360
0.211517 0.711212 0.524384
0.491882 0.712036 0.523315
0.693176 0.712799 0.522369
0.843811 0.713531 0.521454
0.978882 0.714233 0.520599
0.082031 0.841492 0.523712
0.218170 0.841797 0.522705
0.498260 0.842194 0.521729
0.695465 0.842468 0.520813
0.844818 0.842743 0.520020
0.978882 0.842987 0.519318
0.084961 0.951324 0.522186
0.223999 0.951324 0.521301
0.503540 0.951324 0.520416
0.697357 0.951324 0.519653
0.845520 0.951324 0.518829
0.978882 0.951324 0.518127
0.069092 0.077087 0.689911
0.190399 0.077881 0.689514
0.468445 0.078827 0.689117
0.684021 0.079834 0.688690
0.839874 0.080902 0.688171
0.978882 0.082001 0.687714
0.072205 0.236694 0.688995
0.197449 0.238892 0.688568
0.476837 0.241333 0.688019
0.687408 0.243774 0.687592
0.841400 0.246246 0.687073
0.978882 0.248688 0.686584
0.075897 0.535889 0.687958
0.205475 0.537842 0.687469
0.485657 0.540039 0.686951
0.690796 0.542114 0.686432
0.842865 0.544098 0.685974
0.978882 0.545990 0.685455
0.079437 0.710693 0.687042
0.212891 0.711487 0.686523
0.493225 0.712311 0.686005
0.693634 0.713074 0.685486
0.844055 0.713745 0.685059
0.978882 0.714447 0.684631
0.082672 0.841614 0.686188
0.219574 0.841949 0.685669
0.499512 0.842255 0.685181
0.695923 0.842560 0.684784
0.844971 0.842834 0.684387
0.978882 0.843048 0.684021
0.085602 0.951324 0.685425
0.225281 0.951324 0.684998
0.504639 0.951324 0.684570
0.697693 0.951324 0.684174
0.845642 0.951324 0.683868
0.978882 0.951324 0.683624
0.069519 0.077362 0.834137
0.191467 0.078217 0.834045
0.469696 0.079193 0.833954
0.684570 0.080231 0.833862
0.840118 0.081299 0.833710
0.978882 0.082397 0.833618
0.072723 0.237549 0.833923
0.198700 0.239746 0.833832
0.478241 0.242218 0.833679
0.687958 0.244659 0.833588
0.841644 0.247101 0.833435
0.978882 0.249573 0.833374
0.076538 0.536591 0.833649
0.206879 0.538666 0.833557
0.487091 0.540771 0.833435
0.691345 0.542816 0.833344
0.843109 0.544830 0.833191
0.978882 0.546478 0.833099
0.080170 0.710999 0.833435
0.214355 0.711761 0.833344
0.494598 0.712585 0.833191
0.694122 0.713348 0.833099
0.844269 0.714020 0.832947
0.978882 0.714630 0.832886
0.083374 0.841736 0.833252
0.220917 0.842102 0.833160
0.500793 0.842377 0.833008
0.696350 0.842682 0.832886
0.845154 0.842896 0.832794
0.978882 0.843140 0.832733
0.086304 0.951324 0.833069
0.226563 0.951324 0.832916
0.505798 0.951324 0.832855
0.698059 0.951324 0.832733
0.845795 0.951324 0.832703
0.978882 0.951324 0.832672
0.069702 0.077484 0.883820
0.191803 0.078339 0.883820
0.470215 0.079346 0.883820
0.684753 0.080353 0.883820
0.840210 0.081451 0.883820
0.978882 0.082550 0.883820
0.072968 0.237823 0.883820
0.199127 0.240021 0.883820
0.478790 0.242523 0.883820
0.688171 0.244965 0.883820
0.841705 0.247437 0.883820
0.978882 0.249908 0.883820
0.076782 0.536926 0.883820
0.207397 0.538910 0.883820
0.487640 0.541046 0.883820
0.691589 0.543121 0.883820
0.843170 0.545044 0.883820
0.978882 0.546661 0.883820
0.080383 0.711090 0.883820
0.214874 0.711884 0.883820
0.495056 0.712677 0.883820
0.694305 0.713409 0.883820
0.844360 0.714111 0.883820
0.978882 0.714752 0.883820
0.083679 0.841736 0.883820
0.221436 0.842102 0.883820
0.501190 0.842407 0.883820
0.696503 0.842712 0.883820
0.845245 0.842926 0.883820
0.978882 0.843170 0.883820
0.086517 0.951324 0.883820
0.227020 0.951324 0.883820
0.506165 0.951324 0.883820
0.698212 0.951324 0.883820
0.845856 0.951324 0.883820
0.978882 0.951324 0.883820
