Color Lookup Presets Effects/z1 (1).CUBE
#Created by: Adobe Photoshop Export Color Lookup Plugin
#Copyright: (C) Copyright 2014 www.zafizack.com
TITLE "Bluemaroon"
#LUT size
LUT_3D_SIZE 6
#data domain
DOMAIN_MIN 0.0 0.0 0.0
DOMAIN_MAX 1.0 1.0 1.0
#LUT data points
0.000000 0.000000 0.000000
0.249786 0.064148 0.004944
0.474060 0.112335 0.009003
0.673828 0.141724 0.013397
0.849121 0.150818 0.018402
1.000000 0.138428 0.024353
0.000000 0.117584 0.179749
0.179138 0.209290 0.223846
0.444153 0.228302 0.189362
0.653900 0.230652 0.172638
0.838898 0.226929 0.171387
1.000000 0.289856 0.175903
0.000000 0.198456 0.338074
0.094147 0.288788 0.397003
0.346802 0.410889 0.446564
0.633118 0.445343 0.427032
0.830750 0.461639 0.400513
1.000000 0.511230 0.389069
0.000000 0.248840 0.548492
0.065247 0.381622 0.590454
0.224976 0.503479 0.636292
0.547943 0.627533 0.669861
0.817261 0.694427 0.664368
1.000000 0.736542 0.646057
0.000000 0.379181 0.786438
0.043335 0.511536 0.814087
0.163788 0.627777 0.842346
0.433197 0.731415 0.870941
0.767456 0.847534 0.889771
1.000000 0.928131 0.894714
0.000000 0.502472 1.000000
0.029083 0.622986 1.000000
0.132141 0.726807 1.000000
0.386475 0.809906 1.000000
0.723328 0.907562 1.000000
1.000000 1.000000 1.000000
0.000000 0.000000 0.000000
0.249786 0.064148 0.004944
0.474060 0.112335 0.009003
0.673828 0.141724 0.013397
0.849121 0.150818 0.018402
1.000000 0.138428 0.024353
0.000000 0.117584 0.179749
0.179138 0.209290 0.223846
0.444153 0.228302 0.189362
0.653900 0.230652 0.172638
0.838898 0.226929 0.171387
1.000000 0.289856 0.175903
0.000000 0.198456 0.338074
0.094147 0.288788 0.397003
0.346802 0.410889 0.446564
0.633118 0.445343 0.427032
0.830750 0.461639 0.400513
1.000000 0.511230 0.389069
0.000000 0.248840 0.548492
0.065247 0.381622 0.590454
0.224976 0.503479 0.636292
0.547943 0.627533 0.669861
0.817261 0.694427 0.664368
1.000000 0.736542 0.646057
0.000000 0.379181 0.786438
0.043335 0.511536 0.814087
0.163788 0.627777 0.842346
0.433197 0.731415 0.870941
0.767456 0.847534 0.889771
1.000000 0.928131 0.894714
0.000000 0.502472 1.000000
0.029083 0.622986 1.000000
0.132141 0.726807 1.000000
0.386475 0.809906 1.000000
0.723328 0.907562 1.000000
1.000000 1.000000 1.000000
0.000000 0.000000 0.000000
0.249786 0.064148 0.004944
0.474060 0.112335 0.009003
0.673828 0.141724 0.013397
0.849121 0.150818 0.018402
1.000000 0.138428 0.024353
0.000000 0.117584 0.179749
0.179138 0.209290 0.223846
0.444153 0.228302 0.189362
0.653900 0.230652 0.172638
0.838898 0.226929 0.171387
1.000000 0.289856 0.175903
0.000000 0.198456 0.338074
0.094147 0.288788 0.397003
0.346802 0.410889 0.446564
0.633118 0.445343 0.427032
0.830750 0.461639 0.400513
1.000000 0.511230 0.389069
0.000000 0.248840 0.548492
0.065247 0.381622 0.590454
0.224976 0.503479 0.636292
0.547943 0.627533 0.669861
0.817261 0.694427 0.664368
1.000000 0.736542 0.646057
0.000000 0.379181 0.786438
0.043335 0.511536 0.814087
0.163788 0.627777 0.842346
0.433197 0.731415 0.870941
0.767456 0.847534 0.889771
1.000000 0.928131 0.894714
0.000000 0.502472 1.000000
0.029083 0.622986 1.000000
0.132141 0.726807 1.000000
0.386475 0.809906 1.000000
0.723328 0.907562 1.000000
1.000000 1.000000 1.000000
0.000000 0.000000 0.000000
0.249786 0.064148 0.004944
0.474060 0.112335 0.009003
0.673828 0.141724 0.013397
0.849121 0.150818 0.018402
1.000000 0.138428 0.024353
0.000000 0.117584 0.179749
0.179138 0.209290 0.223846
0.444153 0.228302 0.189362
0.653900 0.230652 0.172638
0.838898 0.226929 0.171387
1.000000 0.289856 0.175903
0.000000 0.198456 0.338074
0.094147 0.288788 0.397003
0.346802 0.410889 0.446564
0.633118 0.445343 0.427032
0.830750 0.461639 0.400513
1.000000 0.511230 0.389069
0.000000 0.248840 0.548492
0.065247 0.381622 0.590454
0.224976 0.503479 0.636292
0.547943 0.627533 0.669861
0.817261 0.694427 0.664368
1.000000 0.736542 0.646057
0.000000 0.379181 0.786438
0.043335 0.511536 0.814087
0.163788 0.627777 0.842346
0.433197 0.731415 0.870941
0.767456 0.847534 0.889771
1.000000 0.928131 0.894714
0.000000 0.502472 1.000000
0.029083 0.622986 1.000000
0.132141 0.726807 1.000000
0.386475 0.809906 1.000000
0.723328 0.907562 1.000000
1.000000 1.000000 1.000000
0.000000 0.000000 0.000000
0.249786 0.064148 0.004944
0.474060 0.112335 0.009003
0.673828 0.141724 0.013397
0.849121 0.150818 0.018402
1.000000 0.138428 0.024353
0.000000 0.117584 0.179749
0.179138 0.209290 0.223846
0.444153 0.228302 0.189362
0.653900 0.230652 0.172638
0.838898 0.226929 0.171387
1.000000 0.289856 0.175903
0.000000 0.198456 0.338074
0.094147 0.288788 0.397003
0.346802 0.410889 0.446564
0.633118 0.445343 0.427032
0.830750 0.461639 0.400513
1.000000 0.511230 0.389069
0.000000 0.248840 0.548492
0.065247 0.381622 0.590454
0.224976 0.503479 0.636292
0.547943 0.627533 0.669861
0.817261 0.694427 0.664368
1.000000 0.736542 0.646057
0.000000 0.379181 0.786438
0.043335 0.511536 0.814087
0.163788 0.627777 0.842346
0.433197 0.731415 0.870941
0.767456 0.847534 0.889771
1.000000 0.928131 0.894714
0.000000 0.502472 1.000000
0.029083 0.622986 1.000000
0.132141 0.726807 1.000000
0.386475 0.809906 1.000000
0.723328 0.907562 1.000000
1.000000 1.000000 1.000000
0.000000 0.000000 0.000000
0.249786 0.064148 0.004944
0.474060 0.112335 0.009003
0.673828 0.141724 0.013397
0.849121 0.150818 0.018402
1.000000 0.138428 0.024353
0.000000 0.117584 0.179749
0.179138 0.209290 0.223846
0.444153 0.228302 0.189362
0.653900 0.230652 0.172638
0.838898 0.226929 0.171387
1.000000 0.289856 0.175903
0.000000 0.198456 0.338074
0.094147 0.288788 0.397003
0.346802 0.410889 0.446564
0.633118 0.445343 0.427032
0.830750 0.461639 0.400513
1.000000 0.511230 0.389069
0.000000 0.248840 0.548492
0.065247 0.381622 0.590454
0.224976 0.503479 0.636292
0.547943 0.627533 0.669861
0.817261 0.694427 0.664368
1.000000 0.736542 0.646057
0.000000 0.379181 0.786438
0.043335 0.511536 0.814087
0.163788 0.627777 0.842346
0.433197 0.731415 0.870941
0.767456 0.847534 0.889771
1.000000 0.928131 0.894714
0.000000 0.502472 1.000000
0.029083 0.622986 1.000000
0.132141 0.726807 1.000000
0.386475 0.809906 1.000000
0.723328 0.907562 1.000000
1.000000 1.000000 1.000000
