Color Lookup Presets Effects/z1 (62).CUBE
#Created by: Adobe Photoshop Export Color Lookup Plugin
#Copyright: (C) Copyright 2014 www.zafizack.com
TITLE "GBP_1135.psd"
#LUT size
LUT_3D_SIZE 16
#data domain
DOMAIN_MIN 0.0 0.0 0.0
DOMAIN_MAX 1.0 1.0 1.0
#LUT data points
0.024902 0.023071 0.023071
0.024902 0.023071 0.023071
0.024902 0.023071 0.023071
0.135986 0.023071 0.023071
0.300110 0.023071 0.023071
0.470978 0.023071 0.023071
0.636169 0.023071 0.023071
0.795288 0.023071 0.023071
0.944336 0.023071 0.023071
1.000000 0.023071 0.023071
1.000000 0.023071 0.023071
1.000000 0.023071 0.023071
1.000000 0.023071 0.023071
1.000000 0.023071 0.023071
1.000000 0.023071 0.023071
1.000000 0.023071 0.023071
0.024902 0.023071 0.023071
0.024902 0.023071 0.023071
0.024902 0.023071 0.023071
0.135986 0.023071 0.023071
0.300110 0.023071 0.023071
0.470978 0.023071 0.023071
0.636169 0.023071 0.023071
0.795288 0.023071 0.023071
0.944336 0.023071 0.023071
1.000000 0.023071 0.023071
1.000000 0.023071 0.023071
1.000000 0.023071 0.023071
1.000000 0.023071 0.023071
1.000000 0.023071 0.023071
1.000000 0.023071 0.023071
1.000000 0.023071 0.023071
0.024902 0.023071 0.023071
0.024902 0.023071 0.023071
0.024902 0.023071 0.023071
0.135986 0.023071 0.023071
0.296478 0.028839 0.023071
0.462524 0.036499 0.023071
0.622803 0.044281 0.023071
0.776917 0.052246 0.023071
0.920868 0.060364 0.023071
1.000000 0.068756 0.023071
1.000000 0.063385 0.023071
1.000000 0.051697 0.023071
1.000000 0.040527 0.023071
1.000000 0.029510 0.023071
1.000000 0.023071 0.023071
1.000000 0.023071 0.023071
0.000061 0.062500 0.023071
0.000061 0.062500 0.023071
0.000061 0.062500 0.023071
0.045837 0.065063 0.023071
0.243774 0.112518 0.023071
0.408447 0.122345 0.023071
0.567719 0.131744 0.023071
0.720673 0.141510 0.023071
0.863525 0.151398 0.023071
0.990936 0.161530 0.023071
1.000000 0.171631 0.023071
1.000000 0.182068 0.023071
1.000000 0.192474 0.023071
1.000000 0.203156 0.029022
1.000000 0.213776 0.044525
1.000000 0.198395 0.044525
0.000000 0.148102 0.023071
0.000000 0.148102 0.023071
0.000000 0.148102 0.023071
0.000000 0.148102 0.023071
0.125763 0.152161 0.023071
0.345215 0.222748 0.023071
0.502075 0.235962 0.023071
0.654175 0.247070 0.023071
0.796326 0.258057 0.023071
0.923096 0.269226 0.023071
1.000000 0.280426 0.023071
1.000000 0.291534 0.023071
1.000000 0.302612 0.023071
1.000000 0.313812 0.023071
1.000000 0.324951 0.023712
1.000000 0.336151 0.038696
0.000000 0.247986 0.023071
0.000000 0.247986 0.023071
0.000000 0.247986 0.023071
0.000000 0.247986 0.023071
0.035339 0.247986 0.023071
0.206879 0.253632 0.023071
0.434357 0.343445 0.023071
0.584076 0.358368 0.023071
0.726044 0.369659 0.023071
0.852966 0.380585 0.023071
0.966034 0.391571 0.023071
1.000000 0.402527 0.023071
1.000000 0.413605 0.023071
1.000000 0.424530 0.023071
1.000000 0.435425 0.023071
1.000000 0.446259 0.023071
0.000000 0.352875 0.023071
0.000000 0.352875 0.023071
0.000000 0.352875 0.023071
0.000000 0.352875 0.023071
0.000000 0.352875 0.023071
0.111298 0.352875 0.023071
0.286713 0.359711 0.023071
0.518402 0.462646 0.023071
0.657715 0.478119 0.023071
0.784119 0.489868 0.023071
0.897339 0.500610 0.023071
1.000000 0.511292 0.023071
1.000000 0.521698 0.023071
1.000000 0.531952 0.023071
1.000000 0.542236 0.023071
1.000000 0.552429 0.023071
0.000000 0.456482 0.023071
0.000000 0.456482 0.023071
0.000000 0.456482 0.023071
0.000000 0.456482 0.023071
0.000000 0.456482 0.023071
0.020660 0.456482 0.023071
0.191498 0.456482 0.023071
0.362518 0.464264 0.023071
0.586060 0.563782 0.023071
0.721680 0.589020 0.023071
0.834503 0.600403 0.023071
0.938782 0.609589 0.023071
1.000000 0.618713 0.023071
1.000000 0.627686 0.023071
1.000000 0.636292 0.023071
1.000000 0.645142 0.023071
0.000000 0.555695 0.023071
0.000000 0.555695 0.023071
0.000000 0.555695 0.023071
0.000000 0.555695 0.023071
0.000000 0.555695 0.023071
0.000000 0.555695 0.023071
0.103729 0.555695 0.023071
0.270447 0.555695 0.023071
0.436890 0.563782 0.023071
0.648956 0.650818 0.023071
0.782288 0.683289 0.023071
0.885498 0.694183 0.023071
0.985718 0.702087 0.023071
1.000000 0.709747 0.023071
1.000000 0.717316 0.023071
1.000000 0.724670 0.023071
0.000000 0.642975 0.023071
0.000000 0.642975 0.023071
0.000000 0.642975 0.023071
0.000000 0.642975 0.023071
0.000000 0.642975 0.023071
0.000000 0.642975 0.023071
0.023468 0.642975 0.023071
0.191101 0.642975 0.023071
0.352020 0.642975 0.023071
0.512909 0.650818 0.023071
0.708344 0.726166 0.023071
0.841675 0.763763 0.023071
0.940643 0.773621 0.023071
1.000000 0.781311 0.023071
1.000000 0.787964 0.023071
1.000000 0.794678 0.023071
0.000000 0.718536 0.023071
0.000000 0.718536 0.023071
0.000000 0.718536 0.023071
0.000000 0.718536 0.023071
0.000000 0.718536 0.023071
0.000000 0.718536 0.023071
0.000000 0.718536 0.023071
0.119049 0.718536 0.023071
0.280823 0.718536 0.023071
0.436676 0.718536 0.023071
0.584656 0.726166 0.023071
0.764648 0.792694 0.023071
0.901978 0.834991 0.023071
1.000000 0.843842 0.023071
1.000000 0.851654 0.023071
1.000000 0.857941 0.023071
0.000000 0.785187 0.023071
0.000000 0.785187 0.023071
0.000000 0.785187 0.023071
0.000000 0.785187 0.023071
0.000000 0.785187 0.023071
0.000000 0.785187 0.023071
0.000000 0.785187 0.023071
0.052734 0.785187 0.023071
0.215271 0.785187 0.023071
0.372375 0.785187 0.023071
0.515381 0.785187 0.023071
0.651215 0.792694 0.023071
0.819275 0.853180 0.023071
0.968201 0.901367 0.023071
1.000000 0.910065 0.023071
1.000000 0.918915 0.023071
0.000000 0.845551 0.023071
0.000000 0.845551 0.023071
0.000000 0.845551 0.023071
0.000000 0.845551 0.023071
0.000000 0.845551 0.023071
0.000000 0.845551 0.023071
0.000000 0.845551 0.023071
0.000000 0.845551 0.023071
0.153412 0.845551 0.023071
0.311432 0.845551 0.023071
0.456818 0.845551 0.023071
0.587799 0.845551 0.023071
0.712433 0.853180 0.023071
0.873077 0.911163 0.023071
1.000000 0.970612 0.023071
1.000000 0.980988 0.023071
0.000000 0.903107 0.023071
0.000000 0.903107 0.023071
0.000000 0.903107 0.023071
0.000000 0.903107 0.023071
0.000000 0.903107 0.023071
0.000000 0.903107 0.023071
0.000000 0.903107 0.023071
0.000000 0.903107 0.023071
0.093506 0.903107 0.023071
0.252625 0.903107 0.023071
0.400177 0.903107 0.023071
0.532745 0.903107 0.023071
0.652039 0.903107 0.023071
0.769104 0.911163 0.023071
0.927765 0.972595 0.023071
1.000000 1.000000 0.023071
0.000000 0.962769 0.023071
0.000000 0.962769 0.023071
0.000000 0.962769 0.023071
0.000000 0.962769 0.023071
0.000000 0.962769 0.023071
0.000000 0.962769 0.023071
0.000000 0.962769 0.023071
0.000000 0.962769 0.023071
0.031952 0.962769 0.023071
0.191589 0.962769 0.023071
0.341888 0.962769 0.023071
0.476440 0.962769 0.023071
0.597534 0.962769 0.023071
0.708282 0.962769 0.023071
0.820679 0.972595 0.023071
1.000000 1.000000 0.023071
0.000000 1.000000 0.023071
0.000000 1.000000 0.023071
0.000000 1.000000 0.023071
0.000000 1.000000 0.023071
0.000000 1.000000 0.023071
0.000000 1.000000 0.023071
0.000000 1.000000 0.023071
0.000000 1.000000 0.023071
0.000000 1.000000 0.023071
0.144470 1.000000 0.023071
0.296936 1.000000 0.023071
0.433868 1.000000 0.023071
0.556732 1.000000 0.023071
0.668610 1.000000 0.023071
0.774445 1.000000 0.023071
0.896088 1.000000 0.023071
0.024902 0.023071 0.023071
0.024902 0.023071 0.023071
0.024902 0.023071 0.023071
0.135986 0.023071 0.023071
0.300110 0.023071 0.023071
0.470978 0.023071 0.023071
0.636169 0.023071 0.023071
0.795288 0.023071 0.023071
0.944336 0.023071 0.023071
1.000000 0.023071 0.023071
1.000000 0.023071 0.026978
1.000000 0.023071 0.034485
1.000000 0.023071 0.042236
1.000000 0.023071 0.050659
1.000000 0.023071 0.059570
1.000000 0.023071 0.069000
0.024902 0.023071 0.023071
0.024902 0.023071 0.023071
0.024902 0.023071 0.023071
0.135986 0.023071 0.023071
0.300110 0.023071 0.023071
0.470978 0.023071 0.023071
0.636169 0.023071 0.023071
0.795288 0.023071 0.023071
0.944336 0.023071 0.023071
1.000000 0.023071 0.023071
1.000000 0.023071 0.023071
1.000000 0.023071 0.023071
1.000000 0.023071 0.028931
1.000000 0.023071 0.036407
1.000000 0.023071 0.044525
1.000000 0.023071 0.052826
0.024902 0.023071 0.023071
0.024902 0.023071 0.023071
0.024902 0.023071 0.023071
0.135986 0.023071 0.023071
0.298096 0.026276 0.023071
0.464233 0.033813 0.023071
0.624512 0.041565 0.023071
0.789856 0.031677 0.023071
0.944336 0.023071 0.023071
1.000000 0.023071 0.023071
1.000000 0.023071 0.023071
1.000000 0.023071 0.023071
1.000000 0.023071 0.023071
1.000000 0.023071 0.023499
1.000000 0.023071 0.030792
1.000000 0.023071 0.038391
0.000000 0.072876 0.023071
0.000000 0.072876 0.023071
0.000000 0.072876 0.023071
0.051422 0.072876 0.023071
0.245544 0.109711 0.023071
0.410583 0.118988 0.023071
0.569763 0.128479 0.023071
0.722839 0.138062 0.023071
0.865753 0.147858 0.023071
0.993317 0.157928 0.024689
1.000000 0.167999 0.039764
1.000000 0.171448 0.051819
1.000000 0.156952 0.051819
1.000000 0.142761 0.051819
1.000000 0.128906 0.051819
1.000000 0.115448 0.051819
0.000000 0.160492 0.023071
0.000000 0.160492 0.023071
0.000000 0.160492 0.023071
0.000000 0.160492 0.023071
0.127838 0.160492 0.023071
0.346222 0.221130 0.023071
0.504456 0.232178 0.023071
0.656677 0.243134 0.023071
0.798706 0.254272 0.023071
0.925537 0.265350 0.023071
1.000000 0.276489 0.023071
1.000000 0.287628 0.034088
1.000000 0.298737 0.050293
1.000000 0.310028 0.068451
1.000000 0.321045 0.088806
1.000000 0.332153 0.111694
0.000000 0.261688 0.023071
0.000000 0.261688 0.023071
0.000000 0.261688 0.023071
0.000000 0.261688 0.023071
0.029907 0.261688 0.023071
0.205109 0.261688 0.023071
0.434296 0.343536 0.023071
0.586487 0.354553 0.023071
0.728577 0.365631 0.023071
0.855469 0.376617 0.023071
0.968475 0.387665 0.023071
1.000000 0.398743 0.023071
1.000000 0.409698 0.028595
1.000000 0.420776 0.044159
1.000000 0.431549 0.061523
1.000000 0.442749 0.081146
0.000000 0.366638 0.023071
0.000000 0.366638 0.023071
0.000000 0.366638 0.023071
0.000000 0.366638 0.023071
0.000000 0.366638 0.023071
0.103119 0.366638 0.023071
0.281189 0.366638 0.023071
0.517181 0.464264 0.023071
0.659607 0.475128 0.023071
0.786530 0.486023 0.023071
0.899780 0.496735 0.023071
1.000000 0.507538 0.023071
1.000000 0.518005 0.023071
1.000000 0.528381 0.023346
1.000000 0.538788 0.038269
1.000000 0.548706 0.054993
0.000000 0.469910 0.023071
0.000000 0.469910 0.023071
0.000000 0.469910 0.023071
0.000000 0.469910 0.023071
0.000000 0.469910 0.023071
0.008942 0.469910 0.023071
0.181030 0.469910 0.023071
0.353668 0.469910 0.023071
0.581360 0.563782 0.023071
0.722382 0.587891 0.023071
0.836395 0.597382 0.023071
0.940735 0.606476 0.023071
1.000000 0.615631 0.023071
1.000000 0.624512 0.023071
1.000000 0.633453 0.023071
1.000000 0.641998 0.032623
0.000000 0.567871 0.023071
0.000000 0.567871 0.023071
0.000000 0.567871 0.023071
0.000000 0.567871 0.023071
0.000000 0.567871 0.023071
0.000000 0.567871 0.023071
0.092712 0.567871 0.023071
0.259766 0.567871 0.023071
0.425354 0.567871 0.023071
0.642548 0.650818 0.023071
0.782104 0.683563 0.023071
0.887146 0.691559 0.023071
0.987488 0.699249 0.023071
1.000000 0.707001 0.023071
1.000000 0.714569 0.023071
1.000000 0.722198 0.023071
0.000000 0.653503 0.023071
0.000000 0.653503 0.023071
0.000000 0.653503 0.023071
0.000000 0.653503 0.023071
0.000000 0.653503 0.023071
0.000000 0.653503 0.023071
0.013336 0.653503 0.023071
0.181427 0.653503 0.023071
0.342255 0.653503 0.023071
0.499359 0.653503 0.023071
0.700378 0.726166 0.023071
0.840759 0.765228 0.023071
0.941589 0.772125 0.023071
1.000000 0.778809 0.023071
1.000000 0.785583 0.023071
1.000000 0.792267 0.023071
0.000000 0.727783 0.023071
0.000000 0.727783 0.023071
0.000000 0.727783 0.023071
0.000000 0.727783 0.023071
0.000000 0.727783 0.023071
0.000000 0.727783 0.023071
0.000000 0.727783 0.023071
0.110260 0.727783 0.023071
0.271973 0.727783 0.023071
0.427704 0.727783 0.023071
0.569214 0.727783 0.023071
0.755737 0.792694 0.023071
0.900696 0.837067 0.023071
1.000000 0.843445 0.023071
1.000000 0.849640 0.023071
1.000000 0.855682 0.023071
0.000000 0.793457 0.023071
0.000000 0.793457 0.023071
0.000000 0.793457 0.023071
0.000000 0.793457 0.023071
0.000000 0.793457 0.023071
0.000000 0.793457 0.023071
0.000000 0.793457 0.023071
0.044342 0.793457 0.023071
0.207214 0.793457 0.023071
0.364258 0.793457 0.023071
0.507629 0.793457 0.023071
0.636383 0.793457 0.023071
0.808624 0.853180 0.023071
0.966278 0.904449 0.023071
1.000000 0.910492 0.023071
1.000000 0.916626 0.023071
0.000000 0.853210 0.023071
0.000000 0.853210 0.023071
0.000000 0.853210 0.023071
0.000000 0.853210 0.023071
0.000000 0.853210 0.023071
0.000000 0.853210 0.023071
0.000000 0.853210 0.023071
0.000000 0.853210 0.023071
0.145508 0.853210 0.023071
0.303925 0.853210 0.023071
0.449463 0.853210 0.023071
0.580292 0.853210 0.023071
0.698120 0.853210 0.023071
0.860809 0.911163 0.023071
1.000000 0.972595 0.023071
1.000000 0.982544 0.023071
0.000000 0.910614 0.023071
0.000000 0.910614 0.023071
0.000000 0.910614 0.023071
0.000000 0.910614 0.023071
0.000000 0.910614 0.023071
0.000000 0.910614 0.023071
0.000000 0.910614 0.023071
0.000000 0.910614 0.023071
0.085419 0.910614 0.023071
0.244629 0.910614 0.023071
0.392700 0.910614 0.023071
0.525604 0.910614 0.023071
0.645233 0.910614 0.023071
0.755371 0.911163 0.023071
0.913025 0.972595 0.023071
1.000000 1.000000 0.023071
0.000000 0.971252 0.023071
0.000000 0.971252 0.023071
0.000000 0.971252 0.023071
0.000000 0.971252 0.023071
0.000000 0.971252 0.023071
0.000000 0.971252 0.023071
0.000000 0.971252 0.023071
0.000000 0.971252 0.023071
0.023468 0.971252 0.023071
0.183014 0.971252 0.023071
0.333496 0.971252 0.023071
0.468811 0.971252 0.023071
0.589996 0.971252 0.023071
0.700775 0.971252 0.023071
0.807220 0.972595 0.023071
1.000000 1.000000 0.023071
0.000000 1.000000 0.023071
0.000000 1.000000 0.023071
0.000000 1.000000 0.023071
0.000000 1.000000 0.023071
0.000000 1.000000 0.023071
0.000000 1.000000 0.023071
0.000000 1.000000 0.023071
0.000000 1.000000 0.023071
0.000000 1.000000 0.023071
0.141693 1.000000 0.023071
0.294006 1.000000 0.023071
0.431519 1.000000 0.023071
0.554810 1.000000 0.023071
0.666595 1.000000 0.023071
0.772644 1.000000 0.023071
0.881531 1.000000 0.023071
0.024902 0.023071 0.023071
0.024902 0.023071 0.023071
0.044128 0.023071 0.036499
0.155487 0.023071 0.036011
0.301178 0.023071 0.038544
0.472626 0.023071 0.046692
0.638397 0.023071 0.055267
0.798157 0.023071 0.064423
0.947876 0.023071 0.074097
1.000000 0.023071 0.084381
1.000000 0.023071 0.095245
1.000000 0.023071 0.106628
1.000000 0.023071 0.118805
1.000000 0.023071 0.131653
1.000000 0.023071 0.145111
1.000000 0.023071 0.159454
0.024902 0.023071 0.023071
0.024902 0.023071 0.023071
0.024902 0.023071 0.023071
0.135986 0.023071 0.023071
0.300262 0.023071 0.025421
0.471649 0.023071 0.032837
0.637390 0.023071 0.040619
0.797058 0.023071 0.048889
0.946747 0.023071 0.057617
1.000000 0.023071 0.066895
1.000000 0.023071 0.076782
1.000000 0.023071 0.087128
1.000000 0.023071 0.098022
1.000000 0.023071 0.109741
1.000000 0.023071 0.121918
1.000000 0.023071 0.134918
0.024902 0.023071 0.023071
0.024902 0.023071 0.023071
0.024902 0.023071 0.023071
0.135986 0.023071 0.023071
0.300110 0.023071 0.023071
0.470978 0.023071 0.023071
0.636444 0.023071 0.027313
0.796082 0.023071 0.034790
0.945709 0.023071 0.042694
1.000000 0.023071 0.051117
1.000000 0.023071 0.059967
1.000000 0.023071 0.069397
1.000000 0.023071 0.079346
1.000000 0.023071 0.089813
1.000000 0.023071 0.101105
1.000000 0.023071 0.112701
0.000000 0.083496 0.023071
0.000000 0.083496 0.023071
0.000000 0.083496 0.023071
0.066895 0.083496 0.023071
0.247528 0.106567 0.023071
0.412598 0.115753 0.023071
0.572723 0.125122 0.035065
0.726898 0.134766 0.051392
0.878418 0.131744 0.059509
1.000000 0.118134 0.059509
1.000000 0.105103 0.059509
1.000000 0.092194 0.059509
1.000000 0.083496 0.062256
1.000000 0.083496 0.071869
1.000000 0.083496 0.082031
1.000000 0.083496 0.092590
0.000000 0.173157 0.023071
0.000000 0.173157 0.023071
0.000000 0.173157 0.023071
0.000000 0.173157 0.023071
0.144165 0.173157 0.023071
0.348572 0.217407 0.023071
0.506897 0.228302 0.023071
0.659515 0.239319 0.029541
0.802673 0.250427 0.045197
0.930664 0.261566 0.062775
1.000000 0.272614 0.082428
1.000000 0.283844 0.104523
1.000000 0.294861 0.129272
1.000000 0.282257 0.132538
1.000000 0.266571 0.132538
1.000000 0.250702 0.132538
0.000000 0.275513 0.023071
0.000000 0.275513 0.023071
0.000000 0.275513 0.023071
0.000000 0.275513 0.023071
0.045074 0.275513 0.023071
0.221497 0.275513 0.023071
0.436768 0.339630 0.023071
0.588898 0.350708 0.023071
0.731079 0.361786 0.024231
0.858856 0.373016 0.039276
0.973083 0.384003 0.056122
1.000000 0.394928 0.075012
1.000000 0.406006 0.096130
1.000000 0.416931 0.119904
1.000000 0.427948 0.146423
1.000000 0.438904 0.175964
0.000000 0.380310 0.023071
0.000000 0.380310 0.023071
0.000000 0.380310 0.023071
0.000000 0.380310 0.023071
0.000000 0.380310 0.023071
0.119507 0.380310 0.023071
0.297058 0.380310 0.023071
0.519684 0.460632 0.023071
0.661896 0.471497 0.023071
0.788879 0.482300 0.023071
0.902832 0.493073 0.033569
1.000000 0.503876 0.049774
1.000000 0.514526 0.067841
1.000000 0.524811 0.088165
1.000000 0.535309 0.110962
1.000000 0.545410 0.136475
0.000000 0.483215 0.023071
0.000000 0.483215 0.023071
0.000000 0.483215 0.023071
0.000000 0.483215 0.023071
0.000000 0.483215 0.023071
0.019073 0.483215 0.023071
0.197052 0.483215 0.023071
0.369141 0.483215 0.023071
0.586700 0.563782 0.023071
0.724426 0.584625 0.023071
0.838531 0.593994 0.023071
0.943085 0.603333 0.028107
1.000000 0.612366 0.043640
1.000000 0.621368 0.061005
1.000000 0.630249 0.080505
1.000000 0.639099 0.102325
0.000000 0.579834 0.023071
0.000000 0.579834 0.023071
0.000000 0.579834 0.023071
0.000000 0.579834 0.023071
0.000000 0.579834 0.023071
0.000000 0.579834 0.023071
0.100769 0.579834 0.023071
0.274414 0.579834 0.023071
0.440887 0.579834 0.023071
0.647217 0.650818 0.023071
0.783813 0.680847 0.023071
0.888916 0.688751 0.023071
0.989136 0.696655 0.023071
1.000000 0.704407 0.037781
1.000000 0.712006 0.054413
1.000000 0.719574 0.073090
0.000000 0.663818 0.023071
0.000000 0.663818 0.023071
0.000000 0.663818 0.023071
0.000000 0.663818 0.023071
0.000000 0.663818 0.023071
0.000000 0.663818 0.023071
0.012146 0.663818 0.023071
0.187286 0.663818 0.023071
0.354919 0.663818 0.023071
0.513916 0.663818 0.023071
0.704895 0.726166 0.023071
0.842285 0.762787 0.023071
0.943146 0.769653 0.023071
1.000000 0.776550 0.023071
1.000000 0.783356 0.032135
1.000000 0.789917 0.048157
0.000000 0.736816 0.023071
0.000000 0.736816 0.023071
0.000000 0.736816 0.023071
0.000000 0.736816 0.023071
0.000000 0.736816 0.023071
0.000000 0.736816 0.023071
0.000000 0.736816 0.023071
0.106781 0.736816 0.023071
0.275757 0.736816 0.023071
0.437531 0.736816 0.023071
0.583099 0.736816 0.023071
0.759796 0.792694 0.023071
0.901917 0.835083 0.023071
1.000000 0.841217 0.023071
1.000000 0.847382 0.023071
1.000000 0.853699 0.026764
0.000000 0.801544 0.023071
0.000000 0.801544 0.023071
0.000000 0.801544 0.023071
0.000000 0.801544 0.023071
0.000000 0.801544 0.023071
0.000000 0.801544 0.023071
0.000000 0.801544 0.023071
0.035736 0.801544 0.023071
0.201721 0.801544 0.023071
0.365540 0.801544 0.023071
0.514099 0.801544 0.023071
0.647308 0.801544 0.023071
0.812561 0.853180 0.023071
0.967590 0.902344 0.023071
1.000000 0.908447 0.023071
1.000000 0.914581 0.023071
0.000000 0.860809 0.023071
0.000000 0.860809 0.023071
0.000000 0.860809 0.023071
0.000000 0.860809 0.023071
0.000000 0.860809 0.023071
0.000000 0.860809 0.023071
0.000000 0.860809 0.023071
0.000000 0.860809 0.023071
0.137665 0.860809 0.023071
0.296082 0.860809 0.023071
0.448395 0.860809 0.023071
0.584412 0.860809 0.023071
0.706177 0.860809 0.023071
0.864777 0.911163 0.023071
1.000000 0.972595 0.023071
1.000000 0.979980 0.023071
0.000000 0.918213 0.023071
0.000000 0.918213 0.023071
0.000000 0.918213 0.023071
0.000000 0.918213 0.023071
0.000000 0.918213 0.023071
0.000000 0.918213 0.023071
0.000000 0.918213 0.023071
0.000000 0.918213 0.023071
0.077942 0.918213 0.023071
0.236847 0.918213 0.023071
0.385162 0.918213 0.023071
0.522278 0.918213 0.023071
0.646729 0.918213 0.023071
0.760590 0.918213 0.023071
0.917053 0.972595 0.023071
1.000000 1.000000 0.023071
0.000000 0.980133 0.023071
0.000000 0.980133 0.023071
0.000000 0.980133 0.023071
0.000000 0.980133 0.023071
0.000000 0.980133 0.023071
0.000000 0.980133 0.023071
0.000000 0.980133 0.023071
0.000000 0.980133 0.023071
0.014404 0.980133 0.023071
0.174530 0.980133 0.023071
0.325256 0.980133 0.023071
0.460510 0.980133 0.023071
0.583679 0.980133 0.023071
0.699371 0.980133 0.023071
0.809479 0.980133 0.023071
1.000000 1.000000 0.023071
0.000000 1.000000 0.023071
0.000000 1.000000 0.023071
0.000000 1.000000 0.023071
0.000000 1.000000 0.023071
0.000000 1.000000 0.023071
0.000000 1.000000 0.023071
0.000000 1.000000 0.023071
0.000000 1.000000 0.023071
0.000000 1.000000 0.023071
0.141113 1.000000 0.023071
0.293732 1.000000 0.023071
0.431030 1.000000 0.023071
0.554108 1.000000 0.023071
0.666290 1.000000 0.023071
0.776550 1.000000 0.023071
0.887726 1.000000 0.023071
0.027863 0.023071 0.065765
0.029236 0.023071 0.085815
0.070435 0.023071 0.108307
0.236511 0.023071 0.133514
0.399414 0.023071 0.152557
0.478088 0.023071 0.125549
0.644196 0.023071 0.138763
0.804260 0.023071 0.152649
0.954346 0.023071 0.167297
1.000000 0.023071 0.182800
1.000000 0.023071 0.199066
1.000000 0.023071 0.216217
1.000000 0.023071 0.233582
1.000000 0.023071 0.251434
1.000000 0.023071 0.270203
1.000000 0.023071 0.288849
0.026215 0.023071 0.041870
0.027374 0.023071 0.058990
0.038025 0.023071 0.078247
0.199738 0.023071 0.099792
0.325592 0.023071 0.100372
0.476624 0.023071 0.104187
0.642609 0.023071 0.116119
0.802612 0.023071 0.128845
0.952606 0.023071 0.142181
1.000000 0.023071 0.156433
1.000000 0.023071 0.171356
1.000000 0.023071 0.187225
1.000000 0.023071 0.203430
1.000000 0.023071 0.220795
1.000000 0.023071 0.238251
1.000000 0.023071 0.256226
0.024902 0.023071 0.023071
0.025787 0.023071 0.036072
0.026947 0.023071 0.052521
0.163971 0.023071 0.070923
0.303680 0.023071 0.074554
0.475281 0.023071 0.084839
0.641205 0.023071 0.095734
0.801117 0.023071 0.107208
0.951019 0.023071 0.119446
1.000000 0.023071 0.132263
1.000000 0.023071 0.145844
1.000000 0.023071 0.160217
1.000000 0.023071 0.175323
1.000000 0.023071 0.191254
1.000000 0.023071 0.207855
1.000000 0.023071 0.225037
0.000000 0.094391 0.025818
0.000000 0.094391 0.033203
0.000000 0.094391 0.041046
0.092865 0.094391 0.049316
0.252350 0.103394 0.063965
0.428925 0.094757 0.067627
0.595001 0.094391 0.077179
0.754852 0.094391 0.087646
0.904663 0.094391 0.098633
1.000000 0.094391 0.110291
1.000000 0.094391 0.122742
1.000000 0.094391 0.135742
1.000000 0.094391 0.149506
1.000000 0.094391 0.164124
1.000000 0.094391 0.179504
1.000000 0.094391 0.195557
0.000000 0.186005 0.023071
0.000000 0.186005 0.023071
0.000000 0.186005 0.027679
0.000000 0.186005 0.025146
0.161743 0.186005 0.040314
0.353363 0.213562 0.057312
0.513031 0.224426 0.076294
0.666656 0.235504 0.097656
0.810425 0.246521 0.121582
0.941254 0.253723 0.144257
1.000000 0.237854 0.144257
1.000000 0.222229 0.144257
1.000000 0.206665 0.144257
1.000000 0.191528 0.144257
1.000000 0.186005 0.153168
1.000000 0.186005 0.167938
0.000000 0.289307 0.023071
0.000000 0.289307 0.023071
0.000000 0.289307 0.023071
0.000000 0.289307 0.023071
0.060669 0.289307 0.023071
0.238800 0.289307 0.034607
0.441071 0.335846 0.050873
0.594482 0.346924 0.069122
0.737976 0.358032 0.089600
0.866425 0.369049 0.112488
0.981232 0.380096 0.138214
1.000000 0.391144 0.166870
1.000000 0.402252 0.198517
1.000000 0.413208 0.232971
1.000000 0.411346 0.251709
1.000000 0.395660 0.251709
0.000000 0.393921 0.023071
0.000000 0.393921 0.023071
0.000000 0.393921 0.023071
0.000000 0.393921 0.023071
0.000000 0.393921 0.023071
0.136169 0.393921 0.023071
0.313477 0.393921 0.029114
0.523560 0.456848 0.044739
0.666992 0.467712 0.062225
0.795319 0.478577 0.081848
0.910065 0.489319 0.103882
1.000000 0.500122 0.128510
1.000000 0.510834 0.156067
1.000000 0.521393 0.186646
1.000000 0.531555 0.220123
1.000000 0.541840 0.255890
