Color Lookup Presets Effects/z1 (57).CUBE
#Created by: Adobe Photoshop Export Color Lookup Plugin
#Copyright: (C) Copyright 2014 www.zafizack.com
TITLE "BlueVania"
#LUT size
LUT_3D_SIZE 16
#data domain
DOMAIN_MIN 0.0 0.0 0.0
DOMAIN_MAX 1.0 1.0 1.0
#LUT data points
0.000000 0.000000 0.000000
0.109589 0.054413 0.046509
0.213745 0.099274 0.082306
0.312012 0.142548 0.117981
0.403137 0.188782 0.160156
0.488159 0.234283 0.203766
0.566986 0.279175 0.248840
0.639557 0.323517 0.295410
0.705902 0.367432 0.343506
0.766052 0.411133 0.393158
0.819946 0.454620 0.444305
0.867767 0.497986 0.496796
0.909515 0.540710 0.550018
0.945404 0.582703 0.603760
0.975525 0.623749 0.657776
1.000000 0.663879 0.712067
0.000000 0.054474 0.066681
0.066681 0.066681 0.066681
0.174866 0.115234 0.107178
0.277679 0.154083 0.137604
0.371826 0.196594 0.174652
0.459717 0.238800 0.213562
0.541382 0.280487 0.254059
0.616852 0.321625 0.296112
0.686035 0.362335 0.339630
0.749054 0.402588 0.384613
0.805878 0.442596 0.431091
0.856567 0.482361 0.478912
0.901184 0.521881 0.527740
0.939911 0.563477 0.577362
0.972809 0.604645 0.627533
1.000000 0.645447 0.678131
0.000000 0.108917 0.133331
0.057251 0.122131 0.135925
0.133331 0.133331 0.133331
0.241455 0.175934 0.167938
0.340088 0.213440 0.198639
0.431183 0.251648 0.232300
0.515839 0.289703 0.267792
0.594208 0.327454 0.305084
0.666290 0.365540 0.343903
0.732178 0.404358 0.384277
0.791840 0.443207 0.426086
0.845398 0.482147 0.469269
0.892883 0.521210 0.513672
0.934387 0.560364 0.559326
0.970093 0.599060 0.605469
1.000000 0.637390 0.652161
0.000000 0.163391 0.200012
0.041687 0.176727 0.203979
0.108673 0.189972 0.206573
0.200012 0.200012 0.200012
0.306610 0.238861 0.231232
0.401978 0.274170 0.260101
0.490051 0.309509 0.290375
0.571503 0.345245 0.322632
0.646545 0.381195 0.356567
0.715363 0.417297 0.392181
0.777863 0.453461 0.429230
0.834290 0.489655 0.467743
0.884583 0.525848 0.507538
0.928894 0.562134 0.548584
0.967346 0.598358 0.590668
1.000000 0.634583 0.633759
0.000000 0.217834 0.266663
0.029633 0.230927 0.270630
0.084717 0.244476 0.275116
0.157654 0.257050 0.276703
0.266663 0.266663 0.266663
0.370880 0.303619 0.295471
0.463470 0.336700 0.321564
0.548523 0.369446 0.348785
0.626740 0.402435 0.377686
0.698486 0.435730 0.408386
0.763947 0.469147 0.440704
0.823212 0.502594 0.474487
0.876312 0.536041 0.509613
0.923431 0.569519 0.545990
0.964630 0.602875 0.583527
1.000000 0.636230 0.622101
0.000000 0.272308 0.333344
0.028381 0.285034 0.336456
0.079071 0.298462 0.340759
0.141418 0.311768 0.344543
0.221619 0.324005 0.344543
0.333344 0.333344 0.333344
0.434845 0.368317 0.359650
0.524628 0.399200 0.383087
0.606506 0.429474 0.407257
0.681488 0.459839 0.433044
0.749969 0.490387 0.460449
0.812103 0.521027 0.489441
0.868073 0.551758 0.519867
0.917938 0.582428 0.551636
0.961884 0.613007 0.584534
1.000000 0.643494 0.618561
0.000000 0.326752 0.399994
0.027863 0.339233 0.402466
0.076233 0.352295 0.406219
0.133331 0.365723 0.410431
0.201965 0.378784 0.413208
0.288330 0.390900 0.411835
0.399994 0.399994 0.399994
0.498627 0.432953 0.423767
0.585327 0.461639 0.444550
0.664093 0.489441 0.465820
0.735779 0.517181 0.488495
0.800995 0.545044 0.512665
0.859802 0.572937 0.538330
0.912506 0.600830 0.565369
0.959198 0.628632 0.593719
1.000000 0.656342 0.623169
0.000000 0.381226 0.466675
0.027527 0.393494 0.468628
0.074554 0.406250 0.471771
0.128510 0.419434 0.475769
0.191010 0.432678 0.479401
0.265778 0.445587 0.481110
0.356934 0.457794 0.478699
0.466675 0.466675 0.466675
0.562042 0.497467 0.487854
0.645721 0.523987 0.506012
0.721222 0.549408 0.524414
0.789673 0.574493 0.544037
0.851501 0.599640 0.565002
0.907043 0.624786 0.587341
0.956482 0.649841 0.611023
1.000000 0.674774 0.635895
0.000000 0.435669 0.533325
0.027313 0.447784 0.534882
0.073456 0.460236 0.537445
0.125366 0.473053 0.540955
0.184143 0.486176 0.544647
0.252319 0.499298 0.547546
0.332611 0.512268 0.548340
0.427032 0.524597 0.545105
0.533325 0.533325 0.533325
0.625336 0.561920 0.551880
0.705750 0.586212 0.567413
0.777924 0.609161 0.583008
0.842987 0.631744 0.599548
0.901550 0.654144 0.617340
0.953766 0.676422 0.636383
1.000000 0.698639 0.656647
0.000000 0.490143 0.600006
0.027161 0.502136 0.601227
0.072693 0.514313 0.603302
0.123230 0.526794 0.606232
0.179474 0.539551 0.609619
0.243439 0.552521 0.612762
0.317108 0.565643 0.614868
0.402039 0.578827 0.614899
0.498169 0.591370 0.611206
0.600006 0.600006 0.600006
0.688354 0.626251 0.615845
0.765381 0.648285 0.628784
0.834167 0.668823 0.641510
0.895874 0.688782 0.655060
0.951050 0.708435 0.669678
1.000000 0.727905 0.685425
0.000000 0.544586 0.666656
0.027069 0.556488 0.667603
0.072144 0.568420 0.669220
0.121735 0.580536 0.671600
0.176178 0.592896 0.674500
0.237213 0.605530 0.677460
0.306427 0.618469 0.679932
0.385132 0.631744 0.681305
0.473663 0.645203 0.680756
0.569977 0.657928 0.676880
0.666656 0.666656 0.666656
0.751190 0.690491 0.679779
0.824615 0.710205 0.690002
0.889954 0.728241 0.699921
0.948212 0.745544 0.710449
1.000000 0.762451 0.721863
0.000000 0.599060 0.733337
0.026978 0.610870 0.734039
0.071747 0.622589 0.735260
0.120636 0.634369 0.737122
0.173767 0.646301 0.739441
0.232635 0.658478 0.741943
0.298645 0.671021 0.744324
0.372955 0.684052 0.746124
0.456024 0.697571 0.746918
0.546936 0.711395 0.745972
0.642029 0.724335 0.742218
0.733337 0.733337 0.733337
0.813721 0.754669 0.743652
0.883514 0.771912 0.751160
0.945221 0.787415 0.758240
1.000000 0.802094 0.765747
0.000000 0.653503 0.799988
0.026886 0.665222 0.800476
0.071442 0.676788 0.801361
0.119812 0.688232 0.802673
0.171936 0.699707 0.804413
0.229218 0.711395 0.806366
0.292816 0.723450 0.808350
0.363861 0.735992 0.810059
0.442810 0.749176 0.811279
0.529297 0.763062 0.811584
0.621216 0.777222 0.810486
0.714081 0.790436 0.807190
0.799988 0.799988 0.799988
0.876068 0.818665 0.807434
0.941925 0.833374 0.812134
1.000000 0.846283 0.816315
0.000000 0.707977 0.866669
0.026855 0.719635 0.866974
0.071198 0.731018 0.867523
0.119171 0.742157 0.868408
0.170532 0.753235 0.869537
0.226563 0.764404 0.870850
0.288330 0.775848 0.872253
0.356842 0.787781 0.873596
0.432587 0.800446 0.874664
0.515503 0.813904 0.875336
0.604248 0.828156 0.875366
0.695984 0.842682 0.874390
0.785736 0.856262 0.871826
0.866669 0.866669 0.866669
0.938171 0.882507 0.871063
1.000000 0.894562 0.872925
0.000000 0.762421 0.933319
0.026794 0.773987 0.933472
0.070984 0.785248 0.933746
0.118683 0.796112 0.934143
0.169434 0.806793 0.934692
0.224457 0.817413 0.935364
0.284760 0.828247 0.936096
0.351257 0.839508 0.936829
0.424469 0.851410 0.937500
0.504486 0.864258 0.937988
0.590424 0.878052 0.938263
0.680298 0.892700 0.938171
0.770691 0.907623 0.937531
0.856903 0.921692 0.936096
0.933319 0.933319 0.933319
1.000000 0.946136 0.934570
0.000000 0.816895 1.000000
0.026733 0.828400 1.000000
0.070831 0.839508 1.000000
0.118256 0.850128 1.000000
0.168549 0.860413 1.000000
0.222778 0.870514 1.000000
0.281921 0.880707 1.000000
0.346802 0.891235 1.000000
0.417938 0.902344 1.000000
0.495544 0.914368 1.000000
0.578979 0.927429 1.000000
0.666901 0.941620 1.000000
0.756714 0.956635 1.000000
0.844940 0.971985 1.000000
0.927338 0.986755 1.000000
1.000000 1.000000 1.000000
0.000000 0.000000 0.000000
0.109589 0.054413 0.046509
0.213745 0.099274 0.082306
0.312012 0.142548 0.117981
0.403137 0.188782 0.160156
0.488159 0.234283 0.203766
0.566986 0.279175 0.248840
0.639557 0.323517 0.295410
0.705902 0.367432 0.343506
0.766052 0.411133 0.393158
0.819946 0.454620 0.444305
0.867767 0.497986 0.496796
0.909515 0.540710 0.550018
0.945404 0.582703 0.603760
0.975525 0.623749 0.657776
1.000000 0.663879 0.712067
0.000000 0.054474 0.066681
0.066681 0.066681 0.066681
0.174866 0.115234 0.107178
0.277679 0.154083 0.137604
0.371826 0.196594 0.174652
0.459717 0.238800 0.213562
0.541382 0.280487 0.254059
0.616852 0.321625 0.296112
0.686035 0.362335 0.339630
0.749054 0.402588 0.384613
0.805878 0.442596 0.431091
0.856567 0.482361 0.478912
0.901184 0.521881 0.527740
0.939911 0.563477 0.577362
0.972809 0.604645 0.627533
1.000000 0.645447 0.678131
0.000000 0.108917 0.133331
0.057251 0.122131 0.135925
0.133331 0.133331 0.133331
0.241455 0.175934 0.167938
0.340088 0.213440 0.198639
0.431183 0.251648 0.232300
0.515839 0.289703 0.267792
0.594208 0.327454 0.305084
0.666290 0.365540 0.343903
0.732178 0.404358 0.384277
0.791840 0.443207 0.426086
0.845398 0.482147 0.469269
0.892883 0.521210 0.513672
0.934387 0.560364 0.559326
0.970093 0.599060 0.605469
1.000000 0.637390 0.652161
0.000000 0.163391 0.200012
0.041687 0.176727 0.203979
0.108673 0.189972 0.206573
0.200012 0.200012 0.200012
0.306610 0.238861 0.231232
0.401978 0.274170 0.260101
0.490051 0.309509 0.290375
0.571503 0.345245 0.322632
0.646545 0.381195 0.356567
0.715363 0.417297 0.392181
0.777863 0.453461 0.429230
0.834290 0.489655 0.467743
0.884583 0.525848 0.507538
0.928894 0.562134 0.548584
0.967346 0.598358 0.590668
1.000000 0.634583 0.633759
0.000000 0.217834 0.266663
0.029633 0.230927 0.270630
0.084717 0.244476 0.275116
0.157654 0.257050 0.276703
0.266663 0.266663 0.266663
0.370880 0.303619 0.295471
0.463470 0.336700 0.321564
0.548523 0.369446 0.348785
0.626740 0.402435 0.377686
0.698486 0.435730 0.408386
0.763947 0.469147 0.440704
0.823212 0.502594 0.474487
0.876312 0.536041 0.509613
0.923431 0.569519 0.545990
0.964630 0.602875 0.583527
1.000000 0.636230 0.622101
0.000000 0.272308 0.333344
0.028381 0.285034 0.336456
0.079071 0.298462 0.340759
0.141418 0.311768 0.344543
0.221619 0.324005 0.344543
0.333344 0.333344 0.333344
0.434845 0.368317 0.359650
0.524628 0.399200 0.383087
0.606506 0.429474 0.407257
0.681488 0.459839 0.433044
0.749969 0.490387 0.460449
0.812103 0.521027 0.489441
0.868073 0.551758 0.519867
0.917938 0.582428 0.551636
0.961884 0.613007 0.584534
1.000000 0.643494 0.618561
0.000000 0.326752 0.399994
0.027863 0.339233 0.402466
0.076233 0.352295 0.406219
0.133331 0.365723 0.410431
0.201965 0.378784 0.413208
0.288330 0.390900 0.411835
0.399994 0.399994 0.399994
0.498627 0.432953 0.423767
0.585327 0.461639 0.444550
0.664093 0.489441 0.465820
0.735779 0.517181 0.488495
0.800995 0.545044 0.512665
0.859802 0.572937 0.538330
0.912506 0.600830 0.565369
0.959198 0.628632 0.593719
1.000000 0.656342 0.623169
0.000000 0.381226 0.466675
0.027527 0.393494 0.468628
0.074554 0.406250 0.471771
0.128510 0.419434 0.475769
0.191010 0.432678 0.479401
0.265778 0.445587 0.481110
0.356934 0.457794 0.478699
0.466675 0.466675 0.466675
0.562042 0.497467 0.487854
0.645721 0.523987 0.506012
0.721222 0.549408 0.524414
0.789673 0.574493 0.544037
0.851501 0.599640 0.565002
0.907043 0.624786 0.587341
0.956482 0.649841 0.611023
1.000000 0.674774 0.635895
0.000000 0.435669 0.533325
0.027313 0.447784 0.534882
0.073456 0.460236 0.537445
0.125366 0.473053 0.540955
0.184143 0.486176 0.544647
0.252319 0.499298 0.547546
0.332611 0.512268 0.548340
0.427032 0.524597 0.545105
0.533325 0.533325 0.533325
0.625336 0.561920 0.551880
0.705750 0.586212 0.567413
0.777924 0.609161 0.583008
0.842987 0.631744 0.599548
0.901550 0.654144 0.617340
0.953766 0.676422 0.636383
1.000000 0.698639 0.656647
0.000000 0.490143 0.600006
0.027161 0.502136 0.601227
0.072693 0.514313 0.603302
0.123230 0.526794 0.606232
0.179474 0.539551 0.609619
0.243439 0.552521 0.612762
0.317108 0.565643 0.614868
0.402039 0.578827 0.614899
0.498169 0.591370 0.611206
0.600006 0.600006 0.600006
0.688354 0.626251 0.615845
0.765381 0.648285 0.628784
0.834167 0.668823 0.641510
0.895874 0.688782 0.655060
0.951050 0.708435 0.669678
1.000000 0.727905 0.685425
0.000000 0.544586 0.666656
0.027069 0.556488 0.667603
0.072144 0.568420 0.669220
0.121735 0.580536 0.671600
0.176178 0.592896 0.674500
0.237213 0.605530 0.677460
0.306427 0.618469 0.679932
0.385132 0.631744 0.681305
0.473663 0.645203 0.680756
0.569977 0.657928 0.676880
0.666656 0.666656 0.666656
0.751190 0.690491 0.679779
0.824615 0.710205 0.690002
0.889954 0.728241 0.699921
0.948212 0.745544 0.710449
1.000000 0.762451 0.721863
0.000000 0.599060 0.733337
0.026978 0.610870 0.734039
0.071747 0.622589 0.735260
0.120636 0.634369 0.737122
0.173767 0.646301 0.739441
0.232635 0.658478 0.741943
0.298645 0.671021 0.744324
0.372955 0.684052 0.746124
0.456024 0.697571 0.746918
0.546936 0.711395 0.745972
0.642029 0.724335 0.742218
0.733337 0.733337 0.733337
0.813721 0.754669 0.743652
0.883514 0.771912 0.751160
0.945221 0.787415 0.758240
1.000000 0.802094 0.765747
0.000000 0.653503 0.799988
0.026886 0.665222 0.800476
0.071442 0.676788 0.801361
0.119812 0.688232 0.802673
0.171936 0.699707 0.804413
0.229218 0.711395 0.806366
0.292816 0.723450 0.808350
0.363861 0.735992 0.810059
0.442810 0.749176 0.811279
0.529297 0.763062 0.811584
0.621216 0.777222 0.810486
0.714081 0.790436 0.807190
0.799988 0.799988 0.799988
0.876068 0.818665 0.807434
0.941925 0.833374 0.812134
1.000000 0.846283 0.816315
0.000000 0.707977 0.866669
0.026855 0.719635 0.866974
0.071198 0.731018 0.867523
0.119171 0.742157 0.868408
0.170532 0.753235 0.869537
0.226563 0.764404 0.870850
0.288330 0.775848 0.872253
0.356842 0.787781 0.873596
0.432587 0.800446 0.874664
0.515503 0.813904 0.875336
0.604248 0.828156 0.875366
0.695984 0.842682 0.874390
0.785736 0.856262 0.871826
0.866669 0.866669 0.866669
0.938171 0.882507 0.871063
1.000000 0.894562 0.872925
0.000000 0.762421 0.933319
0.026794 0.773987 0.933472
0.070984 0.785248 0.933746
0.118683 0.796112 0.934143
0.169434 0.806793 0.934692
0.224457 0.817413 0.935364
0.284760 0.828247 0.936096
0.351257 0.839508 0.936829
0.424469 0.851410 0.937500
0.504486 0.864258 0.937988
0.590424 0.878052 0.938263
0.680298 0.892700 0.938171
0.770691 0.907623 0.937531
0.856903 0.921692 0.936096
0.933319 0.933319 0.933319
1.000000 0.946136 0.934570
0.000000 0.816895 1.000000
0.026733 0.828400 1.000000
0.070831 0.839508 1.000000
0.118256 0.850128 1.000000
0.168549 0.860413 1.000000
0.222778 0.870514 1.000000
0.281921 0.880707 1.000000
0.346802 0.891235 1.000000
0.417938 0.902344 1.000000
0.495544 0.914368 1.000000
0.578979 0.927429 1.000000
0.666901 0.941620 1.000000
0.756714 0.956635 1.000000
0.844940 0.971985 1.000000
0.927338 0.986755 1.000000
1.000000 1.000000 1.000000
0.000000 0.000000 0.000000
0.109589 0.054413 0.046509
0.213745 0.099274 0.082306
0.312012 0.142548 0.117981
0.403137 0.188782 0.160156
0.488159 0.234283 0.203766
0.566986 0.279175 0.248840
0.639557 0.323517 0.295410
0.705902 0.367432 0.343506
0.766052 0.411133 0.393158
0.819946 0.454620 0.444305
0.867767 0.497986 0.496796
0.909515 0.540710 0.550018
0.945404 0.582703 0.603760
0.975525 0.623749 0.657776
1.000000 0.663879 0.712067
0.000000 0.054474 0.066681
0.066681 0.066681 0.066681
0.174866 0.115234 0.107178
0.277679 0.154083 0.137604
0.371826 0.196594 0.174652
0.459717 0.238800 0.213562
0.541382 0.280487 0.254059
0.616852 0.321625 0.296112
0.686035 0.362335 0.339630
0.749054 0.402588 0.384613
0.805878 0.442596 0.431091
0.856567 0.482361 0.478912
0.901184 0.521881 0.527740
0.939911 0.563477 0.577362
0.972809 0.604645 0.627533
1.000000 0.645447 0.678131
0.000000 0.108917 0.133331
0.057251 0.122131 0.135925
0.133331 0.133331 0.133331
0.241455 0.175934 0.167938
0.340088 0.213440 0.198639
0.431183 0.251648 0.232300
0.515839 0.289703 0.267792
0.594208 0.327454 0.305084
0.666290 0.365540 0.343903
0.732178 0.404358 0.384277
0.791840 0.443207 0.426086
0.845398 0.482147 0.469269
0.892883 0.521210 0.513672
0.934387 0.560364 0.559326
0.970093 0.599060 0.605469
1.000000 0.637390 0.652161
0.000000 0.163391 0.200012
0.041687 0.176727 0.203979
0.108673 0.189972 0.206573
0.200012 0.200012 0.200012
0.306610 0.238861 0.231232
0.401978 0.274170 0.260101
0.490051 0.309509 0.290375
0.571503 0.345245 0.322632
0.646545 0.381195 0.356567
0.715363 0.417297 0.392181
0.777863 0.453461 0.429230
0.834290 0.489655 0.467743
0.884583 0.525848 0.507538
0.928894 0.562134 0.548584
0.967346 0.598358 0.590668
1.000000 0.634583 0.633759
0.000000 0.217834 0.266663
0.029633 0.230927 0.270630
0.084717 0.244476 0.275116
0.157654 0.257050 0.276703
0.266663 0.266663 0.266663
0.370880 0.303619 0.295471
0.463470 0.336700 0.321564
0.548523 0.369446 0.348785
0.626740 0.402435 0.377686
0.698486 0.435730 0.408386
0.763947 0.469147 0.440704
0.823212 0.502594 0.474487
0.876312 0.536041 0.509613
0.923431 0.569519 0.545990
0.964630 0.602875 0.583527
1.000000 0.636230 0.622101
0.000000 0.272308 0.333344
0.028381 0.285034 0.336456
0.079071 0.298462 0.340759
0.141418 0.311768 0.344543
0.221619 0.324005 0.344543
0.333344 0.333344 0.333344
0.434845 0.368317 0.359650
0.524628 0.399200 0.383087
0.606506 0.429474 0.407257
0.681488 0.459839 0.433044
0.749969 0.490387 0.460449
0.812103 0.521027 0.489441
0.868073 0.551758 0.519867
0.917938 0.582428 0.551636
0.961884 0.613007 0.584534
1.000000 0.643494 0.618561
0.000000 0.326752 0.399994
0.027863 0.339233 0.402466
0.076233 0.352295 0.406219
0.133331 0.365723 0.410431
0.201965 0.378784 0.413208
0.288330 0.390900 0.411835
0.399994 0.399994 0.399994
0.498627 0.432953 0.423767
0.585327 0.461639 0.444550
0.664093 0.489441 0.465820
0.735779 0.517181 0.488495
0.800995 0.545044 0.512665
0.859802 0.572937 0.538330
0.912506 0.600830 0.565369
0.959198 0.628632 0.593719
1.000000 0.656342 0.623169
0.000000 0.381226 0.466675
0.027527 0.393494 0.468628
0.074554 0.406250 0.471771
0.128510 0.419434 0.475769
0.191010 0.432678 0.479401
0.265778 0.445587 0.481110
0.356934 0.457794 0.478699
0.466675 0.466675 0.466675
0.562042 0.497467 0.487854
0.645721 0.523987 0.506012
0.721222 0.549408 0.524414
0.789673 0.574493 0.544037
0.851501 0.599640 0.565002
0.907043 0.624786 0.587341
0.956482 0.649841 0.611023
1.000000 0.674774 0.635895
0.000000 0.435669 0.533325
0.027313 0.447784 0.534882
0.073456 0.460236 0.537445
0.125366 0.473053 0.540955
0.184143 0.486176 0.544647
0.252319 0.499298 0.547546
0.332611 0.512268 0.548340
0.427032 0.524597 0.545105
0.533325 0.533325 0.533325
0.625336 0.561920 0.551880
0.705750 0.586212 0.567413
0.777924 0.609161 0.583008
0.842987 0.631744 0.599548
0.901550 0.654144 0.617340
0.953766 0.676422 0.636383
1.000000 0.698639 0.656647
0.000000 0.490143 0.600006
0.027161 0.502136 0.601227
0.072693 0.514313 0.603302
0.123230 0.526794 0.606232
0.179474 0.539551 0.609619
0.243439 0.552521 0.612762
0.317108 0.565643 0.614868
0.402039 0.578827 0.614899
0.498169 0.591370 0.611206
0.600006 0.600006 0.600006
0.688354 0.626251 0.615845
0.765381 0.648285 0.628784
0.834167 0.668823 0.641510
0.895874 0.688782 0.655060
0.951050 0.708435 0.669678
1.000000 0.727905 0.685425
0.000000 0.544586 0.666656
0.027069 0.556488 0.667603
0.072144 0.568420 0.669220
0.121735 0.580536 0.671600
0.176178 0.592896 0.674500
0.237213 0.605530 0.677460
0.306427 0.618469 0.679932
0.385132 0.631744 0.681305
0.473663 0.645203 0.680756
0.569977 0.657928 0.676880
0.666656 0.666656 0.666656
0.751190 0.690491 0.679779
0.824615 0.710205 0.690002
0.889954 0.728241 0.699921
0.948212 0.745544 0.710449
1.000000 0.762451 0.721863
0.000000 0.599060 0.733337
0.026978 0.610870 0.734039
0.071747 0.622589 0.735260
0.120636 0.634369 0.737122
0.173767 0.646301 0.739441
0.232635 0.658478 0.741943
0.298645 0.671021 0.744324
0.372955 0.684052 0.746124
0.456024 0.697571 0.746918
0.546936 0.711395 0.745972
0.642029 0.724335 0.742218
0.733337 0.733337 0.733337
0.813721 0.754669 0.743652
0.883514 0.771912 0.751160
0.945221 0.787415 0.758240
1.000000 0.802094 0.765747
0.000000 0.653503 0.799988
0.026886 0.665222 0.800476
0.071442 0.676788 0.801361
0.119812 0.688232 0.802673
0.171936 0.699707 0.804413
0.229218 0.711395 0.806366
0.292816 0.723450 0.808350
0.363861 0.735992 0.810059
0.442810 0.749176 0.811279
0.529297 0.763062 0.811584
0.621216 0.777222 0.810486
0.714081 0.790436 0.807190
0.799988 0.799988 0.799988
0.876068 0.818665 0.807434
0.941925 0.833374 0.812134
1.000000 0.846283 0.816315
0.000000 0.707977 0.866669
0.026855 0.719635 0.866974
0.071198 0.731018 0.867523
0.119171 0.742157 0.868408
0.170532 0.753235 0.869537
0.226563 0.764404 0.870850
0.288330 0.775848 0.872253
0.356842 0.787781 0.873596
0.432587 0.800446 0.874664
0.515503 0.813904 0.875336
0.604248 0.828156 0.875366
0.695984 0.842682 0.874390
0.785736 0.856262 0.871826
0.866669 0.866669 0.866669
0.938171 0.882507 0.871063
1.000000 0.894562 0.872925
0.000000 0.762421 0.933319
0.026794 0.773987 0.933472
0.070984 0.785248 0.933746
0.118683 0.796112 0.934143
0.169434 0.806793 0.934692
0.224457 0.817413 0.935364
0.284760 0.828247 0.936096
0.351257 0.839508 0.936829
0.424469 0.851410 0.937500
0.504486 0.864258 0.937988
0.590424 0.878052 0.938263
0.680298 0.892700 0.938171
0.770691 0.907623 0.937531
0.856903 0.921692 0.936096
0.933319 0.933319 0.933319
1.000000 0.946136 0.934570
0.000000 0.816895 1.000000
0.026733 0.828400 1.000000
0.070831 0.839508 1.000000
0.118256 0.850128 1.000000
0.168549 0.860413 1.000000
0.222778 0.870514 1.000000
0.281921 0.880707 1.000000
0.346802 0.891235 1.000000
0.417938 0.902344 1.000000
0.495544 0.914368 1.000000
0.578979 0.927429 1.000000
0.666901 0.941620 1.000000
0.756714 0.956635 1.000000
0.844940 0.971985 1.000000
0.927338 0.986755 1.000000
1.000000 1.000000 1.000000
0.000000 0.000000 0.000000
0.109589 0.054413 0.046509
0.213745 0.099274 0.082306
0.312012 0.142548 0.117981
0.403137 0.188782 0.160156
0.488159 0.234283 0.203766
0.566986 0.279175 0.248840
0.639557 0.323517 0.295410
0.705902 0.367432 0.343506
0.766052 0.411133 0.393158
0.819946 0.454620 0.444305
0.867767 0.497986 0.496796
0.909515 0.540710 0.550018
0.945404 0.582703 0.603760
0.975525 0.623749 0.657776
1.000000 0.663879 0.712067
0.000000 0.054474 0.066681
0.066681 0.066681 0.066681
0.174866 0.115234 0.107178
0.277679 0.154083 0.137604
0.371826 0.196594 0.174652
0.459717 0.238800 0.213562
0.541382 0.280487 0.254059
0.616852 0.321625 0.296112
0.686035 0.362335 0.339630
0.749054 0.402588 0.384613
0.805878 0.442596 0.431091
0.856567 0.482361 0.478912
0.901184 0.521881 0.527740
0.939911 0.563477 0.577362
0.972809 0.604645 0.627533
1.000000 0.645447 0.678131
0.000000 0.108917 0.133331
0.057251 0.122131 0.135925
0.133331 0.133331 0.133331
0.241455 0.175934 0.167938
0.340088 0.213440 0.198639
0.431183 0.251648 0.232300
0.515839 0.289703 0.267792
0.594208 0.327454 0.305084
0.666290 0.365540 0.343903
0.732178 0.404358 0.384277
0.791840 0.443207 0.426086
0.845398 0.482147 0.469269
0.892883 0.521210 0.513672
0.934387 0.560364 0.559326
0.970093 0.599060 0.605469
1.000000 0.637390 0.652161
0.000000 0.163391 0.200012
0.041687 0.176727 0.203979
0.108673 0.189972 0.206573
0.200012 0.200012 0.200012
0.306610 0.238861 0.231232
0.401978 0.274170 0.260101
0.490051 0.309509 0.290375
0.571503 0.345245 0.322632
0.646545 0.381195 0.356567
0.715363 0.417297 0.392181
0.777863 0.453461 0.429230
0.834290 0.489655 0.467743
0.884583 0.525848 0.507538
0.928894 0.562134 0.548584
0.967346 0.598358 0.590668
1.000000 0.634583 0.633759
0.000000 0.217834 0.266663
0.029633 0.230927 0.270630
0.084717 0.244476 0.275116
0.157654 0.257050 0.276703
0.266663 0.266663 0.266663
0.370880 0.303619 0.295471
0.463470 0.336700 0.321564
0.548523 0.369446 0.348785
0.626740 0.402435 0.377686
0.698486 0.435730 0.408386
0.763947 0.469147 0.440704
0.823212 0.502594 0.474487
0.876312 0.536041 0.509613
0.923431 0.569519 0.545990
0.964630 0.602875 0.583527
1.000000 0.636230 0.622101
0.000000 0.272308 0.333344
0.028381 0.285034 0.336456
0.079071 0.298462 0.340759
0.141418 0.311768 0.344543
0.221619 0.324005 0.344543
0.333344 0.333344 0.333344
0.434845 0.368317 0.359650
0.524628 0.399200 0.383087
0.606506 0.429474 0.407257
0.681488 0.459839 0.433044
0.749969 0.490387 0.460449
0.812103 0.521027 0.489441
0.868073 0.551758 0.519867
0.917938 0.582428 0.551636
0.961884 0.613007 0.584534
1.000000 0.643494 0.618561
0.000000 0.326752 0.399994
0.027863 0.339233 0.402466
0.076233 0.352295 0.406219
0.133331 0.365723 0.410431
0.201965 0.378784 0.413208
0.288330 0.390900 0.411835
0.399994 0.399994 0.399994
0.498627 0.432953 0.423767
0.585327 0.461639 0.444550
0.664093 0.489441 0.465820
0.735779 0.517181 0.488495
0.800995 0.545044 0.512665
0.859802 0.572937 0.538330
0.912506 0.600830 0.565369
0.959198 0.628632 0.593719
1.000000 0.656342 0.623169
