Color Lookup Presets Effects/z1 (69).CUBE
#Created by: Adobe Photoshop Export Color Lookup Plugin
#Copyright: (C) Copyright 2016 www.zafizack.com
TITLE "zafizack pastel color preset"
#LUT size
LUT_3D_SIZE 16
#data domain
DOMAIN_MIN 0.0 0.0 0.0
DOMAIN_MAX 1.0 1.0 1.0
#LUT data points
0.062500 0.061188 0.037994
0.110809 0.074402 0.045959
0.161407 0.091583 0.063995
0.264282 0.116272 0.085327
0.381104 0.141571 0.109039
0.492126 0.162842 0.134979
0.577423 0.181946 0.163849
0.656433 0.200073 0.191650
0.730042 0.217285 0.218079
0.798889 0.231812 0.240021
0.846832 0.247589 0.262817
0.886780 0.264221 0.285797
0.925446 0.282166 0.309418
0.958740 0.300781 0.333771
0.979431 0.318085 0.356628
0.997223 0.338013 0.383057
0.079407 0.101776 0.050415
0.107300 0.103577 0.044983
0.159882 0.130554 0.056213
0.261261 0.153259 0.072693
0.373230 0.176056 0.092621
0.488708 0.196167 0.111389
0.572754 0.214325 0.137634
0.649902 0.231262 0.165070
0.721954 0.247986 0.192505
0.789185 0.264191 0.218750
0.849487 0.279327 0.243561
0.888489 0.295685 0.270050
0.926270 0.312531 0.295898
0.958954 0.329926 0.321106
0.979645 0.348236 0.347351
0.997223 0.369812 0.375000
0.101013 0.168182 0.082336
0.123871 0.165405 0.069763
0.152130 0.164307 0.058899
0.260162 0.192261 0.074036
0.370636 0.212158 0.088409
0.487579 0.230560 0.103912
0.570374 0.245544 0.118774
0.645660 0.260834 0.143677
0.716217 0.275513 0.169220
0.782837 0.288208 0.190826
0.845306 0.302582 0.216187
0.891113 0.317963 0.243958
0.927887 0.336121 0.273499
0.959351 0.357910 0.302673
0.979919 0.379639 0.330505
0.997223 0.401855 0.359650
0.124298 0.240356 0.115417
0.147339 0.235260 0.104492
0.185944 0.229828 0.092407
0.240295 0.225006 0.079559
0.370300 0.252014 0.094177
0.488953 0.267792 0.105194
0.570496 0.281036 0.118469
0.644806 0.293549 0.136688
0.713501 0.305664 0.156616
0.777863 0.319611 0.176086
0.839264 0.336212 0.194397
0.893921 0.354462 0.216949
0.929321 0.377777 0.249634
0.959442 0.402039 0.281525
0.979797 0.420685 0.312988
0.997223 0.438141 0.343597
0.167358 0.313843 0.163208
0.197266 0.307007 0.146210
0.234161 0.300262 0.130829
0.281250 0.290710 0.114349
0.341278 0.281494 0.102020
0.487762 0.305420 0.115906
0.572723 0.319641 0.128906
0.643982 0.339386 0.145111
0.711517 0.358551 0.159760
0.774231 0.377472 0.174408
0.834137 0.394958 0.188446
0.890411 0.409821 0.203796
0.930664 0.426697 0.232910
0.959412 0.444366 0.267395
0.980011 0.461456 0.298706
0.997223 0.477753 0.329681
0.217560 0.387146 0.217865
0.245544 0.377655 0.199799
0.282593 0.369019 0.183319
0.328949 0.358032 0.164246
0.384369 0.344971 0.144592
0.449890 0.335632 0.127075
0.574341 0.380920 0.149231
0.643463 0.398224 0.161102
0.709198 0.414124 0.171112
0.770050 0.429138 0.181305
0.828339 0.444031 0.191010
0.883575 0.458923 0.202393
0.930725 0.474304 0.222015
0.959747 0.490509 0.255463
0.979828 0.506714 0.290222
0.997223 0.518402 0.320648
0.255188 0.449097 0.264435
0.284943 0.441681 0.249268
0.321716 0.432648 0.231628
0.367767 0.423218 0.210907
0.422119 0.415497 0.189850
0.483582 0.410461 0.170471
0.548615 0.410034 0.156433
0.643158 0.451111 0.176849
0.706970 0.468719 0.187195
0.766907 0.484375 0.195435
0.823975 0.498932 0.201996
0.877808 0.513245 0.209839
0.930511 0.525879 0.216187
0.959717 0.537506 0.248962
0.979614 0.550354 0.287018
0.997223 0.560486 0.316406
0.280548 0.499207 0.301514
0.314392 0.497253 0.291077
0.350952 0.488892 0.272888
0.397003 0.480804 0.251007
0.450409 0.474426 0.228577
0.510223 0.471588 0.207825
0.566437 0.473541 0.191833
0.615662 0.477417 0.183319
0.702637 0.521149 0.202515
0.765076 0.541321 0.213196
0.820770 0.554504 0.219666
0.874268 0.566650 0.224487
0.924927 0.578156 0.229401
0.959106 0.588470 0.254974
0.979523 0.599335 0.291168
0.997223 0.607483 0.318909
0.319244 0.557129 0.327667
0.349609 0.555420 0.322632
0.383209 0.548187 0.308990
0.426636 0.540161 0.292511
0.478546 0.534180 0.270111
0.531372 0.532532 0.248627
0.584656 0.536316 0.230743
0.632660 0.542267 0.219696
0.679108 0.548431 0.211639
0.755371 0.583710 0.227051
0.818542 0.609955 0.239044
0.870819 0.623260 0.243774
0.920471 0.634857 0.247864
0.958923 0.644836 0.264069
0.979156 0.653381 0.304993
0.997223 0.660248 0.332672
0.366028 0.616394 0.355164
0.392883 0.614441 0.349518
0.422699 0.607422 0.337708
0.461731 0.599762 0.323273
0.506561 0.593292 0.308044
0.552368 0.591064 0.292603
0.602875 0.594543 0.273956
0.649506 0.600067 0.259674
0.693146 0.606750 0.249786
0.737762 0.614777 0.241058
0.804199 0.648224 0.251373
0.868225 0.681915 0.264435
0.917572 0.695496 0.267670
0.958405 0.706024 0.277069
0.978699 0.711731 0.322998
0.997223 0.717255 0.351135
0.418213 0.678772 0.384827
0.441925 0.676544 0.378693
0.467438 0.670013 0.366119
0.499878 0.665192 0.352448
0.535889 0.661194 0.338531
0.576538 0.658386 0.325226
0.621490 0.656891 0.312592
0.665771 0.659912 0.301208
0.706909 0.667511 0.290253
0.749420 0.677155 0.281403
0.792206 0.686401 0.271973
0.850342 0.716675 0.275726
0.914856 0.757751 0.289124
0.957886 0.770569 0.291107
0.978394 0.773926 0.343414
0.997223 0.777771 0.375031
0.472198 0.746887 0.418030
0.492401 0.744812 0.412231
0.512695 0.741333 0.401031
0.538849 0.737976 0.386963
0.569885 0.735352 0.372375
0.605316 0.733948 0.357971
0.645325 0.735565 0.345093
0.686066 0.739105 0.334717
0.723358 0.743622 0.327911
0.761993 0.749542 0.321350
0.801941 0.757111 0.313568
0.842682 0.764191 0.304352
0.893768 0.788605 0.299683
0.956757 0.838684 0.313843
0.977966 0.836792 0.367859
0.997223 0.840179 0.405792
0.519623 0.814697 0.450256
0.539764 0.813293 0.446411
0.557709 0.811890 0.436646
0.580017 0.811218 0.422638
0.606323 0.811188 0.407867
0.635986 0.811493 0.392761
0.669830 0.813232 0.378204
0.705902 0.816162 0.365204
0.739044 0.820129 0.356537
0.774109 0.825104 0.348694
0.810791 0.830750 0.341888
0.849121 0.836670 0.336029
0.888519 0.841766 0.329742
0.937622 0.866638 0.323608
0.977692 0.902710 0.396667
0.997223 0.900543 0.443390
0.564209 0.879364 0.476990
0.583557 0.877625 0.473206
0.598541 0.876587 0.465393
0.615845 0.876160 0.452637
0.636780 0.876160 0.438019
0.661224 0.876312 0.421448
0.689728 0.877136 0.404968
0.721588 0.878937 0.389679
0.751526 0.882111 0.379517
0.783661 0.886475 0.370178
0.817780 0.891663 0.361755
0.853790 0.897491 0.354675
0.891418 0.902863 0.347351
0.929871 0.905853 0.343475
0.971527 0.928619 0.413910
0.997223 0.950348 0.470398
0.603851 0.941986 0.497742
0.623322 0.940460 0.494995
0.636597 0.939331 0.489319
0.650177 0.938446 0.477875
0.666016 0.938110 0.463043
0.685516 0.938110 0.447937
0.709229 0.938599 0.430573
0.737183 0.940033 0.413269
0.763977 0.942505 0.401550
0.793243 0.946106 0.390686
0.824768 0.950806 0.380920
0.856506 0.950592 0.384430
0.890320 0.950500 0.396393
0.925934 0.950531 0.418152
0.962494 0.950470 0.449036
0.991943 0.976196 0.497223
0.637878 0.994629 0.514221
0.657562 0.993652 0.511841
0.668121 0.992889 0.506042
0.678375 0.993011 0.494537
0.691803 0.993561 0.482452
0.707855 0.994629 0.467560
0.727112 0.994629 0.451630
0.750977 0.994629 0.434753
0.774231 0.994629 0.424164
0.799744 0.994629 0.419556
0.827759 0.994629 0.420563
0.858093 0.994629 0.429352
0.890839 0.994629 0.447632
0.925537 0.994629 0.474884
0.960602 0.994629 0.505157
0.985229 0.994629 0.535706
0.061493 0.058990 0.066406
0.096710 0.062317 0.081726
0.141296 0.072601 0.095673
0.228729 0.087433 0.117218
0.346954 0.108978 0.141693
0.462402 0.127960 0.169373
0.557251 0.144867 0.195404
0.640991 0.161469 0.219971
0.718781 0.176880 0.243530
0.790710 0.191254 0.265656
0.842987 0.209015 0.287872
0.884033 0.228180 0.310272
0.923706 0.248199 0.333038
0.958160 0.268890 0.356781
0.979279 0.287292 0.378326
0.997223 0.308044 0.403320
0.066345 0.093140 0.097687
0.094788 0.094910 0.091858
0.140106 0.118469 0.105560
0.223145 0.143799 0.123077
0.336884 0.168793 0.148132
0.455200 0.190399 0.175568
0.549042 0.208649 0.201111
0.631134 0.226868 0.228424
0.707703 0.243866 0.254059
0.778809 0.259308 0.276825
0.844025 0.274811 0.299500
0.884674 0.291443 0.321747
0.923859 0.309540 0.345032
0.958221 0.328674 0.369446
0.979279 0.347290 0.393555
0.997223 0.367737 0.419647
0.081818 0.160309 0.125153
0.112488 0.162018 0.120544
0.138428 0.160706 0.110199
0.223358 0.187439 0.124847
0.333130 0.209686 0.143311
0.453247 0.230316 0.164703
0.545563 0.247528 0.186127
0.624847 0.263947 0.209503
0.700256 0.280701 0.235718
0.770264 0.296173 0.260193
0.835907 0.311859 0.284912
0.886139 0.328369 0.310913
0.924713 0.346313 0.337524
0.958466 0.366089 0.363739
0.979431 0.386810 0.389954
0.997223 0.407379 0.416046
0.107544 0.233368 0.165314
0.136353 0.235046 0.159363
0.162292 0.230255 0.140656
0.211578 0.225830 0.128357
0.333618 0.252838 0.147034
0.452850 0.271179 0.163940
0.546112 0.286102 0.180725
0.624542 0.300293 0.199219
0.697693 0.313934 0.218903
0.765869 0.326965 0.238678
0.829620 0.341064 0.258240
0.889709 0.356812 0.278290
0.926941 0.380280 0.308716
0.958954 0.405273 0.340027
0.979797 0.425507 0.369232
0.997223 0.443848 0.399872
0.133575 0.308472 0.211060
0.180328 0.311096 0.204193
0.211548 0.303192 0.182983
0.256805 0.295837 0.169922
0.314026 0.287384 0.156311
0.451630 0.312225 0.175323
0.547729 0.325531 0.189758
0.623840 0.341064 0.204620
0.695068 0.359894 0.220123
0.762299 0.378174 0.234192
0.824646 0.396362 0.249634
0.883881 0.412476 0.265137
0.928467 0.428680 0.290436
0.958984 0.446808 0.323547
0.979645 0.464783 0.354889
0.997223 0.481873 0.385590
0.183228 0.380920 0.260651
0.231812 0.384705 0.253296
0.261688 0.374573 0.228760
0.306152 0.365631 0.214325
0.360046 0.354919 0.200287
0.425476 0.342804 0.187286
0.550598 0.382507 0.206940
0.623505 0.399780 0.219116
0.693146 0.415314 0.228851
0.758423 0.430145 0.238586
0.819061 0.444763 0.249329
0.877716 0.459167 0.259827
0.928680 0.474609 0.276947
0.958984 0.491913 0.310486
0.979431 0.508606 0.344757
0.997223 0.520752 0.374420
0.220551 0.443481 0.306213
0.270538 0.447845 0.298065
0.302887 0.439117 0.274048
0.347290 0.429749 0.257294
0.400055 0.422150 0.241211
0.461426 0.417023 0.225983
0.529907 0.413910 0.213379
0.623138 0.450531 0.232727
0.690857 0.468140 0.243408
0.755096 0.483490 0.250641
0.814484 0.497833 0.258087
0.871765 0.511963 0.265045
0.925964 0.524719 0.272644
0.958984 0.537384 0.302979
0.979675 0.550659 0.338104
0.997223 0.561584 0.368317
0.246613 0.494141 0.343384
0.297211 0.498566 0.334656
0.333282 0.494293 0.312378
0.377777 0.486023 0.294067
0.429749 0.479614 0.276215
0.489380 0.476318 0.259094
0.550446 0.477325 0.245941
0.600342 0.480652 0.239502
0.690369 0.522919 0.258240
0.752655 0.539459 0.267548
0.811340 0.552368 0.273865
0.867340 0.564148 0.278534
0.920227 0.575714 0.283020
0.958954 0.586700 0.303772
0.979340 0.598328 0.340851
0.997223 0.607330 0.369629
0.282501 0.551880 0.369965
0.328217 0.552917 0.366455
0.366486 0.551544 0.346069
0.408356 0.543884 0.332703
0.459290 0.537994 0.314362
0.515747 0.535767 0.295898
0.569641 0.538605 0.281128
0.618713 0.543945 0.272766
0.666718 0.549866 0.266541
0.746063 0.584534 0.281525
0.809052 0.606750 0.291962
0.863892 0.619781 0.296478
0.915619 0.631287 0.300018
0.958374 0.641846 0.312073
0.979004 0.651611 0.352936
0.997223 0.659119 0.381042
0.327484 0.610992 0.394562
0.371857 0.611664 0.391541
0.407043 0.609467 0.371674
0.444855 0.601837 0.360443
0.490479 0.595367 0.348022
0.537720 0.592590 0.336182
0.589142 0.595398 0.321106
0.636749 0.600891 0.309601
0.681763 0.607452 0.301697
0.728180 0.614960 0.294189
0.797272 0.648193 0.304504
0.861237 0.677704 0.315796
0.912781 0.691071 0.318268
0.957733 0.702271 0.323120
0.978760 0.709290 0.368195
0.997223 0.715302 0.398346
0.378784 0.673553 0.421234
0.420959 0.673706 0.418396
0.454132 0.671204 0.397552
0.487427 0.665924 0.386292
0.522675 0.661224 0.375488
0.563324 0.658478 0.365601
0.609070 0.657379 0.356140
0.654114 0.659393 0.347717
0.696320 0.665955 0.339417
0.740234 0.675873 0.331512
0.784760 0.685486 0.322937
0.845245 0.715759 0.327118
0.910004 0.752594 0.338531
0.956665 0.765503 0.340179
0.978119 0.770782 0.388275
0.997223 0.775208 0.421021
0.436218 0.741669 0.451599
0.473938 0.742828 0.449463
0.503326 0.741180 0.431427
0.528107 0.737000 0.417664
0.558319 0.734253 0.406189
0.593384 0.732422 0.394806
0.633972 0.733948 0.385345
0.675415 0.737061 0.377869
0.713623 0.741486 0.373566
0.753723 0.747620 0.369324
0.794983 0.755157 0.363190
0.837158 0.762604 0.353973
0.890198 0.787201 0.349762
0.955383 0.832397 0.362213
0.977661 0.833527 0.411743
0.997223 0.837769 0.451263
0.486481 0.809448 0.477875
0.519348 0.810974 0.476471
0.549530 0.810547 0.463776
0.570862 0.809082 0.450562
0.596313 0.808533 0.438446
0.626221 0.808960 0.426300
0.660339 0.810822 0.415009
0.696808 0.813843 0.405090
0.730713 0.818054 0.398987
0.766663 0.823303 0.393616
0.804474 0.828918 0.388611
0.844116 0.834808 0.383728
0.884857 0.839996 0.377960
0.935516 0.864655 0.371948
0.977478 0.899414 0.439240
0.997223 0.897705 0.483307
0.529785 0.874542 0.500061
0.560028 0.875305 0.498871
0.591309 0.874817 0.490509
0.608582 0.873657 0.477020
0.628967 0.873566 0.465698
0.653229 0.874054 0.453735
0.681702 0.874786 0.440155
0.713684 0.876678 0.427887
0.744110 0.879944 0.419983
0.776947 0.884338 0.413116
0.811890 0.889709 0.406738
0.848969 0.895386 0.400848
0.887726 0.900909 0.394287
0.927856 0.904785 0.387207
0.971741 0.928802 0.455414
0.997223 0.947540 0.503815
0.572205 0.938446 0.519470
0.599213 0.938660 0.518097
0.629395 0.938232 0.511017
0.644745 0.937103 0.499481
0.660492 0.936310 0.488586
0.679443 0.936157 0.475494
0.702789 0.936584 0.462585
0.730591 0.937897 0.449066
0.757599 0.940308 0.439575
0.787323 0.944061 0.431030
0.819489 0.948822 0.423187
0.853119 0.950836 0.423615
0.888031 0.950714 0.435608
0.924561 0.950745 0.457947
0.962433 0.950714 0.484650
0.992310 0.976288 0.527069
0.608154 0.991882 0.534882
0.632751 0.991760 0.533722
0.660919 0.991333 0.527405
0.674286 0.991394 0.515320
0.686554 0.991608 0.504578
0.702789 0.992279 0.493805
0.722229 0.993530 0.480530
0.746124 0.994629 0.467621
0.769257 0.994629 0.461243
0.795197 0.994629 0.458069
0.823822 0.994629 0.459320
0.854919 0.994629 0.467377
0.888672 0.994629 0.483765
0.924042 0.994629 0.508484
0.959503 0.994629 0.534729
0.985504 0.994629 0.565582
0.062958 0.058716 0.110870
0.097961 0.060974 0.145142
0.133148 0.064331 0.149200
0.194641 0.073151 0.163391
0.313019 0.086060 0.197021
0.430023 0.102600 0.222626
0.534393 0.116943 0.245789
0.621918 0.133392 0.270935
0.704102 0.149414 0.294678
0.779816 0.164551 0.316956
0.837158 0.183105 0.338226
0.880127 0.205078 0.359802
0.921112 0.227661 0.381592
0.957428 0.250488 0.405029
0.979004 0.270386 0.425964
0.997223 0.292908 0.449554
0.065796 0.089508 0.154846
0.094788 0.091431 0.156647
0.131042 0.097565 0.151093
0.189484 0.114410 0.164001
0.302521 0.138367 0.189911
0.422058 0.159515 0.218964
0.525146 0.176636 0.242188
0.611359 0.193512 0.267487
0.692719 0.209747 0.291565
0.767792 0.224243 0.312744
0.837585 0.237427 0.332001
0.881195 0.256683 0.352814
0.921600 0.277344 0.374695
0.957550 0.298523 0.397949
0.979126 0.317078 0.420227
0.997223 0.338654 0.444427
0.073242 0.147705 0.182770
0.100403 0.151978 0.181610
0.130219 0.155792 0.174683
0.186768 0.172485 0.177734
0.296631 0.195801 0.196014
0.418365 0.216583 0.216858
0.520081 0.234253 0.236176
0.604523 0.252167 0.262085
0.684509 0.269714 0.287872
0.758636 0.287201 0.313416
0.827606 0.303528 0.337036
0.882141 0.320587 0.360077
0.921906 0.340149 0.384277
0.957642 0.359650 0.408356
0.979034 0.376434 0.429474
0.997223 0.395599 0.452881
0.083405 0.224518 0.220764
0.112518 0.227020 0.216064
0.144653 0.229034 0.210205
0.185028 0.227325 0.196808
0.297943 0.252838 0.215118
0.417084 0.273621 0.232727
0.520386 0.290344 0.248474
0.602386 0.306854 0.267975
0.680206 0.321930 0.287476
0.752441 0.336487 0.307434
0.819794 0.350708 0.328064
0.883698 0.365143 0.348663
0.923431 0.386719 0.375580
0.957855 0.409180 0.401520
0.979279 0.427765 0.424835
0.997223 0.444397 0.450378
0.110199 0.300018 0.263062
0.138702 0.303741 0.256287
0.184204 0.306122 0.250977
0.233093 0.301849 0.234558
0.289063 0.294739 0.223694
0.416901 0.318634 0.240082
0.523102 0.333893 0.253784
0.602570 0.347595 0.269257
0.678314 0.364166 0.284332
0.749542 0.381561 0.298798
0.815308 0.399109 0.314026
0.877380 0.416260 0.329895
0.925201 0.433411 0.353851
0.958527 0.450897 0.383270
0.979553 0.466675 0.410339
0.997223 0.482178 0.437347
0.135406 0.372742 0.311188
0.184204 0.377380 0.303162
0.236725 0.381226 0.296143
0.283051 0.375641 0.275116
0.336060 0.366486 0.263855
0.400970 0.355530 0.252838
0.526031 0.385193 0.268738
0.602875 0.404053 0.282257
0.676849 0.418976 0.291473
0.744965 0.433594 0.302277
0.809692 0.447662 0.311981
0.870453 0.461945 0.323486
0.925690 0.476776 0.338440
0.958527 0.494263 0.368988
0.979431 0.511169 0.402313
0.997223 0.521698 0.427307
0.175201 0.437073 0.356689
0.224945 0.442017 0.347229
0.278595 0.446564 0.339172
0.326263 0.441223 0.315308
0.377991 0.432526 0.301239
0.439117 0.426544 0.288422
0.509888 0.422272 0.277039
0.602539 0.452393 0.293365
0.674225 0.469818 0.304108
0.742065 0.484772 0.311432
0.805206 0.498505 0.317474
0.864441 0.512482 0.325378
0.921906 0.524719 0.332031
0.958527 0.537903 0.359375
0.979340 0.552032 0.394836
0.997223 0.562500 0.421661
0.201721 0.488098 0.393555
0.251923 0.493134 0.383667
0.306610 0.497986 0.374634
0.357391 0.496277 0.349854
0.408722 0.488708 0.333679
0.468170 0.484528 0.319061
0.534271 0.483948 0.306366
0.584961 0.486572 0.300995
0.673950 0.522614 0.317139
0.739502 0.538910 0.326569
0.802002 0.551666 0.331635
0.859863 0.563110 0.336823
0.915924 0.574219 0.339630
0.958221 0.585785 0.358154
0.979156 0.598053 0.394592
0.997223 0.607971 0.423462
0.236481 0.546265 0.419037
0.283417 0.548370 0.414093
0.335693 0.551147 0.407745
0.388397 0.551025 0.386414
0.439087 0.545197 0.369690
0.496796 0.542480 0.352753
0.554626 0.543701 0.338684
0.604462 0.547607 0.331238
0.654297 0.552856 0.325714
0.736786 0.586578 0.340210
0.799133 0.604584 0.348694
0.856537 0.617340 0.352814
0.911316 0.628754 0.354980
0.957703 0.639374 0.363495
0.979034 0.650269 0.403656
0.997223 0.658234 0.432190
0.280029 0.605286 0.440704
0.326111 0.607239 0.436157
0.374695 0.608002 0.433258
0.425568 0.607361 0.411407
0.471191 0.600372 0.400940
0.522308 0.596954 0.389984
0.574921 0.598602 0.376068
0.623566 0.603485 0.365631
0.670349 0.609650 0.358368
0.718323 0.616577 0.351563
0.790192 0.649109 0.361481
0.853943 0.674286 0.370911
0.907684 0.687469 0.373016
0.956726 0.698456 0.374817
0.978485 0.706909 0.418610
0.997223 0.713531 0.448303
0.329926 0.668091 0.464294
0.374786 0.669556 0.459747
0.421204 0.670074 0.457153
0.469757 0.669769 0.434143
0.507965 0.664612 0.424866
0.548920 0.661011 0.416809
0.595917 0.659912 0.408508
0.641998 0.661499 0.401154
0.685638 0.666870 0.393982
0.730957 0.675873 0.386230
0.777100 0.685577 0.378357
0.840057 0.715637 0.382477
0.904846 0.747986 0.391998
0.955261 0.761078 0.393036
0.977875 0.767731 0.437073
0.997223 0.772766 0.469666
0.386383 0.736053 0.487518
0.430054 0.738586 0.484467
0.473236 0.738922 0.482605
0.514862 0.738678 0.462646
0.544769 0.735291 0.451691
0.580261 0.733063 0.442352
0.621918 0.734039 0.434509
0.664185 0.736603 0.428497
0.703735 0.740814 0.424774
0.745117 0.746552 0.421936
0.788055 0.753937 0.416626
0.831604 0.761688 0.407135
0.886749 0.786163 0.403442
0.952789 0.826477 0.413635
0.977417 0.830536 0.458740
0.997223 0.834961 0.493073
0.443909 0.803253 0.509705
0.480896 0.806976 0.506500
0.516541 0.808258 0.505585
0.558716 0.808807 0.489838
0.584229 0.807617 0.478943
0.614349 0.807861 0.470520
0.649506 0.809692 0.461243
0.686859 0.812592 0.453125
0.721832 0.816742 0.447937
0.758972 0.821838 0.443634
0.798096 0.827637 0.439575
0.838867 0.833405 0.435547
0.881012 0.838562 0.430450
0.933350 0.862732 0.423767
0.977173 0.896118 0.482697
0.997223 0.894623 0.517120
0.486572 0.869385 0.525940
0.521393 0.872040 0.524475
0.553864 0.872711 0.523468
0.596527 0.872833 0.511536
0.618622 0.871796 0.501160
0.643280 0.872284 0.491486
0.672394 0.873383 0.481598
0.704956 0.875061 0.472687
0.736206 0.878387 0.466553
0.769867 0.882690 0.460632
0.805847 0.887878 0.455170
0.844147 0.893494 0.450073
0.884125 0.898926 0.444183
0.925629 0.902954 0.437500
0.972046 0.928986 0.494446
0.997223 0.944580 0.534454
0.531982 0.934540 0.544373
0.563141 0.936218 0.542725
0.592194 0.936035 0.541504
0.632660 0.936096 0.530640
0.650391 0.935028 0.519135
0.670624 0.934540 0.509918
0.694885 0.934875 0.500031
0.722992 0.936035 0.489319
0.750580 0.938507 0.482117
0.780884 0.942108 0.475616
0.813934 0.946716 0.469849
0.849213 0.951141 0.465881
0.885315 0.951019 0.476868
0.923279 0.951019 0.495789
0.961945 0.951080 0.518463
0.992798 0.976440 0.562286
0.571106 0.988098 0.557953
0.599518 0.989532 0.556641
0.625610 0.989197 0.555542
0.663269 0.989288 0.545410
0.678040 0.989410 0.532928
0.694092 0.990021 0.523285
0.714569 0.991211 0.513641
0.739929 0.993134 0.504059
0.763947 0.994629 0.497284
0.790283 0.994629 0.494568
0.819519 0.994629 0.496399
0.851593 0.994629 0.504852
0.885712 0.994629 0.518738
0.921295 0.994629 0.538574
0.958466 0.994629 0.567963
0.985779 0.994629 0.595703
0.064423 0.058380 0.155426
0.098816 0.059540 0.233246
0.134094 0.062927 0.239258
0.188995 0.066498 0.250671
0.280334 0.073486 0.258240
0.398285 0.081390 0.285858
0.506958 0.093750 0.307678
0.601837 0.108185 0.332184
0.688263 0.124512 0.356293
0.767609 0.141357 0.380829
0.831146 0.158508 0.399536
0.875824 0.182495 0.418732
0.918457 0.207245 0.439636
0.956665 0.231689 0.461243
0.978790 0.252838 0.481506
0.997223 0.277252 0.500244
0.065552 0.086731 0.224915
0.095886 0.089783 0.241150
0.132019 0.094269 0.237946
0.180542 0.099731 0.244843
0.270477 0.114258 0.253448
0.390594 0.134277 0.281006
0.495697 0.151123 0.304260
0.589600 0.168549 0.329468
0.676483 0.182770 0.350800
0.755737 0.196991 0.371460
0.828827 0.210571 0.390717
0.876526 0.232300 0.410400
0.918915 0.254761 0.430328
0.956757 0.278717 0.453003
0.978851 0.299408 0.474579
0.997223 0.322235 0.494781
0.072876 0.140564 0.257111
0.098938 0.143951 0.264343
0.128815 0.147125 0.256653
0.173889 0.157349 0.249939
0.262573 0.170715 0.250122
0.383759 0.193024 0.274811
0.486786 0.210510 0.294220
0.581238 0.227203 0.317902
0.666229 0.243896 0.342590
0.745117 0.259827 0.366241
0.818024 0.273132 0.385864
0.877563 0.288544 0.404053
0.919281 0.309326 0.424835
0.956879 0.330444 0.446930
0.978882 0.349976 0.469208
0.997223 0.370056 0.489777
0.080841 0.207825 0.283417
0.106201 0.212433 0.284698
0.135651 0.217407 0.280762
0.171906 0.224762 0.277191
0.260986 0.238251 0.273254
0.377899 0.261169 0.286926
0.484283 0.278198 0.299927
0.577545 0.293152 0.314362
0.660645 0.308136 0.334076
0.738037 0.323212 0.355713
0.809052 0.339569 0.378632
0.876038 0.356201 0.402039
0.919678 0.375000 0.424591
0.956726 0.392303 0.444519
0.978790 0.410980 0.467133
0.997223 0.431396 0.489929
0.092377 0.292480 0.332275
0.116241 0.296021 0.323730
0.144196 0.297638 0.313690
0.195831 0.301666 0.308197
0.263397 0.303040 0.299316
0.379883 0.324982 0.313934
0.489349 0.342590 0.327881
0.578094 0.358276 0.343079
0.659088 0.372742 0.357971
0.733734 0.387970 0.371796
0.802765 0.402771 0.385040
0.868042 0.417542 0.399475
0.920929 0.433746 0.418152
0.956879 0.448669 0.441162
0.978912 0.464691 0.467346
0.997223 0.481140 0.492065
0.109131 0.364166 0.371735
0.137512 0.369476 0.364960
0.182892 0.373199 0.356476
0.248199 0.379211 0.349426
0.310822 0.379181 0.335358
0.374969 0.370087 0.327271
0.492523 0.391510 0.340820
0.579254 0.411163 0.354370
0.657501 0.425995 0.364380
0.730072 0.439911 0.374939
0.798431 0.453339 0.384705
0.862213 0.466034 0.394501
0.922363 0.478821 0.406189
0.957489 0.491974 0.429077
0.979187 0.506683 0.455658
0.997223 0.519348 0.481995
0.128296 0.430267 0.418182
0.171570 0.435608 0.409180
0.225891 0.439941 0.399597
0.292419 0.446777 0.390472
0.354156 0.447083 0.370911
0.414520 0.439758 0.360504
0.485352 0.434113 0.351349
0.578644 0.457520 0.364380
0.654877 0.474335 0.374939
0.726959 0.488708 0.382690
0.793030 0.501953 0.389221
0.856171 0.514954 0.395905
0.915833 0.526764 0.404053
0.957611 0.537109 0.421906
0.979156 0.548187 0.449219
