Color Lookup Presets Effects/z1 (80).CUBE
#Created by: Adobe Photoshop Export Color Lookup Plugin
#Copyright: (C) Copyright 2015 zafizack photography
TITLE "zafizack-wd-01"
#LUT size
LUT_3D_SIZE 16
#data domain
DOMAIN_MIN 0.0 0.0 0.0
DOMAIN_MAX 1.0 1.0 1.0
#LUT data points
0.043640 0.000000 0.029022
0.057556 0.000000 0.030975
0.203247 0.013184 0.043365
0.329956 0.042145 0.049133
0.422058 0.078918 0.082306
0.515015 0.110504 0.116730
0.609955 0.155792 0.142822
0.702545 0.189941 0.164490
0.765991 0.208771 0.178040
0.811127 0.220398 0.187378
0.853699 0.230438 0.195801
0.894379 0.239655 0.205231
0.934357 0.247650 0.214264
0.973602 0.254883 0.222931
1.000000 0.261627 0.231567
1.000000 0.268768 0.240753
0.041534 0.000000 0.032410
0.052734 0.000061 0.032806
0.200348 0.024689 0.046295
0.328430 0.053284 0.050110
0.420776 0.089691 0.082489
0.513550 0.119659 0.116119
0.608826 0.162537 0.142639
0.701813 0.195313 0.164185
0.765289 0.213562 0.177673
0.810547 0.224915 0.187042
0.853180 0.234680 0.195404
0.893951 0.243591 0.204529
0.934143 0.251556 0.213287
0.973328 0.258667 0.221893
1.000000 0.265411 0.230408
1.000000 0.272369 0.239624
0.005859 0.088806 0.060486
0.016357 0.091705 0.061218
0.133972 0.107178 0.066101
0.300049 0.153931 0.077271
0.398865 0.179779 0.094116
0.489746 0.199280 0.120514
0.585541 0.223480 0.142365
0.679840 0.245880 0.161682
0.756927 0.261871 0.175507
0.803802 0.270630 0.184387
0.847321 0.278229 0.192474
0.889160 0.284454 0.199677
0.930206 0.290802 0.206909
0.970245 0.296997 0.214050
1.000000 0.302582 0.221222
1.000000 0.308716 0.229187
0.000000 0.197968 0.074738
0.000000 0.199738 0.075348
0.060333 0.221191 0.076111
0.214539 0.228638 0.083038
0.360168 0.260559 0.128479
0.453339 0.272522 0.140533
0.547546 0.286865 0.154419
0.640869 0.303162 0.167358
0.727844 0.317841 0.179047
0.793427 0.329529 0.188660
0.838196 0.337585 0.196869
0.881256 0.345123 0.204559
0.923523 0.350372 0.210114
0.965149 0.355438 0.215240
1.000000 0.360870 0.221008
1.000000 0.367493 0.228333
0.000000 0.279572 0.091064
0.000000 0.280548 0.091461
0.026672 0.293213 0.096283
0.119843 0.311005 0.094971
0.279907 0.313843 0.118073
0.410614 0.337677 0.158386
0.505829 0.347534 0.178864
0.601440 0.358521 0.182617
0.690521 0.371094 0.188507
0.772125 0.383881 0.194153
0.829102 0.393860 0.198669
0.873352 0.402130 0.203735
0.916718 0.410187 0.209290
0.959167 0.418091 0.215332
1.000000 0.425568 0.220917
1.000000 0.434479 0.228119
0.000000 0.341949 0.108215
0.000000 0.342346 0.109375
0.000244 0.350098 0.118652
0.086243 0.361511 0.121948
0.199249 0.382996 0.115356
0.331268 0.381683 0.150909
0.460052 0.411926 0.183075
0.557953 0.420807 0.202972
0.650055 0.431915 0.205872
0.735779 0.443634 0.206329
0.814148 0.455597 0.207855
0.864929 0.464447 0.209564
0.909546 0.472473 0.211731
0.953217 0.480560 0.214630
0.996429 0.488007 0.218018
1.000000 0.496887 0.223328
0.000000 0.391266 0.132751
0.000000 0.391571 0.133850
0.000000 0.396698 0.144684
0.066589 0.406555 0.148285
0.147583 0.418793 0.147736
0.267181 0.444763 0.135376
0.374237 0.449524 0.173187
0.505524 0.483154 0.205475
0.609100 0.496521 0.212769
0.697968 0.507660 0.221344
0.780884 0.518646 0.220459
0.850067 0.528503 0.219330
0.901764 0.536957 0.219482
0.946869 0.544434 0.219788
0.991058 0.551758 0.220001
1.000000 0.560272 0.222565
0.000000 0.433594 0.156097
0.000000 0.433899 0.156982
0.000000 0.439301 0.165619
0.039703 0.447205 0.170563
0.127838 0.458984 0.169495
0.223083 0.481689 0.159790
0.321136 0.509949 0.154236
0.417114 0.521515 0.185730
0.552490 0.553101 0.217499
0.659698 0.570465 0.219116
0.747894 0.581512 0.227722
0.829681 0.592285 0.230042
0.891449 0.600952 0.228973
0.940186 0.607880 0.227631
0.985565 0.614624 0.226410
1.000000 0.622620 0.226105
0.000000 0.472168 0.174255
0.000000 0.472565 0.175049
0.000000 0.479095 0.181519
0.007538 0.487610 0.186584
0.112823 0.501251 0.184204
0.187469 0.519196 0.177063
0.289124 0.556061 0.155029
0.369781 0.578918 0.163940
0.469025 0.590546 0.195313
0.603760 0.620453 0.224854
0.712738 0.640961 0.229736
0.801727 0.652557 0.232117
0.875580 0.661835 0.234619
0.933075 0.669525 0.234833
0.979889 0.676025 0.234406
1.000000 0.683228 0.232910
0.009369 0.509918 0.187714
0.009216 0.510315 0.188324
0.012238 0.520294 0.192291
0.016632 0.532013 0.195007
0.093811 0.546753 0.193024
0.173950 0.563416 0.186035
0.261383 0.592865 0.169342
0.345490 0.631073 0.141632
0.421326 0.645447 0.171478
0.525818 0.656952 0.202911
0.657715 0.685425 0.230896
0.769165 0.708435 0.237976
0.859039 0.720825 0.236115
0.925812 0.728699 0.238312
0.974030 0.734833 0.238434
1.000000 0.741974 0.237061
0.025787 0.551941 0.195313
0.026123 0.552856 0.195648
0.031006 0.565247 0.197479
0.036377 0.578125 0.198792
0.062042 0.591797 0.198578
0.163788 0.608398 0.191101
0.238556 0.630768 0.178345
0.322662 0.667114 0.152557
0.394470 0.695129 0.146362
0.479126 0.708496 0.178864
0.586212 0.720764 0.209900
0.714966 0.748688 0.236877
0.828766 0.773834 0.244873
0.912262 0.786621 0.240814
0.967987 0.793060 0.242096
1.000000 0.799866 0.241455
0.044891 0.596588 0.198792
0.045197 0.597565 0.199097
0.050659 0.610474 0.199921
0.056549 0.623810 0.200104
0.062683 0.637207 0.199768
0.149048 0.652832 0.193817
0.221100 0.670898 0.183014
0.303589 0.703430 0.160248
0.375183 0.738525 0.129395
0.448090 0.755341 0.152435
0.540527 0.769348 0.186584
0.649689 0.782745 0.217285
0.774261 0.811157 0.242981
0.886169 0.838318 0.251770
0.961487 0.851959 0.248169
1.000000 0.858673 0.245789
0.064331 0.641296 0.199951
0.064789 0.642365 0.200165
0.070679 0.655609 0.199951
0.076691 0.669098 0.199341
0.083252 0.682800 0.197968
0.120209 0.697052 0.194611
0.208557 0.713318 0.184296
0.286530 0.740387 0.164825
0.356781 0.773438 0.136505
0.426666 0.799255 0.124176
0.506409 0.813599 0.159882
0.605072 0.828857 0.195129
0.714600 0.844025 0.224823
0.836548 0.874207 0.249634
0.942596 0.897675 0.254791
1.000000 0.907166 0.250153
0.084412 0.686584 0.198975
0.084839 0.687714 0.199158
0.090912 0.701050 0.197998
0.097290 0.714691 0.196503
0.103729 0.728424 0.194519
0.110291 0.741974 0.192078
0.195465 0.757233 0.183167
0.269104 0.778320 0.167267
0.340790 0.809021 0.140808
0.407715 0.838562 0.107574
0.480682 0.855286 0.130463
0.567139 0.870972 0.168335
0.669708 0.888367 0.203308
0.780853 0.902863 0.230194
0.908691 0.929047 0.250183
1.000000 0.939728 0.243896
0.103729 0.730469 0.196411
0.104248 0.731567 0.196381
0.110291 0.745056 0.194824
0.116699 0.758667 0.192566
0.123169 0.772247 0.189758
0.129761 0.785675 0.186737
0.169281 0.799469 0.181000
0.250305 0.815857 0.167969
0.326569 0.844177 0.142822
0.389893 0.872070 0.112366
0.462372 0.893463 0.099304
0.540558 0.907227 0.139526
0.635315 0.923065 0.177094
0.743774 0.939301 0.208038
0.855225 0.952850 0.229401
0.993805 0.969330 0.238708
0.120697 0.769165 0.192841
0.121185 0.770233 0.192841
0.127319 0.783691 0.190704
0.133606 0.797180 0.187927
0.139954 0.810547 0.184784
0.146362 0.823792 0.181091
0.152863 0.836853 0.176971
0.233185 0.850769 0.166382
0.315369 0.876343 0.142639
0.377655 0.902771 0.113831
0.450012 0.925903 0.074890
0.523743 0.938782 0.113312
0.613892 0.950623 0.152893
0.719971 0.965363 0.185272
0.831421 0.980652 0.208527
0.941711 0.993805 0.224457
0.043854 0.000000 0.035767
0.057678 0.000000 0.037872
0.203369 0.012878 0.051483
0.329956 0.042053 0.058899
0.422058 0.078888 0.092194
0.515015 0.110352 0.126160
0.610260 0.154327 0.149750
0.702759 0.188629 0.170959
0.766113 0.207550 0.184204
0.811218 0.219177 0.193573
0.853790 0.229248 0.201996
0.894409 0.238373 0.211365
0.934357 0.246429 0.220215
0.973602 0.253662 0.228760
1.000000 0.260498 0.237274
1.000000 0.267700 0.246582
0.041626 0.000000 0.039490
0.052856 0.000061 0.039886
0.200470 0.024323 0.054535
0.328613 0.052582 0.059662
0.421112 0.087677 0.090851
0.514191 0.118073 0.124054
0.609161 0.161041 0.148987
0.701996 0.194183 0.170074
0.765411 0.212433 0.183350
0.810608 0.223755 0.192719
0.853302 0.233490 0.201111
0.893982 0.242462 0.210297
0.934143 0.250366 0.219025
0.973419 0.257599 0.227478
1.000000 0.264221 0.235992
1.000000 0.271332 0.245117
0.003052 0.086914 0.069000
0.013092 0.089569 0.069763
0.134338 0.107910 0.075134
0.300171 0.153412 0.085785
0.399170 0.179047 0.101929
0.490021 0.198425 0.127899
0.585876 0.222626 0.149475
0.680573 0.244720 0.168182
0.757507 0.260132 0.181366
0.804047 0.268402 0.189667
0.847626 0.275635 0.197144
0.889374 0.282074 0.204437
0.930359 0.288696 0.211700
0.970306 0.294983 0.218781
1.000000 0.300781 0.226166
1.000000 0.307220 0.234283
0.000000 0.196381 0.083038
0.000000 0.198181 0.083679
0.056946 0.219177 0.085724
0.215210 0.229492 0.091339
0.360382 0.260345 0.135468
0.453552 0.272247 0.147278
0.547821 0.286316 0.160553
0.641205 0.302582 0.173523
0.728210 0.317200 0.185120
0.793457 0.328674 0.195007
0.838287 0.336761 0.203247
0.881317 0.344147 0.210968
0.923676 0.348999 0.216003
0.965210 0.353790 0.220825
1.000000 0.358704 0.226196
1.000000 0.364960 0.232910
0.000000 0.278442 0.098663
0.000000 0.279388 0.099121
0.023529 0.291901 0.104370
0.117889 0.309692 0.104218
0.280243 0.314606 0.124817
0.410797 0.337555 0.164764
0.506073 0.347260 0.184357
0.601685 0.358154 0.187714
0.690857 0.370667 0.193695
0.772308 0.383331 0.199768
0.829193 0.393219 0.204559
0.873383 0.401428 0.210022
0.916748 0.409393 0.215485
0.959198 0.417358 0.221497
1.000000 0.424744 0.227203
1.000000 0.433624 0.234558
0.000000 0.340851 0.115356
0.000000 0.341339 0.116333
0.000000 0.348999 0.125793
0.083496 0.360382 0.129425
0.197784 0.381775 0.123810
0.331543 0.382416 0.156403
0.460327 0.411835 0.187744
0.558167 0.420715 0.207947
0.650208 0.431641 0.210449
0.736053 0.443268 0.211151
0.814178 0.455170 0.212982
0.865051 0.463928 0.215302
0.909576 0.471832 0.217712
0.953308 0.479919 0.220642
0.996429 0.487213 0.224152
1.000000 0.496185 0.229675
0.000000 0.390259 0.139252
0.000000 0.390656 0.140259
0.000000 0.395844 0.150757
0.063934 0.405548 0.154572
0.145996 0.417969 0.154144
0.266754 0.445587 0.139740
0.374481 0.450104 0.177643
0.505951 0.483276 0.209625
0.609314 0.496368 0.217285
0.698120 0.507507 0.225830
0.781097 0.518341 0.224854
0.850098 0.528168 0.224121
0.901825 0.536438 0.224579
0.946869 0.543976 0.225159
0.991058 0.551147 0.225677
1.000000 0.559601 0.228729
0.000000 0.432709 0.161926
0.000000 0.433105 0.162567
0.000000 0.438477 0.170898
0.037109 0.446472 0.175903
0.125732 0.458160 0.175049
0.221680 0.480865 0.165771
0.320984 0.510803 0.157867
0.417480 0.522186 0.189667
0.552887 0.553345 0.221497
0.659943 0.570343 0.222992
0.748016 0.581299 0.231934
0.829865 0.592194 0.234192
0.891510 0.600555 0.233551
0.940216 0.607513 0.232361
0.985565 0.614258 0.231415
1.000000 0.622162 0.231720
0.000000 0.471466 0.179382
0.000000 0.471832 0.180145
0.000000 0.478394 0.186432
0.004761 0.487061 0.191345
0.110840 0.500732 0.189056
0.185638 0.518555 0.182190
0.287964 0.555481 0.160675
0.369598 0.579651 0.167175
0.469574 0.591248 0.198853
0.604065 0.620544 0.228668
0.713013 0.640808 0.233459
0.801941 0.652313 0.236176
0.875671 0.661621 0.238678
0.933136 0.669189 0.239227
0.979889 0.675568 0.238831
1.000000 0.682953 0.237885
0.007080 0.509277 0.192200
0.006927 0.509705 0.192932
0.010101 0.519745 0.196594
0.014618 0.531525 0.199341
0.091766 0.546173 0.197479
0.172394 0.562988 0.190704
0.259827 0.592133 0.174469
0.344635 0.631073 0.145996
0.421265 0.645966 0.174469
0.526337 0.657501 0.206207
0.658081 0.685577 0.234772
0.769379 0.708405 0.241699
0.859161 0.720581 0.240173
0.925812 0.728485 0.242523
0.974030 0.734619 0.242676
1.000000 0.741669 0.241486
0.023773 0.551422 0.199585
0.024017 0.552307 0.199951
0.029022 0.564728 0.201752
0.034393 0.577576 0.203064
0.059937 0.591309 0.202698
0.162170 0.607941 0.195404
0.236755 0.630096 0.182983
0.321289 0.666473 0.157745
0.393921 0.695679 0.148804
0.479095 0.709076 0.181793
0.586731 0.721222 0.213348
0.715271 0.748932 0.240631
0.829041 0.773773 0.248779
0.912384 0.786407 0.244690
0.967987 0.792786 0.246155
1.000000 0.799683 0.245728
0.042847 0.596161 0.202911
0.043243 0.597198 0.203094
0.048828 0.610107 0.203827
0.054596 0.623413 0.204102
0.060852 0.636902 0.203735
0.147339 0.652527 0.197876
0.219727 0.670563 0.187256
0.302185 0.702942 0.164825
0.373871 0.738037 0.134705
0.447571 0.755890 0.154846
0.540344 0.769836 0.189514
0.649841 0.783295 0.220642
0.774628 0.811340 0.246918
0.886292 0.838318 0.255646
0.961487 0.851837 0.252167
1.000000 0.858368 0.249786
0.062531 0.640961 0.203918
0.062836 0.642029 0.204041
0.068817 0.655273 0.203827
0.074982 0.668854 0.203125
0.081390 0.682495 0.201813
0.118164 0.696869 0.198364
0.207153 0.713013 0.188324
0.284943 0.739990 0.169250
0.355499 0.772980 0.141479
0.425873 0.799713 0.126190
0.505737 0.813934 0.162415
0.604858 0.829254 0.198151
0.714691 0.844452 0.228241
0.836761 0.874359 0.253540
0.942810 0.897644 0.258881
1.000000 0.907043 0.254333
0.082642 0.686371 0.202789
0.082947 0.687439 0.202972
0.089172 0.700928 0.201813
0.095398 0.714478 0.200348
0.101959 0.728149 0.198334
0.108612 0.741821 0.195831
0.193909 0.757019 0.187134
0.267456 0.778046 0.171539
0.339508 0.808777 0.145477
0.406342 0.838379 0.112762
0.479919 0.855652 0.132568
0.566620 0.871338 0.170898
0.669464 0.888763 0.206451
0.780945 0.903229 0.233704
0.908905 0.929169 0.254333
1.000000 0.939636 0.248108
0.101990 0.730255 0.200195
0.102448 0.731415 0.200256
0.108704 0.744995 0.198456
0.114960 0.758575 0.196381
0.121490 0.772125 0.193634
0.128052 0.785553 0.190521
0.167450 0.799469 0.184875
0.248505 0.815704 0.172119
0.325134 0.843964 0.147400
0.388397 0.871948 0.117401
0.461578 0.893921 0.100922
0.539795 0.907501 0.141754
0.634827 0.923370 0.179901
0.743408 0.939575 0.211273
0.855316 0.953156 0.233276
0.993805 0.969269 0.243195
0.118958 0.768768 0.196686
0.119324 0.769836 0.196594
0.125458 0.783295 0.194458
0.131805 0.796844 0.191803
0.138245 0.810181 0.188660
0.144684 0.823456 0.184906
0.151123 0.836517 0.180878
0.231750 0.850494 0.170532
0.314209 0.876038 0.147064
0.376526 0.902557 0.118652
0.448883 0.925690 0.080322
0.523224 0.938812 0.115631
0.613464 0.950714 0.155762
0.719757 0.965393 0.188599
0.831543 0.980713 0.212433
0.941986 0.993896 0.228790
0.039154 0.000000 0.097107
0.055267 0.000000 0.101105
0.216217 0.008881 0.127014
0.332275 0.040863 0.140411
0.422882 0.077545 0.169983
0.516113 0.109528 0.196503
0.611450 0.152618 0.214569
0.704529 0.184875 0.229431
0.766510 0.202515 0.239929
0.811584 0.213806 0.248383
0.854095 0.223511 0.256165
0.894684 0.232666 0.264832
0.934509 0.240875 0.273102
0.973694 0.248291 0.281342
1.000000 0.255371 0.290009
1.000000 0.263031 0.299561
0.035431 0.000000 0.099365
0.048248 0.000061 0.101471
0.211243 0.019409 0.128357
0.330139 0.050873 0.140259
0.421936 0.086334 0.169006
0.515167 0.117157 0.195129
0.610626 0.158142 0.212799
0.703796 0.189484 0.227753
0.765930 0.206573 0.238312
0.811096 0.217621 0.246643
0.853668 0.227051 0.254486
0.894318 0.236084 0.262939
0.934357 0.244110 0.271210
0.973450 0.251495 0.279419
1.000000 0.258484 0.287903
1.000000 0.266052 0.297485
0.000000 0.079681 0.129730
0.000061 0.081543 0.131531
0.140900 0.105072 0.142792
0.301910 0.149780 0.155884
0.403839 0.169128 0.167725
0.497498 0.184875 0.185547
0.593781 0.210632 0.201508
0.687805 0.234222 0.216492
0.759155 0.249695 0.228058
0.805176 0.258820 0.236176
0.848450 0.266846 0.243805
0.889893 0.274109 0.251526
0.930664 0.280792 0.258698
0.970520 0.287018 0.265900
1.000000 0.293060 0.273346
1.000000 0.299927 0.281860
0.000000 0.183624 0.148224
0.000000 0.185394 0.149536
0.028687 0.205353 0.158020
0.218140 0.234406 0.159027
0.362122 0.258484 0.194366
0.456085 0.269226 0.203918
0.550873 0.282593 0.215851
0.645416 0.297394 0.226563
0.732971 0.309814 0.236023
0.795807 0.317017 0.241333
0.840424 0.321869 0.245911
0.883453 0.326050 0.250000
0.925537 0.330475 0.254211
0.966461 0.335754 0.259552
1.000000 0.341003 0.265015
1.000000 0.347809 0.272430
0.000000 0.269104 0.157776
0.000000 0.270050 0.158478
0.000000 0.282074 0.165710
0.100555 0.299622 0.171417
0.282776 0.319763 0.178101
0.412262 0.336212 0.219116
0.508423 0.345459 0.231567
0.604523 0.355499 0.235626
0.693970 0.367096 0.241821
0.775726 0.379120 0.248413
0.829987 0.388031 0.254730
0.874084 0.395874 0.261200
0.917206 0.403473 0.267487
0.959595 0.409210 0.272064
1.000000 0.413910 0.275848
1.000000 0.419708 0.280762
0.000000 0.332672 0.169983
0.000000 0.333099 0.170715
0.000000 0.340759 0.179596
0.061829 0.351685 0.184906
0.186829 0.373047 0.185760
0.333466 0.387695 0.198853
0.462799 0.410278 0.227264
0.560059 0.419769 0.252686
0.652954 0.429626 0.253021
0.739105 0.440399 0.254944
0.815308 0.451508 0.258240
0.865723 0.459686 0.262238
0.910095 0.467102 0.266663
0.953644 0.474609 0.271393
0.996460 0.481659 0.276062
1.000000 0.490540 0.283295
0.000000 0.382935 0.188202
0.000000 0.383301 0.188995
0.000000 0.388885 0.197662
0.042938 0.398376 0.202057
0.134064 0.411346 0.203705
0.258759 0.439270 0.195007
0.376251 0.455841 0.212708
0.509460 0.484283 0.245575
0.611542 0.495026 0.257233
0.700409 0.506104 0.267059
0.783661 0.516113 0.266144
0.850952 0.525146 0.266968
0.902252 0.532928 0.269531
0.947174 0.539917 0.272247
0.991211 0.546661 0.275482
1.000000 0.554962 0.280670
0.000000 0.426300 0.205231
0.000000 0.426605 0.206024
0.000000 0.432251 0.212982
0.015747 0.440491 0.217499
0.108612 0.452332 0.217926
0.212738 0.476044 0.211823
0.318451 0.515747 0.190186
0.420288 0.527832 0.220825
0.556091 0.554565 0.255310
0.662476 0.569122 0.257660
0.750214 0.579895 0.270935
0.832123 0.590363 0.275513
0.892395 0.598114 0.274963
0.940491 0.604523 0.276031
0.985687 0.610657 0.277710
1.000000 0.618347 0.281189
0.000000 0.465790 0.218903
0.000000 0.466187 0.219452
0.000000 0.473206 0.224792
0.000000 0.482208 0.229065
0.094147 0.495728 0.227722
0.175598 0.514496 0.222382
0.280304 0.551605 0.205353
0.369171 0.585541 0.193451
0.472931 0.596405 0.227814
0.607086 0.621979 0.260376
0.715363 0.640106 0.266235
0.803833 0.650818 0.273407
0.876556 0.659637 0.278931
0.933441 0.667023 0.281372
0.980072 0.672943 0.282196
1.000000 0.679871 0.284149
0.000000 0.504517 0.228882
0.000000 0.504974 0.229431
0.000000 0.515411 0.232483
0.000000 0.527344 0.234680
0.074188 0.542084 0.233337
0.158630 0.558746 0.227814
0.251221 0.588715 0.214142
0.337799 0.627869 0.190216
0.421967 0.651184 0.199371
0.530365 0.662231 0.234467
0.660767 0.687134 0.265472
0.771454 0.707855 0.274323
0.860077 0.719055 0.276245
0.926208 0.726532 0.281372
0.974213 0.732361 0.283997
1.000000 0.739227 0.285706
0.006348 0.547424 0.234283
0.006592 0.548340 0.234558
0.011932 0.560974 0.235962
0.017609 0.574127 0.236694
0.041138 0.587952 0.236450
0.147949 0.604340 0.230408
0.226929 0.627106 0.219482
0.313507 0.663788 0.197815
0.391602 0.700806 0.169830
0.480347 0.713623 0.206451
0.590546 0.725555 0.241486
0.717987 0.750366 0.271698
0.830872 0.773438 0.281494
0.913116 0.784698 0.279205
0.968262 0.790649 0.283997
1.000000 0.797211 0.286011
0.026337 0.592712 0.236176
0.026672 0.593750 0.236450
0.032379 0.606842 0.236816
0.038452 0.620300 0.236816
0.044800 0.633972 0.236237
0.132294 0.649597 0.231201
0.207153 0.667267 0.222260
0.292877 0.700195 0.202667
0.366669 0.735901 0.176147
0.446228 0.760162 0.176422
0.541534 0.773865 0.214722
0.653229 0.787170 0.249359
0.777008 0.812775 0.278717
0.887817 0.837921 0.288788
0.961700 0.850250 0.286499
1.000000 0.856262 0.286194
0.046600 0.638092 0.236237
0.047089 0.639221 0.236359
0.053070 0.652557 0.235992
0.059479 0.666321 0.235168
0.065948 0.680145 0.233826
0.101318 0.694489 0.230835
0.194550 0.710724 0.222015
0.274170 0.737427 0.205475
0.346405 0.770782 0.181183
0.421692 0.802765 0.148712
0.504669 0.817657 0.184692
0.605774 0.832947 0.224152
0.717499 0.848175 0.257843
0.839233 0.875854 0.286285
0.943726 0.897461 0.292908
1.000000 0.905914 0.289063
0.067352 0.684235 0.234619
0.067810 0.685303 0.234680
0.073975 0.698853 0.233612
0.080536 0.712677 0.232117
0.087006 0.726501 0.230225
0.093811 0.740326 0.227814
0.180145 0.755432 0.220306
0.254791 0.775879 0.206909
0.329132 0.806946 0.183990
0.396912 0.836853 0.155365
0.476471 0.859161 0.151337
0.565033 0.874725 0.193939
0.669769 0.892242 0.233337
0.783417 0.906555 0.264160
0.911194 0.929932 0.288361
1.000000 0.939117 0.283386
0.087189 0.728699 0.231812
0.087555 0.729736 0.231934
0.093872 0.743317 0.230316
0.100220 0.757080 0.228241
0.106842 0.770813 0.225677
0.113495 0.784454 0.222839
0.151031 0.798279 0.218048
0.233856 0.813812 0.207306
0.313751 0.842529 0.185272
0.378326 0.870941 0.158661
0.455750 0.896149 0.122131
0.536621 0.910004 0.161926
0.633362 0.925720 0.204193
0.744263 0.941925 0.239502
0.858215 0.955444 0.265076
0.995300 0.969147 0.278839
0.103180 0.765198 0.228882
0.103668 0.766296 0.228790
0.109833 0.779907 0.226959
0.116119 0.793549 0.224457
0.122650 0.807098 0.221680
0.129028 0.820526 0.218353
0.135590 0.833801 0.214630
0.219421 0.847778 0.205444
0.303864 0.873627 0.184387
0.367584 0.900665 0.158722
0.441040 0.924255 0.124176
0.521729 0.939575 0.136078
0.614380 0.951630 0.180725
0.722321 0.966248 0.217438
0.836517 0.981659 0.244995
0.948395 0.994659 0.264832
0.033325 0.000000 0.167267
0.051727 0.000000 0.171783
0.228638 0.002960 0.204285
0.353302 0.046753 0.225128
0.436188 0.080444 0.245728
0.518036 0.109222 0.258514
0.613647 0.152618 0.273438
0.706787 0.184814 0.286987
0.766754 0.201904 0.296478
0.811584 0.213226 0.304626
0.854095 0.222839 0.312347
0.894745 0.232117 0.321045
0.934570 0.240387 0.329498
0.973694 0.247803 0.338318
1.000000 0.254913 0.347626
1.000000 0.262543 0.358276
0.027710 0.000000 0.168732
0.041626 0.000000 0.171295
0.223572 0.011963 0.205566
0.350677 0.056183 0.224396
0.432678 0.088440 0.243195
0.516998 0.116821 0.257263
0.612549 0.158173 0.271973
0.705963 0.189484 0.285309
0.766174 0.206085 0.295013
0.811066 0.217163 0.303101
0.853668 0.226654 0.310822
0.894287 0.235626 0.319336
0.934357 0.243652 0.327698
0.973450 0.251038 0.336426
1.000000 0.258026 0.345734
1.000000 0.265533 0.356232
0.000000 0.067566 0.187225
0.000061 0.069183 0.189453
0.127319 0.085083 0.207947
0.313721 0.145813 0.224823
0.404999 0.167999 0.234436
0.497986 0.184692 0.248718
0.594604 0.209900 0.260956
0.688934 0.232361 0.273041
0.759521 0.247162 0.282684
0.805328 0.255859 0.290253
0.848663 0.263794 0.297607
0.889984 0.270966 0.305206
0.930664 0.277557 0.312653
0.970490 0.283905 0.320404
1.000000 0.290100 0.328644
1.000000 0.297333 0.338501
0.000000 0.177490 0.210114
0.000000 0.179047 0.211548
0.014191 0.195892 0.226532
0.219452 0.226898 0.240387
0.364563 0.256165 0.250946
0.462372 0.263245 0.257263
0.562225 0.272736 0.262756
0.658447 0.286163 0.270050
0.744446 0.298492 0.278107
0.797455 0.305939 0.284210
0.841614 0.312256 0.290253
0.884247 0.318054 0.296112
0.925903 0.323761 0.301971
0.966553 0.329590 0.308441
1.000000 0.335052 0.314850
1.000000 0.342438 0.323700
0.000000 0.258942 0.216125
0.000000 0.259766 0.217194
0.000000 0.270935 0.227386
0.083191 0.289246 0.236298
0.283844 0.323425 0.234222
0.413086 0.335968 0.276794
0.511688 0.343781 0.281891
0.608429 0.353180 0.286804
0.698303 0.363983 0.292969
0.780060 0.374634 0.299652
0.831421 0.379456 0.302307
0.875916 0.382477 0.303772
0.918945 0.386047 0.306244
0.961426 0.389435 0.308899
1.000000 0.393280 0.312134
1.000000 0.398773 0.317596
0.000000 0.324646 0.220764
0.000000 0.325073 0.221710
0.000000 0.332489 0.230652
0.039795 0.343353 0.236053
0.176392 0.364349 0.245056
0.334930 0.392151 0.244934
0.465607 0.407928 0.274841
0.563263 0.418549 0.299408
0.656891 0.427582 0.301086
0.743317 0.437744 0.304199
0.816711 0.447784 0.308685
0.866272 0.455475 0.314240
0.910614 0.462585 0.319733
0.953918 0.469696 0.326050
0.996643 0.475739 0.331604
1.000000 0.483948 0.339630
0.000000 0.376099 0.232330
0.000000 0.376526 0.233215
0.000000 0.382629 0.239075
0.022308 0.391876 0.244293
0.123413 0.405060 0.250397
0.250946 0.432648 0.249786
0.377777 0.461548 0.251984
0.514252 0.484833 0.286896
0.614532 0.494049 0.305206
0.704071 0.504669 0.312988
0.787506 0.513885 0.314270
0.852417 0.522217 0.317230
0.902740 0.529388 0.321350
0.947449 0.536011 0.325989
0.991364 0.542145 0.330933
1.000000 0.550537 0.338409
