Color Lookup Presets Effects/z1 (91).CUBE
#Created by: Adobe Photoshop Export Color Lookup Plugin
#Copyright: (C) Copyright 2015 www.zafizack.com
TITLE "zafizack-VG-17"
#LUT size
LUT_3D_SIZE 16
#data domain
DOMAIN_MIN 0.0 0.0 0.0
DOMAIN_MAX 1.0 1.0 1.0
#LUT data points
0.000000 0.000000 0.000000
0.066681 0.000000 0.000000
0.133331 0.000000 0.000000
0.200012 0.000000 0.000000
0.266663 0.000000 0.000000
0.333344 0.000000 0.000000
0.399994 0.000000 0.000000
0.466675 0.000000 0.000000
0.533325 0.000000 0.000000
0.600006 0.000000 0.000000
0.666656 0.000000 0.000000
0.733337 0.000000 0.000000
0.799988 0.000000 0.000000
0.866669 0.000000 0.000000
0.933319 0.000000 0.000000
1.000000 0.000000 0.000000
0.138580 0.095184 0.058350
0.143585 0.101349 0.062225
0.204742 0.101349 0.062225
0.265930 0.101349 0.062225
0.327087 0.101349 0.062225
0.388275 0.101349 0.062225
0.449432 0.101349 0.062225
0.510620 0.101349 0.062225
0.571777 0.101349 0.062225
0.632965 0.101349 0.062225
0.694122 0.101349 0.062225
0.755310 0.101349 0.062225
0.816467 0.101349 0.062225
0.877655 0.101349 0.062225
0.938812 0.101349 0.062225
1.000000 0.101349 0.062225
0.254669 0.163727 0.102203
0.259766 0.174042 0.108948
0.272339 0.184082 0.115540
0.328339 0.184082 0.115540
0.384308 0.184082 0.115540
0.440308 0.184082 0.115540
0.496246 0.184082 0.115540
0.552246 0.184082 0.115540
0.608185 0.184082 0.115540
0.664185 0.184082 0.115540
0.720123 0.184082 0.115540
0.776123 0.184082 0.115540
0.832092 0.184082 0.115540
0.888062 0.184082 0.115540
0.944000 0.184082 0.115540
1.000000 0.184082 0.115540
0.352448 0.212402 0.134399
0.357269 0.225586 0.143280
0.369171 0.238190 0.151825
0.387726 0.250122 0.160004
0.438721 0.250122 0.160004
0.489777 0.250122 0.160004
0.540771 0.250122 0.160004
0.591797 0.250122 0.160004
0.642853 0.250122 0.160004
0.693878 0.250122 0.160004
0.744873 0.250122 0.160004
0.795929 0.250122 0.160004
0.846924 0.250122 0.160004
0.897949 0.250122 0.160004
0.948975 0.250122 0.160004
1.000000 0.250122 0.160004
0.435181 0.246216 0.157318
0.439301 0.261475 0.167816
0.450226 0.275696 0.177704
0.467560 0.288879 0.186951
0.490692 0.301056 0.195557
0.536987 0.301056 0.195557
0.583282 0.301056 0.195557
0.629578 0.301056 0.195557
0.675903 0.301056 0.195557
0.722198 0.301056 0.195557
0.768494 0.301056 0.195557
0.814789 0.301056 0.195557
0.861084 0.301056 0.195557
0.907410 0.301056 0.195557
0.953705 0.301056 0.195557
1.000000 0.301056 0.195557
0.505768 0.268738 0.172852
0.508698 0.285675 0.184692
0.518463 0.301056 0.195557
0.534393 0.314911 0.205444
0.555847 0.327240 0.214325
0.582306 0.338135 0.222229
0.624054 0.338135 0.222229
0.665863 0.338135 0.222229
0.707581 0.338135 0.222229
0.749390 0.338135 0.222229
0.791138 0.338135 0.222229
0.832916 0.338135 0.222229
0.874695 0.338135 0.222229
0.916443 0.338135 0.222229
0.958221 0.338135 0.222229
1.000000 0.338135 0.222229
0.566498 0.282410 0.182404
0.567841 0.301056 0.195557
0.576050 0.317474 0.207275
0.590424 0.331757 0.217590
0.610291 0.345001 0.227234
0.636444 0.375702 0.249969
0.666626 0.406708 0.273468
0.703674 0.406708 0.273468
0.740723 0.406708 0.273468
0.777771 0.406708 0.273468
0.814789 0.406708 0.273468
0.851837 0.406708 0.273468
0.888885 0.406708 0.273468
0.925934 0.406708 0.273468
0.962952 0.406708 0.273468
1.000000 0.406708 0.273468
0.632416 0.304352 0.197906
0.630035 0.321014 0.209839
0.634583 0.335358 0.220215
0.645782 0.354919 0.234528
0.663422 0.387054 0.258514
0.685791 0.419525 0.283356
0.712006 0.452179 0.308990
0.741394 0.484955 0.335449
0.773682 0.484955 0.335449
0.806061 0.484955 0.335449
0.838348 0.484955 0.335449
0.870697 0.484955 0.335449
0.903015 0.484955 0.335449
0.935364 0.484955 0.335449
0.967682 0.484955 0.335449
1.000000 0.484955 0.335449
0.709961 0.340393 0.223877
0.703461 0.363495 0.240875
0.703918 0.391724 0.262054
0.710236 0.420135 0.283813
0.721771 0.448700 0.306213
0.737762 0.477386 0.329285
0.757507 0.505310 0.352295
0.780487 0.533783 0.376373
0.805908 0.563324 0.402100
0.833618 0.563324 0.402100
0.861359 0.563324 0.402100
0.889099 0.563324 0.402100
0.916809 0.563324 0.402100
0.944550 0.563324 0.402100
0.972260 0.563324 0.402100
1.000000 0.563324 0.402100
0.782928 0.420776 0.284332
0.773315 0.445251 0.303497
0.769623 0.469818 0.323151
0.771271 0.494415 0.343231
0.777649 0.519012 0.363800
0.788208 0.542816 0.384155
0.802216 0.565735 0.404236
0.819336 0.589874 0.425903
0.838959 0.614960 0.449066
0.860504 0.640656 0.473480
0.883759 0.640656 0.473480
0.907013 0.640656 0.473480
0.930237 0.640656 0.473480
0.953491 0.640656 0.473480
0.976746 0.640656 0.473480
1.000000 0.640656 0.473480
0.847382 0.515503 0.360840
0.835785 0.535980 0.378265
0.829346 0.556396 0.395996
0.827545 0.576782 0.414093
0.829895 0.596771 0.432220
0.835846 0.614502 0.448608
0.845093 0.633301 0.466400
0.857086 0.652985 0.485474
0.871490 0.673401 0.505768
0.887726 0.694366 0.527191
0.905396 0.715485 0.549500
0.924316 0.715485 0.549500
0.943237 0.715485 0.549500
0.962189 0.715485 0.549500
0.981079 0.715485 0.549500
1.000000 0.715485 0.549500
0.901764 0.617889 0.451782
0.889679 0.633911 0.466980
0.881866 0.649841 0.482391
0.877869 0.665619 0.497986
0.877319 0.678894 0.511322
0.879852 0.692596 0.525391
0.885162 0.707123 0.540588
0.892914 0.722290 0.556793
0.902740 0.737946 0.573975
0.914276 0.753998 0.592041
0.927155 0.770233 0.610809
0.941040 0.786530 0.630249
0.955750 0.786530 0.630249
0.970520 0.786530 0.630249
0.985260 0.786530 0.630249
1.000000 0.786530 0.630249
0.944794 0.724274 0.558960
0.933746 0.735596 0.571381
0.925934 0.746826 0.583893
0.921051 0.756256 0.594604
0.918854 0.765320 0.605072
0.919098 0.775024 0.616486
0.921509 0.785248 0.628693
0.925873 0.795837 0.641663
0.931946 0.806824 0.655334
0.939392 0.818024 0.669647
0.947998 0.829346 0.684540
0.957550 0.840729 0.699860
0.967743 0.852112 0.715637
0.978516 0.852112 0.715637
0.989227 0.852112 0.715637
1.000000 0.852112 0.715637
0.975677 0.829376 0.684570
0.967102 0.836121 0.693573
0.960693 0.841949 0.701538
0.956268 0.846985 0.708466
0.953644 0.852417 0.716064
0.952728 0.858185 0.724243
0.953278 0.864258 0.733002
0.955231 0.870544 0.742249
0.958344 0.877045 0.751953
0.962463 0.883667 0.762054
0.967499 0.890411 0.772583
0.973206 0.897186 0.783386
0.979462 0.903961 0.794464
0.986084 0.910706 0.805756
0.993073 0.910706 0.805756
1.000000 0.910706 0.805756
0.994019 0.925049 0.830750
0.989197 0.927551 0.835297
0.985474 0.929474 0.838745
0.982727 0.931488 0.842560
0.980865 0.933746 0.846710
0.979858 0.936096 0.851135
0.979675 0.938568 0.855835
0.980103 0.941162 0.860840
0.981232 0.943848 0.866028
0.982849 0.946564 0.871399
0.984955 0.949310 0.876953
0.987488 0.952148 0.882690
0.990326 0.954956 0.888519
0.993408 0.957764 0.894470
0.996643 0.960602 0.900513
1.000000 0.960602 0.900513
1.000000 1.000000 1.000000
1.000000 1.000000 1.000000
1.000000 1.000000 1.000000
1.000000 1.000000 1.000000
1.000000 1.000000 1.000000
1.000000 1.000000 1.000000
1.000000 1.000000 1.000000
1.000000 1.000000 1.000000
1.000000 1.000000 1.000000
1.000000 1.000000 1.000000
1.000000 1.000000 1.000000
1.000000 1.000000 1.000000
1.000000 1.000000 1.000000
1.000000 1.000000 1.000000
1.000000 1.000000 1.000000
1.000000 1.000000 1.000000
0.000000 0.000000 0.066681
0.066681 0.000000 0.066681
0.133331 0.000000 0.066681
0.200012 0.000000 0.066681
0.266663 0.000000 0.066681
0.333344 0.000000 0.066681
0.399994 0.000000 0.066681
0.466675 0.000000 0.066681
0.533325 0.000000 0.066681
0.600006 0.000000 0.066681
0.666656 0.000000 0.066681
0.733337 0.000000 0.066681
0.799988 0.000000 0.066681
0.866669 0.000000 0.066681
0.933319 0.000000 0.066681
1.000000 0.000000 0.066681
0.000000 0.066681 0.066681
0.066681 0.066681 0.066681
0.133331 0.066681 0.066681
0.200012 0.066681 0.066681
0.266663 0.066681 0.066681
0.333344 0.066681 0.066681
0.399994 0.066681 0.066681
0.466675 0.066681 0.066681
0.533325 0.066681 0.066681
0.600006 0.066681 0.066681
0.666656 0.066681 0.066681
0.733337 0.066681 0.066681
0.799988 0.066681 0.066681
0.866669 0.066681 0.066681
0.933319 0.066681 0.066681
1.000000 0.066681 0.066681
0.138550 0.151276 0.113281
0.195984 0.151276 0.113281
0.204712 0.160980 0.120575
0.265900 0.160980 0.120575
0.327087 0.160980 0.120575
0.388245 0.160980 0.120575
0.449402 0.160980 0.120575
0.510620 0.160980 0.120575
0.571747 0.160980 0.120575
0.632965 0.160980 0.120575
0.694122 0.160980 0.120575
0.755280 0.160980 0.120575
0.816467 0.160980 0.120575
0.877655 0.160980 0.120575
0.938812 0.160980 0.120575
1.000000 0.160980 0.120575
0.254669 0.211334 0.148102
0.304352 0.211334 0.148102
0.312683 0.224579 0.157501
0.328339 0.237396 0.166656
0.384308 0.237396 0.166656
0.440308 0.237396 0.166656
0.496246 0.237396 0.166656
0.552246 0.237396 0.166656
0.608185 0.237396 0.166656
0.664185 0.237396 0.166656
0.720123 0.237396 0.166656
0.776123 0.237396 0.166656
0.832092 0.237396 0.166656
0.888062 0.237396 0.166656
0.944000 0.237396 0.166656
1.000000 0.237396 0.166656
0.352417 0.253174 0.173187
0.395599 0.253174 0.173187
0.403137 0.268799 0.184235
0.417664 0.283630 0.194733
0.438721 0.297760 0.204803
0.489777 0.297760 0.204803
0.540771 0.297760 0.204803
0.591797 0.297760 0.204803
0.642822 0.297760 0.204803
0.693848 0.297760 0.204803
0.744843 0.297760 0.204803
0.795898 0.297760 0.204803
0.846924 0.297760 0.204803
0.897949 0.297760 0.204803
0.948975 0.297760 0.204803
1.000000 0.297760 0.204803
0.435181 0.281403 0.190460
0.472839 0.281403 0.190460
0.479340 0.298706 0.202728
0.492554 0.314819 0.214233
0.511902 0.329742 0.224945
0.536987 0.343536 0.234894
0.583282 0.343536 0.234894
0.629578 0.343536 0.234894
0.675903 0.343536 0.234894
0.722198 0.343536 0.234894
0.768494 0.343536 0.234894
0.814789 0.343536 0.234894
0.861084 0.343536 0.234894
0.907410 0.343536 0.234894
0.953705 0.343536 0.234894
1.000000 0.343536 0.234894
0.505707 0.299255 0.201416
0.538666 0.299255 0.201416
0.543793 0.318024 0.214813
0.555481 0.335052 0.227020
0.573242 0.351196 0.238678
0.597748 0.381897 0.260773
0.627045 0.412872 0.283447
0.668518 0.412872 0.283447
0.709930 0.412872 0.283447
0.751373 0.412872 0.283447
0.792816 0.412872 0.283447
0.834229 0.412872 0.283447
0.875702 0.412872 0.283447
0.917114 0.412872 0.283447
0.958557 0.412872 0.283447
1.000000 0.412872 0.283447
0.578857 0.322113 0.216125
0.606934 0.322113 0.216125
0.608490 0.338928 0.228333
0.617004 0.360229 0.243774
0.632355 0.392487 0.267303
0.652985 0.424957 0.291443
0.678162 0.457581 0.316193
0.707214 0.490265 0.341614
0.743805 0.490265 0.341614
0.780426 0.490265 0.341614
0.816986 0.490265 0.341614
0.853607 0.490265 0.341614
0.890198 0.490265 0.341614
0.926819 0.490265 0.341614
0.963409 0.490265 0.341614
1.000000 0.490265 0.341614
0.663391 0.367523 0.247375
0.685822 0.367523 0.247375
0.683350 0.395996 0.268494
0.687042 0.424530 0.290039
0.696259 0.453247 0.312042
0.710449 0.481964 0.334564
0.728912 0.509918 0.356903
0.751282 0.538330 0.380127
0.776886 0.567871 0.404907
0.808777 0.567871 0.404907
0.840637 0.567871 0.404907
0.872528 0.567871 0.404907
0.904358 0.567871 0.404907
0.936279 0.567871 0.404907
0.968140 0.567871 0.404907
1.000000 0.567871 0.404907
0.743042 0.448395 0.307343
0.760193 0.448395 0.307343
0.753876 0.473206 0.326935
0.752991 0.497925 0.346802
0.757141 0.522675 0.367035
0.765808 0.546539 0.386963
0.778442 0.569550 0.406494
0.794739 0.593689 0.427521
0.814240 0.618744 0.449860
0.836365 0.644409 0.473328
0.863647 0.644409 0.473328
0.890930 0.644409 0.473328
0.918182 0.644409 0.473328
0.945465 0.644409 0.473328
0.972717 0.644409 0.473328
1.000000 0.644409 0.473328
0.814117 0.538269 0.380035
0.826477 0.538269 0.380035
0.817657 0.558899 0.397675
0.813568 0.579529 0.415558
0.813782 0.599640 0.433380
0.817871 0.617432 0.449402
0.825653 0.636322 0.466736
0.836700 0.656067 0.485260
0.850677 0.676483 0.504883
0.867218 0.697388 0.525513
0.885956 0.718506 0.546967
0.908783 0.718506 0.546967
0.931580 0.718506 0.546967
0.954376 0.718506 0.546967
0.977203 0.718506 0.546967
1.000000 0.718506 0.546967
0.875153 0.635468 0.467346
0.883484 0.635468 0.467346
0.873627 0.651642 0.482605
0.867554 0.667572 0.497925
0.864990 0.680969 0.510956
0.865784 0.694824 0.524689
0.869629 0.709412 0.539459
0.876282 0.724640 0.555206
0.885529 0.740326 0.571808
0.897064 0.756378 0.589203
0.910614 0.772583 0.607269
0.925964 0.788818 0.625916
0.944458 0.788818 0.625916
0.962982 0.788818 0.625916
0.981506 0.788818 0.625916
1.000000 0.788818 0.625916
0.924927 0.736603 0.570984
0.929932 0.736603 0.570984
0.920471 0.747986 0.583252
0.913757 0.757568 0.593719
0.909790 0.766724 0.603821
0.908386 0.776520 0.614868
0.909363 0.786835 0.626709
0.912598 0.797516 0.639221
0.917938 0.808472 0.652344
0.925171 0.819733 0.666138
0.934204 0.831024 0.680389
0.944794 0.842438 0.695068
0.956818 0.853729 0.710114
0.971222 0.853729 0.710114
0.985596 0.853729 0.710114
1.000000 0.853729 0.710114
0.962555 0.836609 0.692963
0.965088 0.836609 0.692963
0.957367 0.842590 0.700653
0.951447 0.847717 0.707306
0.947296 0.853241 0.714569
0.944855 0.859039 0.722382
0.944092 0.865204 0.730774
0.944885 0.871582 0.739594
0.947205 0.878082 0.748840
0.950989 0.884705 0.758423
0.956116 0.891479 0.768433
0.962555 0.898254 0.778687
0.970245 0.905029 0.789154
0.979095 0.911774 0.799835
0.989532 0.911774 0.799835
1.000000 0.911774 0.799835
0.987518 0.927582 0.834686
0.988342 0.927734 0.834930
0.983673 0.929688 0.838165
0.979797 0.931824 0.841675
0.976654 0.934082 0.845551
0.974396 0.936493 0.849670
0.972931 0.939026 0.854065
0.972351 0.941620 0.858704
0.972626 0.944305 0.863464
0.973785 0.947052 0.868439
0.975800 0.949860 0.873505
0.978790 0.952637 0.878754
0.982635 0.955475 0.884064
0.987488 0.958282 0.889465
0.993286 0.961090 0.894928
1.000000 0.961090 0.894928
0.999786 1.000000 0.999664
0.999786 1.000000 0.999695
0.999268 1.000000 0.998871
0.998444 1.000000 0.997681
0.997467 1.000000 0.996216
0.996429 1.000000 0.994568
0.995361 1.000000 0.992889
0.994385 1.000000 0.991272
0.993622 1.000000 0.989899
0.993042 1.000000 0.988800
0.992859 1.000000 0.988129
0.993073 1.000000 0.988068
0.993835 1.000000 0.988617
0.995148 1.000000 0.989990
0.997192 1.000000 0.992249
1.000000 1.000000 0.995575
0.000000 0.000000 0.133331
0.066681 0.000000 0.133331
0.133331 0.000000 0.133331
0.200012 0.000000 0.133331
0.266663 0.000000 0.133331
0.333344 0.000000 0.133331
0.399994 0.000000 0.133331
0.466675 0.000000 0.133331
0.533325 0.000000 0.133331
0.600006 0.000000 0.133331
0.666656 0.000000 0.133331
0.733337 0.000000 0.133331
0.799988 0.000000 0.133331
0.866669 0.000000 0.133331
0.933319 0.000000 0.133331
1.000000 0.000000 0.133331
0.000000 0.066681 0.133331
0.066681 0.066681 0.133331
0.133331 0.066681 0.133331
0.200012 0.066681 0.133331
0.266663 0.066681 0.133331
0.333344 0.066681 0.133331
0.399994 0.066681 0.133331
0.466675 0.066681 0.133331
0.533325 0.066681 0.133331
0.600006 0.066681 0.133331
0.666656 0.066681 0.133331
0.733337 0.066681 0.133331
0.799988 0.066681 0.133331
0.866669 0.066681 0.133331
0.933319 0.066681 0.133331
1.000000 0.066681 0.133331
0.000000 0.133331 0.133331
0.066681 0.133331 0.133331
0.133331 0.133331 0.133331
0.200012 0.133331 0.133331
0.266663 0.133331 0.133331
0.333344 0.133331 0.133331
0.399994 0.133331 0.133331
0.466675 0.133331 0.133331
0.533325 0.133331 0.133331
0.600006 0.133331 0.133331
0.666656 0.133331 0.133331
0.733337 0.133331 0.133331
0.799988 0.133331 0.133331
0.866669 0.133331 0.133331
0.933319 0.133331 0.133331
1.000000 0.133331 0.133331
0.170685 0.170715 0.117950
0.196014 0.207336 0.168243
0.253418 0.207336 0.168243
0.265930 0.220612 0.178925
0.327087 0.220612 0.178925
0.388275 0.220612 0.178925
0.449432 0.220612 0.178925
0.510620 0.220612 0.178925
0.571777 0.220612 0.178925
0.632965 0.220612 0.178925
0.694122 0.220612 0.178925
0.755310 0.220612 0.178925
0.816467 0.220612 0.178925
0.877655 0.220612 0.178925
0.938812 0.220612 0.178925
1.000000 0.220612 0.178925
0.254700 0.258942 0.193970
0.304413 0.258942 0.193970
0.354065 0.258942 0.193970
0.365540 0.275085 0.206055
0.384308 0.290710 0.217743
0.440308 0.290710 0.217743
0.496246 0.290710 0.217743
0.552246 0.290710 0.217743
0.608185 0.290710 0.217743
0.664185 0.290710 0.217743
0.720123 0.290710 0.217743
0.776123 0.290710 0.217743
0.832092 0.290710 0.217743
0.888062 0.290710 0.217743
0.944000 0.290710 0.217743
1.000000 0.290710 0.217743
0.352448 0.293945 0.211945
0.395630 0.293945 0.211945
0.438782 0.293945 0.211945
0.449097 0.311981 0.225128
0.466187 0.329102 0.237671
0.489777 0.345337 0.249603
0.540771 0.345337 0.249603
0.591797 0.345337 0.249603
0.642853 0.345337 0.249603
0.693878 0.345337 0.249603
0.744873 0.345337 0.249603
0.795929 0.345337 0.249603
0.846924 0.345337 0.249603
0.897949 0.345337 0.249603
0.948975 0.345337 0.249603
1.000000 0.345337 0.249603
0.435181 0.316559 0.223602
0.472839 0.316559 0.223602
0.510498 0.316559 0.223602
0.519379 0.335968 0.237671
0.534882 0.354614 0.251190
0.557617 0.385071 0.272644
0.585938 0.415619 0.294342
0.631958 0.415619 0.294342
0.677948 0.415619 0.294342
0.723969 0.415619 0.294342
0.769958 0.415619 0.294342
0.815979 0.415619 0.294342
0.861969 0.415619 0.294342
0.907990 0.415619 0.294342
0.954010 0.415619 0.294342
1.000000 0.415619 0.294342
0.517334 0.340759 0.237030
0.549530 0.340759 0.237030
0.581696 0.340759 0.237030
0.587402 0.363586 0.253601
0.600342 0.395599 0.276550
0.619141 0.427826 0.299896
0.643127 0.460052 0.323578
0.671814 0.492401 0.347717
0.712799 0.492401 0.347717
0.753845 0.492401 0.347717
0.794861 0.492401 0.347717
0.835907 0.492401 0.347717
0.876923 0.492401 0.347717
0.917938 0.492401 0.347717
0.958954 0.492401 0.347717
1.000000 0.492401 0.347717
0.610443 0.398926 0.275024
0.636414 0.398926 0.275024
0.662384 0.398926 0.275024
0.663269 0.427399 0.296265
0.670105 0.455902 0.317780
0.682373 0.484436 0.339569
0.699493 0.512146 0.361053
0.721161 0.540222 0.383148
0.746887 0.569397 0.406525
0.783051 0.569397 0.406525
0.819214 0.569397 0.406525
0.855377 0.569397 0.406525
0.891541 0.569397 0.406525
0.927704 0.569397 0.406525
0.963837 0.569397 0.406525
1.000000 0.569397 0.406525
0.697479 0.475555 0.330475
0.717682 0.475555 0.330475
0.737823 0.475555 0.330475
0.734375 0.500275 0.350037
0.736206 0.524902 0.369781
0.742920 0.548676 0.389069
0.754028 0.571411 0.407806
0.769470 0.595337 0.427795
0.788757 0.620148 0.448944
0.811523 0.645477 0.470978
0.842926 0.645477 0.470978
0.874359 0.645477 0.470978
0.905762 0.645477 0.470978
0.937195 0.645477 0.470978
0.968597 0.645477 0.470978
1.000000 0.645477 0.470978
0.775970 0.560760 0.398926
0.790894 0.560760 0.398926
0.805817 0.560760 0.398926
0.799377 0.581360 0.416412
0.797424 0.601440 0.433746
0.799561 0.619110 0.449158
0.805786 0.637848 0.465698
0.815826 0.657440 0.483307
0.829346 0.677643 0.501801
0.846161 0.698334 0.521149
0.865936 0.719208 0.541168
0.892761 0.719208 0.541168
0.919556 0.719208 0.541168
0.946381 0.719208 0.541168
0.973175 0.719208 0.541168
1.000000 0.719208 0.541168
0.844452 0.652130 0.481476
0.854858 0.652954 0.482269
0.865265 0.652954 0.482269
0.857117 0.668945 0.497131
0.852539 0.682343 0.509674
0.851501 0.696136 0.522766
0.853790 0.710602 0.536743
0.859375 0.725708 0.551544
0.867981 0.741272 0.567108
0.879486 0.757111 0.583313
0.893738 0.773132 0.600037
0.910522 0.789215 0.617218
0.932892 0.789215 0.617218
0.955261 0.789215 0.617218
0.977631 0.789215 0.617218
1.000000 0.789215 0.617218
0.901733 0.746857 0.579895
0.908325 0.748413 0.581604
0.914917 0.748871 0.582123
0.906433 0.758484 0.592041
0.900665 0.767700 0.601624
0.897583 0.777466 0.611969
0.897095 0.787689 0.622986
0.899200 0.798309 0.634613
0.903748 0.809174 0.646759
0.910767 0.820282 0.659363
0.920135 0.831482 0.672363
0.931824 0.842712 0.685669
0.945679 0.853943 0.699249
0.963806 0.853943 0.699249
0.981903 0.853943 0.699249
1.000000 0.853943 0.699249
0.946838 0.841675 0.697479
0.950409 0.842377 0.698425
0.953949 0.843079 0.699402
0.946564 0.848297 0.705505
0.940857 0.853821 0.712128
0.936951 0.859680 0.719269
0.934814 0.865784 0.726837
0.934479 0.872070 0.734741
0.935974 0.878540 0.742981
0.939331 0.885132 0.751526
0.944641 0.891785 0.760284
0.951813 0.898468 0.769226
0.960907 0.905151 0.778290
0.971954 0.911774 0.787415
0.985962 0.911774 0.787415
1.000000 0.911774 0.787415
0.979095 0.929504 0.836517
0.980469 0.929688 0.836884
0.981873 0.929901 0.837250
0.976837 0.932068 0.840332
0.972443 0.934357 0.843597
0.968872 0.936768 0.847076
0.966187 0.939270 0.850647
0.964539 0.941895 0.854431
0.963959 0.944550 0.858246
0.964630 0.947205 0.862122
0.966553 0.949982 0.866028
0.970001 0.952759 0.870026
0.974945 0.955505 0.873962
0.981506 0.958282 0.877869
0.989838 0.961060 0.881744
1.000000 0.961060 0.881744
0.998260 1.000000 0.997314
0.998352 1.000000 0.997467
0.998505 1.000000 0.997650
0.996887 1.000000 0.995026
0.994965 1.000000 0.991791
0.992859 1.000000 0.988129
0.990784 1.000000 0.984344
0.988861 1.000000 0.980621
0.987305 1.000000 0.977264
0.986237 1.000000 0.974426
0.985840 1.000000 0.972412
0.986267 1.000000 0.971405
0.987732 1.000000 0.971680
0.990356 1.000000 0.973511
0.994354 1.000000 0.976990
1.000000 1.000000 0.982513
0.000000 0.000000 0.200012
0.066681 0.000000 0.200012
0.133331 0.000000 0.200012
0.200012 0.000000 0.200012
0.266663 0.000000 0.200012
0.333344 0.000000 0.200012
0.399994 0.000000 0.200012
0.466675 0.000000 0.200012
0.533325 0.000000 0.200012
0.600006 0.000000 0.200012
0.666656 0.000000 0.200012
0.733337 0.000000 0.200012
0.799988 0.000000 0.200012
0.866669 0.000000 0.200012
0.933319 0.000000 0.200012
1.000000 0.000000 0.200012
0.000000 0.066681 0.200012
0.066681 0.066681 0.200012
0.133331 0.066681 0.200012
0.200012 0.066681 0.200012
0.266663 0.066681 0.200012
0.333344 0.066681 0.200012
0.399994 0.066681 0.200012
0.466675 0.066681 0.200012
0.533325 0.066681 0.200012
0.600006 0.066681 0.200012
0.666656 0.066681 0.200012
0.733337 0.066681 0.200012
0.799988 0.066681 0.200012
0.866669 0.066681 0.200012
0.933319 0.066681 0.200012
1.000000 0.066681 0.200012
0.000000 0.133331 0.200012
0.066681 0.133331 0.200012
0.133331 0.133331 0.200012
0.200012 0.133331 0.200012
0.266663 0.133331 0.200012
0.333344 0.133331 0.200012
0.399994 0.133331 0.200012
0.466675 0.133331 0.200012
0.533325 0.133331 0.200012
0.600006 0.133331 0.200012
0.666656 0.133331 0.200012
0.733337 0.133331 0.200012
0.799988 0.133331 0.200012
0.866669 0.133331 0.200012
0.933319 0.133331 0.200012
1.000000 0.133331 0.200012
0.000000 0.200012 0.200012
0.066681 0.200012 0.200012
0.133331 0.200012 0.200012
0.200012 0.200012 0.200012
0.266663 0.200012 0.200012
0.333344 0.200012 0.200012
0.399994 0.200012 0.200012
0.466675 0.200012 0.200012
0.533325 0.200012 0.200012
0.600006 0.200012 0.200012
0.666656 0.200012 0.200012
0.733337 0.200012 0.200012
0.799988 0.200012 0.200012
0.866669 0.200012 0.200012
0.933319 0.200012 0.200012
1.000000 0.200012 0.200012
0.175812 0.219788 0.164825
0.225952 0.225769 0.172852
0.253387 0.263397 0.223175
0.310822 0.263397 0.223175
0.327087 0.280243 0.237274
0.388245 0.280243 0.237274
0.449402 0.280243 0.237274
0.510620 0.280243 0.237274
0.571747 0.280243 0.237274
0.632965 0.280243 0.237274
0.694122 0.280243 0.237274
0.755280 0.280243 0.237274
0.816467 0.280243 0.237274
0.877655 0.280243 0.237274
0.938812 0.280243 0.237274
1.000000 0.280243 0.237274
0.266998 0.289917 0.217834
0.304382 0.306549 0.239868
0.354065 0.306549 0.239868
0.403778 0.306549 0.239868
0.418396 0.325562 0.254578
0.440308 0.344025 0.268890
0.496246 0.344025 0.268890
0.552246 0.344025 0.268890
0.608185 0.344025 0.268890
0.664185 0.344025 0.268890
0.720123 0.344025 0.268890
0.776123 0.344025 0.268890
0.832092 0.344025 0.268890
0.888062 0.344025 0.268890
0.944000 0.344025 0.268890
1.000000 0.344025 0.268890
0.352417 0.334686 0.250732
0.395599 0.334686 0.250732
0.438751 0.334686 0.250732
0.481964 0.334686 0.250732
0.494995 0.355652 0.266357
0.515808 0.385406 0.287384
0.542938 0.415344 0.308441
0.593750 0.415344 0.308441
0.644501 0.415344 0.308441
0.695313 0.415344 0.308441
0.746063 0.415344 0.308441
0.796844 0.415344 0.308441
0.847656 0.415344 0.308441
0.898438 0.415344 0.308441
0.949219 0.415344 0.308441
1.000000 0.415344 0.308441
