Color Lookup Presets Effects/z1 (96).CUBE
#Created by: Adobe Photoshop Export Color Lookup Plugin
#Copyright: (C) Copyright 2014 www.zafizack.com
TITLE "Dinda"
#LUT size
LUT_3D_SIZE 6
#data domain
DOMAIN_MIN 0.0 0.0 0.0
DOMAIN_MAX 1.0 1.0 1.0
#LUT data points
0.000000 0.000000 0.038330
0.265991 0.057648 0.073090
0.505615 0.126678 0.128357
0.715027 0.147156 0.128510
0.870331 0.141754 0.101318
0.993652 0.138947 0.087799
0.006287 0.192535 0.056641
0.324646 0.194824 0.110535
0.546112 0.251221 0.171967
0.735107 0.267181 0.170776
0.878296 0.262787 0.138397
0.993652 0.258362 0.111694
0.020752 0.460358 0.096558
0.356354 0.371155 0.163239
0.613892 0.358673 0.238892
0.768555 0.373993 0.238342
0.891571 0.372833 0.207550
0.993652 0.370300 0.176208
0.034729 0.707245 0.129028
0.369293 0.650360 0.200470
0.642914 0.596313 0.275299
0.802521 0.577057 0.308777
0.905487 0.579590 0.276794
0.993652 0.580048 0.246460
0.048798 0.863159 0.096405
0.385742 0.844788 0.163055
0.657745 0.823486 0.236511
0.816559 0.808075 0.304901
0.919830 0.802856 0.350830
0.993652 0.805664 0.317841
0.065155 0.988647 0.083405
0.399292 0.988647 0.125641
0.674927 0.988647 0.201721
0.831146 0.988647 0.268188
0.928955 0.988647 0.331604
0.993652 0.988647 0.395874
0.008911 0.029510 0.200287
0.256561 0.051758 0.166351
0.499634 0.120514 0.218018
0.712006 0.141174 0.219177
0.868835 0.139648 0.195740
0.993652 0.139709 0.173340
0.007385 0.192352 0.176575
0.265991 0.225220 0.203308
0.502594 0.282532 0.259857
0.712677 0.303162 0.264893
0.868988 0.304565 0.243713
0.993652 0.302551 0.220978
0.020752 0.460358 0.211426
0.302734 0.438690 0.254608
0.568726 0.423706 0.320770
0.744751 0.444763 0.325226
0.881653 0.447815 0.301483
0.993652 0.448273 0.277649
0.034729 0.707245 0.239929
0.319153 0.691803 0.292542
0.600433 0.636780 0.353760
0.780487 0.624115 0.389709
0.896088 0.630035 0.364014
0.993652 0.633209 0.338348
0.048798 0.863159 0.209106
0.335632 0.857849 0.264862
0.623016 0.837524 0.326843
0.794952 0.820648 0.386505
0.910736 0.818085 0.432861
0.993652 0.822510 0.404785
0.065155 0.988647 0.179749
0.350128 0.988647 0.235474
0.642700 0.988647 0.298920
0.814453 0.988647 0.358429
0.921814 0.988647 0.417633
0.993652 0.988647 0.477753
0.023956 0.068695 0.428436
0.220184 0.077332 0.360168
0.491791 0.112488 0.339661
0.708069 0.133484 0.341522
0.867310 0.132446 0.322357
0.993652 0.133240 0.304596
0.022614 0.194183 0.406128
0.241699 0.231934 0.392548
0.494568 0.276855 0.374481
0.708588 0.297668 0.382660
0.867310 0.299866 0.366425
0.993652 0.301239 0.350037
0.020752 0.460266 0.370209
0.282959 0.468597 0.393372
0.513062 0.509369 0.441559
0.714050 0.536133 0.453400
0.868622 0.547272 0.441162
0.993652 0.553192 0.425537
0.034729 0.707245 0.395599
0.295898 0.708405 0.430420
0.554535 0.692322 0.479889
0.751892 0.678009 0.511810
0.883636 0.687927 0.497375
0.993652 0.694763 0.480621
0.048798 0.863159 0.367126
0.315338 0.863159 0.410980
0.579376 0.855927 0.463989
0.769928 0.838379 0.513275
0.898834 0.836578 0.554077
0.993652 0.843414 0.537445
0.065155 0.988647 0.341339
0.334930 0.988647 0.390472
0.601349 0.988647 0.444794
0.793304 0.988647 0.498535
0.912720 0.988647 0.547668
0.993652 0.988647 0.592407
0.038330 0.100983 0.660706
0.165314 0.112396 0.614197
0.460724 0.119324 0.561127
0.703644 0.124969 0.530121
0.865631 0.124573 0.516479
0.993652 0.126221 0.502838
0.037323 0.187134 0.646210
0.194641 0.229950 0.637878
0.470306 0.269653 0.584106
0.703979 0.291412 0.556793
0.865601 0.293701 0.548889
0.993652 0.294983 0.538971
0.035736 0.439972 0.621521
0.244995 0.464386 0.637634
0.493225 0.504364 0.627869
0.709442 0.531067 0.601654
0.866821 0.542938 0.600067
0.993652 0.551361 0.595551
0.034729 0.707245 0.595551
0.295959 0.708496 0.609802
0.533478 0.720367 0.635895
0.723663 0.727814 0.642639
0.870728 0.739502 0.641815
0.993652 0.749939 0.640503
0.048798 0.863159 0.575897
0.315338 0.863159 0.602051
0.557281 0.865387 0.631989
0.747772 0.859161 0.651642
0.886444 0.854706 0.677063
0.993652 0.863922 0.674469
0.065155 0.988647 0.557098
0.334930 0.988647 0.591888
0.582489 0.988647 0.628906
0.770935 0.988647 0.651123
0.903229 0.988647 0.680695
0.993652 0.988647 0.708069
0.050812 0.088226 0.822083
0.111115 0.095367 0.801605
0.412933 0.101532 0.778229
0.687103 0.107758 0.756989
0.863800 0.116455 0.743286
0.993652 0.119141 0.739380
0.050232 0.133606 0.815491
0.137726 0.173615 0.812805
0.426971 0.220795 0.788666
0.691681 0.259399 0.766785
0.863647 0.286957 0.755066
0.993652 0.288269 0.754913
0.049316 0.387238 0.804382
0.195740 0.414093 0.812469
0.454956 0.462280 0.806519
0.701996 0.504333 0.785004
0.864868 0.537750 0.775055
0.993652 0.546356 0.780060
0.048340 0.681824 0.792603
0.260895 0.693787 0.799561
0.498962 0.709686 0.808929
0.716339 0.722443 0.802032
0.868408 0.738403 0.792236
0.993652 0.749847 0.800507
0.048798 0.863159 0.780884
0.315338 0.863159 0.787262
0.557281 0.865387 0.796997
0.739838 0.865906 0.796204
0.876068 0.868805 0.796204
0.993652 0.879364 0.804291
0.065155 0.988647 0.774506
0.334930 0.988647 0.789337
0.582489 0.988647 0.805603
0.763489 0.988647 0.807465
0.894348 0.988647 0.807098
0.993652 0.988647 0.819702
0.065155 0.087830 0.973358
0.075592 0.092224 0.973358
0.362579 0.096954 0.973358
0.662781 0.101624 0.973358
0.858246 0.106812 0.973358
0.993652 0.112335 0.973358
0.065155 0.096893 0.973358
0.088287 0.119385 0.973358
0.375366 0.163818 0.973358
0.670837 0.206329 0.973358
0.861511 0.245514 0.973358
0.993652 0.281067 0.973358
0.065155 0.336823 0.973358
0.136932 0.358917 0.973358
0.408386 0.412445 0.973358
0.687958 0.457336 0.973358
0.867645 0.500336 0.973358
0.993652 0.541046 0.973358
0.065155 0.653961 0.973358
0.210938 0.669495 0.973358
0.454651 0.692444 0.973358
0.707458 0.711456 0.973358
0.874512 0.730316 0.973358
0.993652 0.747467 0.973358
0.065155 0.855927 0.973358
0.277679 0.861542 0.973358
0.518341 0.868591 0.973358
0.734192 0.871490 0.973358
0.882050 0.873199 0.973358
0.993652 0.879303 0.973358
0.065155 0.988647 0.973358
0.334930 0.988647 0.973358
0.582489 0.988647 0.973358
0.763519 0.988647 0.973358
0.892670 0.988647 0.973358
0.993652 0.988647 0.973358
