Color Lookup Presets Effects/z1 (67).CUBE
#Created by: Adobe Photoshop Export Color Lookup Plugin
#Copyright: (C) Copyright 2016 www.zafizack.com
TITLE "zafizack pastel color preset"
#LUT size
LUT_3D_SIZE 16
#data domain
DOMAIN_MIN 0.0 0.0 0.0
DOMAIN_MAX 1.0 1.0 1.0
#LUT data points
0.151703 0.103943 0.165497
0.169769 0.103729 0.165649
0.195251 0.103485 0.165833
0.243347 0.103088 0.166107
0.307648 0.102722 0.166412
0.376038 0.102295 0.166687
0.449554 0.101898 0.167023
0.530090 0.101410 0.167389
0.592316 0.100952 0.167694
0.652649 0.100464 0.168091
0.710297 0.100006 0.168427
0.765533 0.099548 0.168732
0.820526 0.099121 0.169067
0.878357 0.098724 0.169342
0.945801 0.098389 0.169556
0.992096 0.098053 0.169800
0.152344 0.147736 0.165497
0.169983 0.147308 0.165649
0.195251 0.146454 0.165833
0.243347 0.145142 0.166107
0.307648 0.143768 0.166412
0.376038 0.142273 0.166687
0.449554 0.140686 0.167023
0.530090 0.139130 0.167389
0.592316 0.138031 0.167694
0.652649 0.137909 0.168091
0.710297 0.137756 0.168427
0.765533 0.137665 0.168732
0.820526 0.137634 0.169067
0.878357 0.137634 0.169342
0.945801 0.137726 0.169556
0.992096 0.137634 0.169800
0.152924 0.210907 0.165497
0.170532 0.210571 0.165649
0.195496 0.210052 0.165833
0.243347 0.209198 0.166107
0.307648 0.207855 0.166412
0.376038 0.206543 0.166687
0.449554 0.205139 0.167023
0.530090 0.203644 0.167389
0.592316 0.202698 0.167694
0.652649 0.202545 0.168091
0.710297 0.202423 0.168427
0.765533 0.202423 0.168732
0.820526 0.202362 0.169067
0.878357 0.202423 0.169342
0.945801 0.202484 0.169556
0.992096 0.202362 0.169800
0.153503 0.274658 0.165497
0.171021 0.274323 0.165649
0.195892 0.273865 0.165833
0.243866 0.273315 0.166107
0.307648 0.272400 0.166412
0.376038 0.271118 0.166687
0.449554 0.269775 0.167023
0.530090 0.268402 0.167389
0.592316 0.267487 0.167694
0.652649 0.267426 0.168091
0.710297 0.267303 0.168427
0.765533 0.267242 0.168732
0.820526 0.267242 0.169067
0.878357 0.267273 0.169342
0.945801 0.267426 0.169556
0.992096 0.267273 0.169800
0.154053 0.339081 0.165497
0.171539 0.338715 0.165649
0.196381 0.338318 0.165833
0.244843 0.337830 0.166107
0.308167 0.337280 0.166412
0.376038 0.336365 0.166687
0.449554 0.335144 0.167023
0.530090 0.333832 0.167389
0.592316 0.333038 0.167694
0.652649 0.332916 0.168091
0.710297 0.332855 0.168427
0.765533 0.332855 0.168732
0.820526 0.332764 0.169067
0.878357 0.332855 0.169342
0.945801 0.332916 0.169556
0.992096 0.332855 0.169800
0.154602 0.403839 0.165497
0.171997 0.403595 0.165649
0.196777 0.403168 0.165833
0.245758 0.402771 0.166107
0.309082 0.402252 0.166412
0.376434 0.401642 0.166687
0.449554 0.400757 0.167023
0.530090 0.399628 0.167389
0.592316 0.398834 0.167694
0.652649 0.398773 0.168091
0.710297 0.398651 0.168427
0.765533 0.398590 0.168732
0.820526 0.398590 0.169067
0.878357 0.398621 0.169342
0.945801 0.398743 0.169556
0.992096 0.398621 0.169800
0.155151 0.469025 0.165497
0.172516 0.468719 0.165649
0.197235 0.468384 0.165833
0.246796 0.467926 0.166107
0.310028 0.467468 0.166412
0.377380 0.466949 0.166687
0.449982 0.466339 0.167023
0.530090 0.465485 0.167389
0.592316 0.464752 0.167694
0.652649 0.464691 0.168091
0.710297 0.464569 0.168427
0.765533 0.464539 0.168732
0.820526 0.464539 0.169067
0.878357 0.464539 0.169342
0.945801 0.464569 0.169556
0.992096 0.464539 0.169800
0.155670 0.526917 0.165497
0.173004 0.526703 0.165649
0.197693 0.526459 0.165833
0.247772 0.526184 0.166107
0.311005 0.525848 0.166412
0.378265 0.525452 0.166687
0.450836 0.525024 0.167023
0.530334 0.524597 0.167389
0.592316 0.524231 0.167694
0.652649 0.524139 0.168091
0.710297 0.524109 0.168427
0.765533 0.524017 0.168732
0.820526 0.523987 0.169067
0.878357 0.524017 0.169342
0.945801 0.524048 0.169556
0.992096 0.524017 0.169800
0.155487 0.578003 0.165497
0.172791 0.577789 0.165649
0.197479 0.577545 0.165833
0.247375 0.577271 0.166107
0.310608 0.576996 0.166412
0.377899 0.576660 0.166687
0.450500 0.576324 0.167023
0.530060 0.575958 0.167389
0.592133 0.575562 0.167694
0.652649 0.575470 0.168091
0.710297 0.575378 0.168427
0.765533 0.575317 0.168732
0.820526 0.575317 0.169067
0.878357 0.575287 0.169342
0.945801 0.575317 0.169556
0.992096 0.575287 0.169800
0.154968 0.628265 0.165497
0.172302 0.628082 0.165649
0.197083 0.627930 0.165833
0.246399 0.627686 0.166107
0.309662 0.627441 0.166412
0.377014 0.627136 0.166687
0.449615 0.626862 0.167023
0.529480 0.626556 0.167389
0.591614 0.626221 0.167694
0.652588 0.625885 0.168091
0.710297 0.625793 0.168427
0.765533 0.625763 0.168732
0.820526 0.625732 0.169067
0.878357 0.625732 0.169342
0.945801 0.625793 0.169556
0.992096 0.625702 0.169800
0.154419 0.678284 0.165497
0.171814 0.678192 0.165649
0.196625 0.678070 0.165833
0.245453 0.677887 0.166107
0.308716 0.677643 0.166412
0.376129 0.677399 0.166687
0.448761 0.677155 0.167023
0.528778 0.676819 0.167389
0.591064 0.676605 0.167694
0.652191 0.676331 0.168091
0.710297 0.676086 0.168427
0.765533 0.676025 0.168732
0.820526 0.675995 0.169067
0.878357 0.675995 0.169342
0.945801 0.676025 0.169556
0.992096 0.675934 0.169800
0.153870 0.729034 0.165497
0.171356 0.728943 0.165649
0.196228 0.728760 0.165833
0.244537 0.728638 0.166107
0.307800 0.728424 0.166412
0.375275 0.728210 0.166687
0.447906 0.728058 0.167023
0.528015 0.727814 0.167389
0.590576 0.727570 0.167694
0.651733 0.727325 0.168091
0.709930 0.727173 0.168427
0.765533 0.726929 0.168732
0.820526 0.726959 0.169067
0.878357 0.726929 0.169342
0.945801 0.726959 0.169556
0.992096 0.726898 0.169800
0.153320 0.781494 0.165497
0.170868 0.781372 0.165649
0.195801 0.781250 0.165833
0.243561 0.781158 0.166107
0.306946 0.781036 0.166412
0.374420 0.780823 0.166687
0.447083 0.780640 0.167023
0.527222 0.780518 0.167389
0.590057 0.780334 0.167694
0.651306 0.780151 0.168091
0.709625 0.779938 0.168427
0.765289 0.779785 0.168732
0.820526 0.779633 0.169067
0.878357 0.779633 0.169342
0.945801 0.779633 0.169556
0.992096 0.779602 0.169800
0.152802 0.837555 0.165497
0.170410 0.837463 0.165649
0.195374 0.837402 0.165833
0.242615 0.837311 0.166107
0.306061 0.837189 0.166412
0.373535 0.837097 0.166687
0.446198 0.836914 0.167023
0.526428 0.836761 0.167389
0.589508 0.836670 0.167694
0.650879 0.836578 0.168091
0.709290 0.836426 0.168427
0.765015 0.836273 0.168732
0.820404 0.836212 0.169067
0.878357 0.836090 0.169342
0.945801 0.836090 0.169556
0.992096 0.836090 0.169800
0.152252 0.900848 0.165497
0.169952 0.900787 0.165649
0.194977 0.900787 0.165833
0.241669 0.900726 0.166107
0.305115 0.900726 0.166412
0.372681 0.900696 0.166687
0.445343 0.900604 0.167023
0.525604 0.900452 0.167389
0.589020 0.900330 0.167694
0.650452 0.900299 0.168091
0.708984 0.900208 0.168427
0.764862 0.900146 0.168732
0.820190 0.900146 0.169067
0.878265 0.900055 0.169342
0.945801 0.899994 0.169556
0.992096 0.899963 0.169800
0.151703 0.984222 0.165497
0.169464 0.984222 0.165649
0.194580 0.984222 0.165833
0.240753 0.984222 0.166107
0.304199 0.984222 0.166412
0.371826 0.984222 0.166687
0.444519 0.984222 0.167023
0.524780 0.984222 0.167389
0.588440 0.984222 0.167694
0.650024 0.984222 0.168091
0.708588 0.984222 0.168427
0.764557 0.984222 0.168732
0.820007 0.984222 0.169067
0.878082 0.984222 0.169342
0.945801 0.984222 0.169556
0.992096 0.984222 0.169800
0.152130 0.103943 0.200836
0.169830 0.103729 0.201141
0.195251 0.103485 0.200287
0.243347 0.103088 0.199249
0.307648 0.102722 0.198334
0.376038 0.102295 0.197357
0.449554 0.101898 0.196442
0.530090 0.101410 0.195496
0.592316 0.100952 0.195831
0.652649 0.100464 0.198090
0.710297 0.100006 0.200256
0.765533 0.099548 0.202423
0.820526 0.099121 0.204529
0.878357 0.098724 0.206635
0.945801 0.098389 0.208679
0.992096 0.098053 0.209839
0.152344 0.147736 0.200348
0.170319 0.146912 0.199677
0.195618 0.145935 0.199127
0.244080 0.144623 0.198151
0.308380 0.143188 0.197144
0.376740 0.141754 0.196228
0.450287 0.140198 0.195251
0.530609 0.138580 0.194366
0.592743 0.137512 0.194672
0.653046 0.137360 0.196869
0.710571 0.137238 0.199127
0.765747 0.137146 0.201355
0.820648 0.137054 0.203461
0.878387 0.137054 0.205505
0.945862 0.137207 0.207581
0.992096 0.137024 0.208771
0.152924 0.210907 0.198792
0.170807 0.210175 0.198151
0.195831 0.209595 0.198364
0.244080 0.208679 0.198151
0.308380 0.207428 0.197144
0.376740 0.206055 0.196228
0.450287 0.204620 0.195251
0.530609 0.203186 0.194366
0.592743 0.202209 0.194672
0.653046 0.202087 0.196869
0.710571 0.201965 0.199127
0.765747 0.201874 0.201355
0.820648 0.201843 0.203461
0.878387 0.201874 0.205505
0.945862 0.202026 0.207581
0.992096 0.201874 0.208771
0.153503 0.274658 0.197296
0.171326 0.273895 0.196655
0.196289 0.273407 0.196838
0.244629 0.272827 0.197357
0.308380 0.271942 0.197144
0.376740 0.270660 0.196228
0.450287 0.269318 0.195251
0.530609 0.267975 0.194366
0.592743 0.267059 0.194672
0.653046 0.266968 0.196869
0.710571 0.266815 0.199127
0.765747 0.266815 0.201355
0.820648 0.266785 0.203461
0.878387 0.266815 0.205505
0.945862 0.266968 0.207581
0.992096 0.266815 0.208771
0.154053 0.339081 0.195801
0.171814 0.338379 0.195129
0.196686 0.337921 0.195404
0.245575 0.337402 0.195862
0.308868 0.336853 0.196411
0.376740 0.335938 0.196228
0.450287 0.334717 0.195251
0.530609 0.333435 0.194366
0.592743 0.332611 0.194672
0.653046 0.332489 0.196869
0.710571 0.332428 0.199127
0.765747 0.332397 0.201355
0.820648 0.332367 0.203461
0.878387 0.332428 0.205505
0.945862 0.332520 0.207581
0.992096 0.332428 0.208771
0.154602 0.403839 0.194305
0.172333 0.403198 0.193695
0.197113 0.402863 0.193909
0.246552 0.402374 0.194366
0.309814 0.401855 0.194916
0.377167 0.401245 0.195496
0.450287 0.400330 0.195251
0.530609 0.399109 0.194366
0.592743 0.398438 0.194672
0.653046 0.398346 0.196869
0.710571 0.398254 0.199127
0.765747 0.398193 0.201355
0.820648 0.398193 0.203461
0.878387 0.398224 0.205505
0.945862 0.398315 0.207581
0.992096 0.398193 0.208771
0.155151 0.469025 0.192871
0.172821 0.468475 0.192230
0.197601 0.468018 0.192383
0.247620 0.467590 0.192871
0.310760 0.467041 0.193451
0.378082 0.466583 0.194061
0.450653 0.466034 0.194611
0.530609 0.465088 0.194366
0.592743 0.464386 0.194672
0.653046 0.464355 0.196869
0.710571 0.464233 0.199127
0.765747 0.464172 0.201355
0.820648 0.464172 0.203461
0.878387 0.464203 0.205505
0.945862 0.464264 0.207581
0.992096 0.464172 0.208771
0.155670 0.526917 0.191406
0.173279 0.526489 0.190735
0.197998 0.526184 0.190948
0.248535 0.525909 0.191406
0.311676 0.525543 0.191925
0.378937 0.525177 0.192566
0.451538 0.524780 0.193176
0.530823 0.524353 0.193848
0.592743 0.523926 0.194672
0.653046 0.523895 0.196869
0.710571 0.523804 0.199127
0.765747 0.523743 0.201355
0.820648 0.523712 0.203461
0.878387 0.523743 0.205505
0.945862 0.523773 0.207581
0.992096 0.523712 0.208771
0.155487 0.578003 0.191956
0.173126 0.577667 0.191376
0.197845 0.577332 0.191528
0.248138 0.577057 0.191986
0.311279 0.576782 0.192566
0.378632 0.576447 0.193146
0.451172 0.576111 0.193756
0.530579 0.575745 0.194458
0.592590 0.575348 0.195099
0.653046 0.575226 0.196869
0.710571 0.575165 0.199127
0.765747 0.575104 0.201355
0.820648 0.575104 0.203461
0.878387 0.575073 0.205505
0.945862 0.575104 0.207581
0.992096 0.575073 0.208771
0.154968 0.628265 0.193420
0.172638 0.627960 0.192780
0.197418 0.627747 0.193024
0.247162 0.627502 0.193481
0.310394 0.627289 0.194031
0.377716 0.626923 0.194611
0.450378 0.626678 0.195251
0.529938 0.626373 0.195862
0.592072 0.626038 0.196564
0.652954 0.625732 0.197205
0.710571 0.625610 0.199127
0.765747 0.625549 0.201355
0.820648 0.625519 0.203461
0.878387 0.625519 0.205505
0.945862 0.625549 0.207581
0.992096 0.625519 0.208771
0.154419 0.678284 0.194885
0.172150 0.678070 0.194275
0.196960 0.677887 0.194458
0.246216 0.677643 0.194916
0.309509 0.677490 0.195404
0.376862 0.677216 0.196045
0.449493 0.676971 0.196655
0.529327 0.676758 0.197296
0.591461 0.676422 0.197998
0.652496 0.676178 0.198639
0.710480 0.675873 0.199219
0.765747 0.675842 0.201355
0.820648 0.675842 0.203461
0.878387 0.675842 0.205505
0.945862 0.675842 0.207581
0.992096 0.675812 0.208771
0.153870 0.729034 0.196289
0.171692 0.728821 0.195648
0.196564 0.728668 0.195862
0.245270 0.728485 0.196350
0.308533 0.728302 0.196869
0.375977 0.728119 0.197449
0.448608 0.727875 0.198090
0.528656 0.727661 0.198730
0.591003 0.727478 0.199371
0.652039 0.727234 0.199982
0.710205 0.726990 0.200684
0.765747 0.726807 0.201355
0.820648 0.726776 0.203461
0.878387 0.726776 0.205505
0.945862 0.726807 0.207581
0.992096 0.726776 0.208771
0.153320 0.781494 0.197723
0.171173 0.781250 0.197083
0.196167 0.781158 0.197296
0.244324 0.781067 0.197784
0.307648 0.780853 0.198334
0.375092 0.780701 0.198883
0.447754 0.780579 0.199524
0.527832 0.780334 0.200104
0.590485 0.780212 0.200775
0.651672 0.780029 0.201416
0.709869 0.779877 0.202057
0.765503 0.779694 0.202667
0.820648 0.779541 0.203461
0.878387 0.779541 0.205505
0.945862 0.779541 0.207581
0.992096 0.779541 0.208771
0.152802 0.837555 0.199188
0.170715 0.837341 0.198517
0.195709 0.837311 0.198639
0.243378 0.837189 0.199158
0.306763 0.837097 0.199677
0.374237 0.836975 0.200256
0.446930 0.836853 0.200897
0.527069 0.836700 0.201508
0.589935 0.836609 0.202148
0.651245 0.836487 0.202820
0.709564 0.836334 0.203430
0.765198 0.836212 0.204041
0.820496 0.836121 0.204590
0.878387 0.836029 0.205505
0.945862 0.836090 0.207581
0.992096 0.835999 0.208771
0.152252 0.900848 0.200562
0.170227 0.900787 0.199890
0.195313 0.900726 0.200165
0.242432 0.900726 0.200592
0.305847 0.900696 0.201141
0.373383 0.900635 0.201691
0.446106 0.900543 0.202332
0.526276 0.900391 0.202942
0.589386 0.900330 0.203583
0.650818 0.900238 0.204224
0.709229 0.900208 0.204865
0.764984 0.900146 0.205444
0.820313 0.900085 0.206024
0.878357 0.899994 0.206543
0.945862 0.899994 0.207581
0.992096 0.899963 0.208771
0.151703 0.984222 0.201965
0.169769 0.984222 0.201324
0.194885 0.984222 0.201538
0.241486 0.984222 0.201996
0.304962 0.984222 0.202515
0.372498 0.984222 0.203064
0.445221 0.984222 0.203674
0.525482 0.984222 0.204315
0.588928 0.984222 0.204987
0.650330 0.984222 0.205597
0.708862 0.984222 0.206238
0.764771 0.984222 0.206818
0.820129 0.984222 0.207397
0.878174 0.984222 0.207916
0.945801 0.984222 0.208374
0.992096 0.984222 0.208771
0.152832 0.103943 0.274963
0.170441 0.103729 0.275330
0.195404 0.103485 0.275787
0.243347 0.103088 0.275208
0.307648 0.102722 0.274048
0.376038 0.102295 0.272888
0.449554 0.101898 0.271820
0.530090 0.101410 0.270782
0.592316 0.100952 0.271057
0.652649 0.100464 0.273682
0.710297 0.100006 0.276245
0.765533 0.099548 0.278809
0.820526 0.099121 0.281372
0.878357 0.098724 0.283783
0.945801 0.098389 0.286194
0.992096 0.098053 0.287567
0.152832 0.147156 0.274963
0.170746 0.146332 0.274231
0.195892 0.145508 0.273895
0.244446 0.144440 0.273285
0.308655 0.143005 0.272156
0.377014 0.141510 0.270996
0.450562 0.139984 0.269897
0.530823 0.138336 0.268860
0.592926 0.137329 0.269135
0.653137 0.137146 0.271790
0.710663 0.136963 0.274384
0.765869 0.136902 0.276947
0.820709 0.136871 0.279510
0.878387 0.136871 0.281891
0.945862 0.136963 0.284271
0.992096 0.136810 0.285706
0.152924 0.210907 0.274689
0.170807 0.210175 0.273926
0.196198 0.209076 0.272675
0.245270 0.207947 0.271790
0.309509 0.206635 0.270630
0.377808 0.205322 0.269531
0.451355 0.203827 0.268433
0.531342 0.202423 0.267334
0.593384 0.201447 0.267700
0.653534 0.201355 0.270294
0.710938 0.201233 0.272858
0.766052 0.201141 0.275452
0.820862 0.201111 0.277924
0.878510 0.201141 0.280396
0.945923 0.201263 0.282837
0.992096 0.201141 0.284180
0.153503 0.274658 0.272888
0.171326 0.273895 0.272186
0.196625 0.272888 0.270935
0.245758 0.272125 0.270874
0.309509 0.271179 0.270630
0.377808 0.269928 0.269531
0.451355 0.268585 0.268433
0.531342 0.267242 0.267334
0.593384 0.266327 0.267700
0.653534 0.266266 0.270294
0.710938 0.266144 0.272858
0.766052 0.266083 0.275452
0.820862 0.265991 0.277924
0.878510 0.266083 0.280396
0.945923 0.266205 0.282837
0.992096 0.266083 0.284180
0.154053 0.339081 0.271179
0.171814 0.338379 0.270386
0.197083 0.337433 0.269135
0.246796 0.336700 0.269104
0.309967 0.336151 0.269714
0.377808 0.335297 0.269531
0.451355 0.334076 0.268433
0.531342 0.332764 0.267334
0.593384 0.331909 0.267700
0.653534 0.331818 0.270294
0.710938 0.331757 0.272858
0.766052 0.331696 0.275452
0.820862 0.331696 0.277924
0.878510 0.331757 0.280396
0.945923 0.331818 0.282837
0.992096 0.331757 0.284180
0.154602 0.403839 0.269440
0.172333 0.403198 0.268677
0.197510 0.402405 0.267456
0.247772 0.401733 0.267365
0.311005 0.401184 0.267975
0.378265 0.400665 0.268677
0.451355 0.399750 0.268433
0.531342 0.398590 0.267334
0.593384 0.397858 0.267700
0.653534 0.397736 0.270294
0.710938 0.397675 0.272858
0.766052 0.397552 0.275452
0.820862 0.397552 0.277924
0.878510 0.397583 0.280396
0.945923 0.397736 0.282837
0.992096 0.397583 0.284180
0.155151 0.469025 0.267700
0.172821 0.468475 0.266937
0.197968 0.467651 0.265717
0.248749 0.466980 0.265625
0.311890 0.466522 0.266266
0.379150 0.466034 0.266907
0.451721 0.465393 0.267670
0.531342 0.464539 0.267334
0.593384 0.463867 0.267700
0.653534 0.463715 0.270294
0.710938 0.463715 0.272858
0.766052 0.463623 0.275452
0.820862 0.463623 0.277924
0.878510 0.463654 0.280396
0.945923 0.463715 0.282837
0.992096 0.463654 0.284180
0.155670 0.526917 0.265991
0.173279 0.526489 0.265228
0.198395 0.525909 0.264008
0.249756 0.525482 0.263916
0.312805 0.525146 0.264557
0.380005 0.524780 0.265228
0.452606 0.524353 0.265961
0.531616 0.523926 0.266693
0.593384 0.523560 0.267700
0.653534 0.523468 0.270294
0.710938 0.523407 0.272858
0.766052 0.523346 0.275452
0.820862 0.523346 0.277924
0.878510 0.523346 0.280396
0.945923 0.523407 0.282837
0.992096 0.523315 0.284180
0.155487 0.578003 0.266663
0.173126 0.577667 0.265930
0.198212 0.577118 0.264648
0.249359 0.576752 0.264587
0.312500 0.576477 0.265228
0.379700 0.576172 0.265900
0.452271 0.575775 0.266632
0.531311 0.575439 0.267395
0.593201 0.575043 0.268158
0.653534 0.574921 0.270294
0.710938 0.574860 0.272858
0.766052 0.574768 0.275452
0.820862 0.574768 0.277924
0.878510 0.574768 0.280396
0.945923 0.574799 0.282837
0.992096 0.574738 0.284180
0.154968 0.628265 0.268402
0.172638 0.627960 0.267639
0.197784 0.627533 0.266388
0.248383 0.627228 0.266357
0.311554 0.626923 0.266937
0.378815 0.626678 0.267639
0.451355 0.626404 0.268341
0.530731 0.626068 0.269104
0.592712 0.625763 0.269806
0.653473 0.625458 0.270630
0.710938 0.625305 0.272858
0.766052 0.625275 0.275452
0.820862 0.625244 0.277924
0.878510 0.625244 0.280396
0.945923 0.625244 0.282837
0.992096 0.625244 0.284180
0.154419 0.678284 0.270111
0.172150 0.678070 0.269318
0.197388 0.677673 0.268097
0.247406 0.677490 0.268066
0.310638 0.677216 0.268677
0.377930 0.676971 0.269318
0.450562 0.676758 0.269989
0.530090 0.676453 0.270782
0.592194 0.676239 0.271576
0.653076 0.675934 0.272278
0.710938 0.675690 0.273071
0.766052 0.675629 0.275452
0.820862 0.675629 0.277924
0.878510 0.675598 0.280396
0.945923 0.675629 0.282837
0.992096 0.675598 0.284180
0.153870 0.729034 0.271790
0.171692 0.728821 0.270996
0.196930 0.728546 0.269745
0.246460 0.728302 0.269714
0.309723 0.728149 0.270294
0.377045 0.727875 0.270966
0.449677 0.727753 0.271698
0.529480 0.727509 0.272430
0.591614 0.727264 0.273254
0.652618 0.727081 0.273956
0.710632 0.726837 0.274689
0.766052 0.726654 0.275452
0.820862 0.726563 0.277924
0.878510 0.726624 0.280396
0.945923 0.726624 0.282837
0.992096 0.726563 0.284180
0.153320 0.781494 0.273438
0.171173 0.781250 0.272644
0.196503 0.781097 0.271423
0.245514 0.780884 0.271362
0.308777 0.780731 0.271973
0.376160 0.780609 0.272644
0.448792 0.780365 0.273346
0.528900 0.780243 0.274109
0.591125 0.780090 0.274841
0.652191 0.779907 0.275604
0.710297 0.779694 0.276367
0.765869 0.779572 0.277039
0.820862 0.779358 0.277924
0.878510 0.779358 0.280396
0.945923 0.779388 0.282837
0.992096 0.779358 0.284180
0.152802 0.837555 0.275085
0.170715 0.837341 0.274323
0.196136 0.837189 0.273071
0.244598 0.837097 0.273041
0.307861 0.836975 0.273651
0.375366 0.836853 0.274323
0.447998 0.836731 0.275024
0.528076 0.836609 0.275787
0.590576 0.836487 0.276520
0.651733 0.836334 0.277283
0.709961 0.836212 0.277985
0.765564 0.836121 0.278717
0.820709 0.835938 0.279358
0.878510 0.835876 0.280396
0.945923 0.835876 0.282837
0.992096 0.835846 0.284180
0.152252 0.900848 0.276764
0.170227 0.900787 0.276031
0.195648 0.900726 0.274750
0.243652 0.900696 0.274689
0.306976 0.900635 0.275299
0.374451 0.900543 0.275940
0.447144 0.900391 0.276672
0.527252 0.900330 0.277405
0.590057 0.900238 0.278168
0.651367 0.900208 0.278900
0.709625 0.900146 0.279633
0.765320 0.900085 0.280365
0.820526 0.899994 0.281006
0.878418 0.899902 0.281647
0.945923 0.899902 0.282837
0.992096 0.899902 0.284180
0.151703 0.984222 0.278412
0.169769 0.984222 0.277588
0.195251 0.984222 0.276398
0.242676 0.984222 0.276337
0.306091 0.984222 0.276947
0.373596 0.984222 0.277557
0.446289 0.984222 0.278320
0.526459 0.984222 0.279022
0.589539 0.984222 0.279785
0.650909 0.984222 0.280518
0.709320 0.984222 0.281281
0.765076 0.984222 0.281921
0.820404 0.984222 0.282654
0.878357 0.984222 0.283234
0.945862 0.984222 0.283752
0.992096 0.984222 0.284180
0.153473 0.103943 0.354919
0.171021 0.103729 0.355194
0.195892 0.103485 0.355591
0.243866 0.103088 0.356079
0.307648 0.102722 0.355865
0.376038 0.102295 0.354889
0.449554 0.101898 0.353882
0.530090 0.101410 0.353027
0.592316 0.100952 0.353271
0.652649 0.100464 0.355560
0.710297 0.100006 0.357819
0.765533 0.099548 0.360077
0.820526 0.099121 0.362213
0.878357 0.098724 0.364380
0.945801 0.098389 0.366516
0.992096 0.098053 0.367737
0.153473 0.146393 0.354919
0.171326 0.145569 0.354248
0.196411 0.144714 0.353973
0.244934 0.144043 0.354462
0.308655 0.143005 0.354187
0.377014 0.141510 0.353241
0.450562 0.139984 0.352295
0.530823 0.138336 0.351318
0.592926 0.137329 0.351654
0.653137 0.137146 0.353882
0.710663 0.136963 0.356171
0.765869 0.136902 0.358398
0.820709 0.136871 0.360657
0.878387 0.136871 0.362793
0.945862 0.136963 0.364868
0.992096 0.136810 0.366089
0.153473 0.210327 0.354919
0.171326 0.209534 0.354248
0.196625 0.208435 0.353180
0.245972 0.207550 0.352844
0.309692 0.206573 0.352631
0.377960 0.205231 0.351685
0.451477 0.203796 0.350739
0.531464 0.202332 0.349762
0.593445 0.201385 0.350037
0.653625 0.201263 0.352295
0.710999 0.201111 0.354614
0.766083 0.201050 0.356812
0.820923 0.201019 0.359039
0.878571 0.201019 0.361176
0.945923 0.201141 0.363281
0.992096 0.201019 0.364532
0.153503 0.274658 0.354919
0.171326 0.273895 0.354218
0.196625 0.272888 0.353180
0.246399 0.271729 0.352112
0.310638 0.270569 0.351074
0.378906 0.269226 0.350128
0.452423 0.267914 0.349152
0.532104 0.266541 0.348236
0.593964 0.265625 0.348511
0.654053 0.265503 0.350830
0.711395 0.265411 0.353119
0.766327 0.265381 0.355347
0.821106 0.265350 0.357544
0.878693 0.265381 0.359711
0.946045 0.265503 0.361816
0.992096 0.265381 0.363068
0.154053 0.339081 0.353363
0.171814 0.338379 0.352722
0.197083 0.337433 0.351624
0.247406 0.336365 0.350555
0.311188 0.335480 0.350342
0.378906 0.334595 0.350128
0.452423 0.333374 0.349152
0.532104 0.332123 0.348236
0.593964 0.331299 0.348511
0.654053 0.331177 0.350830
0.711395 0.331116 0.353119
0.766327 0.331055 0.355347
0.821106 0.331055 0.357544
0.878693 0.331085 0.359711
0.946045 0.331207 0.361816
0.992096 0.331085 0.363068
0.154602 0.403839 0.351868
0.172333 0.403198 0.351227
0.197510 0.402405 0.350128
0.248444 0.401367 0.349091
0.312073 0.400665 0.348755
0.379303 0.400055 0.349365
0.452423 0.399109 0.349152
0.532104 0.398010 0.348236
0.593964 0.397247 0.348511
0.654053 0.397186 0.350830
0.711395 0.397095 0.353119
0.766327 0.397064 0.355347
0.821106 0.396973 0.357544
0.878693 0.396973 0.359711
0.946045 0.397186 0.361816
0.992096 0.396973 0.363068
0.155151 0.469025 0.350342
0.172821 0.468475 0.349701
0.197968 0.467651 0.348572
0.249420 0.466705 0.347565
0.312988 0.466003 0.347290
0.380219 0.465424 0.347900
0.452789 0.464905 0.348511
0.532104 0.464020 0.348236
0.593964 0.463348 0.348511
0.654053 0.463226 0.350830
0.711395 0.463135 0.353119
0.766327 0.463043 0.355347
0.821106 0.463043 0.357544
0.878693 0.463043 0.359711
0.946045 0.463196 0.361816
