Color Lookup Presets Effects/z1 (88).CUBE
#Created by: Adobe Photoshop Export Color Lookup Plugin
#Copyright: (C) Copyright 2015 www.zafizack.com
TITLE "zafizack-VG-14"
#LUT size
LUT_3D_SIZE 6
#data domain
DOMAIN_MIN 0.0 0.0 0.0
DOMAIN_MAX 1.0 1.0 1.0
#LUT data points
0.000000 0.000000 0.000000
0.229218 0.000336 0.000000
0.437744 0.005157 0.000000
0.642426 0.035645 0.000031
0.843903 0.087524 0.000061
1.000000 0.126678 0.000092
0.000000 0.134674 0.118622
0.322296 0.174072 0.082153
0.505737 0.197144 0.078888
0.685516 0.231964 0.064240
0.863586 0.266754 0.032440
1.000000 0.297302 0.000061
0.000000 0.302826 0.240295
0.214172 0.306427 0.218445
0.581329 0.317017 0.168274
0.734100 0.343170 0.164429
0.886139 0.369324 0.157410
1.000000 0.392944 0.146240
0.000000 0.465240 0.376251
0.125763 0.435577 0.343475
0.489166 0.445831 0.304840
0.788208 0.406830 0.246124
0.911713 0.425751 0.245453
1.000000 0.443115 0.243134
0.000000 0.632874 0.525635
0.000000 0.637970 0.489655
0.280457 0.654175 0.455139
0.630829 0.681335 0.405640
0.921295 0.681152 0.338654
1.000000 0.691284 0.332031
0.000000 0.825195 0.685272
0.000000 0.857880 0.652069
0.000000 0.896179 0.615387
0.360718 0.937408 0.574402
0.756287 0.978882 0.497986
1.000000 1.000000 0.404755
0.000000 0.000000 0.132690
0.241394 0.000000 0.166260
0.446228 0.000000 0.193268
0.647858 0.010559 0.215118
0.846649 0.064972 0.234039
1.000000 0.105103 0.252594
0.000000 0.147095 0.173798
0.181732 0.178925 0.190552
0.413971 0.217163 0.204254
0.627594 0.249908 0.212799
0.835571 0.288330 0.219055
1.000000 0.321899 0.222900
0.000000 0.311340 0.273590
0.077332 0.329651 0.291656
0.481476 0.359344 0.276398
0.671204 0.386139 0.279938
0.855408 0.414459 0.281860
1.000000 0.440674 0.281982
0.000000 0.470581 0.389923
0.000000 0.484009 0.404144
0.325500 0.482269 0.385590
0.722015 0.474518 0.344788
0.878754 0.495239 0.345398
1.000000 0.514679 0.344879
0.000000 0.635834 0.517426
0.000000 0.653595 0.527496
0.162567 0.670532 0.504059
0.525665 0.700317 0.477875
0.887146 0.715668 0.427307
1.000000 0.728058 0.421112
0.000000 0.825195 0.654083
0.000000 0.838715 0.661530
0.000000 0.880615 0.638428
0.275757 0.926849 0.611298
0.712006 0.974182 0.555939
1.000000 1.000000 0.479126
0.000000 0.000000 0.277527
0.241364 0.000000 0.313904
0.454712 0.000000 0.349731
0.653259 0.000000 0.382782
0.849274 0.038361 0.414734
1.000000 0.081818 0.445496
0.000000 0.147095 0.321136
0.180847 0.178040 0.341003
0.423584 0.206573 0.362579
0.633453 0.240112 0.383759
0.838409 0.278381 0.405487
1.000000 0.311707 0.426697
0.000000 0.319885 0.347351
0.103851 0.341553 0.369843
0.353241 0.388611 0.393433
0.603790 0.430176 0.407318
0.823151 0.460236 0.415955
1.000000 0.488281 0.423615
0.000000 0.475952 0.445557
0.000000 0.492950 0.462799
0.202942 0.526794 0.481995
0.647614 0.543152 0.464752
0.842712 0.565979 0.468933
1.000000 0.586670 0.470856
0.000000 0.638824 0.552460
0.000000 0.661346 0.564941
0.000000 0.689117 0.577850
0.426025 0.719757 0.567749
0.850861 0.749481 0.536591
1.000000 0.765045 0.534180
0.000000 0.825195 0.667084
0.000000 0.843414 0.676788
0.000000 0.865662 0.685822
0.188965 0.915771 0.672577
0.667053 0.969543 0.638184
1.000000 1.000000 0.577393
0.000000 0.000000 0.423157
0.241333 0.000000 0.462036
0.454681 0.000000 0.501831
0.658661 0.000000 0.542175
0.851929 0.007324 0.580658
1.000000 0.052063 0.617218
0.000000 0.147095 0.469269
0.180511 0.177704 0.490875
0.423248 0.206024 0.516602
0.639221 0.229950 0.543335
0.841278 0.268463 0.572052
1.000000 0.301575 0.600769
0.000000 0.319885 0.500122
0.103729 0.341217 0.523712
0.352295 0.387573 0.551086
0.610565 0.422455 0.570129
0.826202 0.452911 0.585876
1.000000 0.481049 0.601868
0.000000 0.481293 0.542450
0.000000 0.501740 0.563049
0.260162 0.544647 0.586792
0.547363 0.598755 0.603790
0.803345 0.637177 0.614716
1.000000 0.659760 0.619476
0.000000 0.641815 0.630035
0.000000 0.669098 0.645294
0.083740 0.702637 0.661377
0.333954 0.741089 0.678345
0.810303 0.781250 0.666779
1.000000 0.802063 0.668701
0.000000 0.825195 0.724091
0.000000 0.848206 0.736115
0.000000 0.875580 0.747131
0.064026 0.904785 0.757294
0.621552 0.964905 0.743134
1.000000 1.000000 0.697113
0.000000 0.000000 0.572357
0.241333 0.000000 0.612762
0.454651 0.000000 0.655060
0.658630 0.000000 0.698639
0.854553 0.000000 0.743317
1.000000 0.012360 0.783447
0.000000 0.147095 0.620239
0.180359 0.177551 0.642761
0.422882 0.205841 0.670868
0.639069 0.229584 0.700989
0.844086 0.258179 0.733887
1.000000 0.291412 0.767303
0.000000 0.319885 0.653748
0.103668 0.341095 0.678223
0.351746 0.386963 0.707703
0.609924 0.421600 0.730377
0.829315 0.445251 0.749481
1.000000 0.473572 0.770294
0.000000 0.481293 0.699768
0.000000 0.501587 0.721039
0.259857 0.544098 0.746368
0.546448 0.597748 0.766968
0.806915 0.631897 0.781677
1.000000 0.654633 0.790985
0.000000 0.644775 0.749664
0.000000 0.676849 0.768005
0.173004 0.716431 0.787750
0.446503 0.762024 0.809174
0.762390 0.809692 0.818756
1.000000 0.839050 0.824860
0.000000 0.825195 0.824371
0.000000 0.853058 0.838898
0.000000 0.885773 0.852264
0.232300 0.921417 0.865051
0.576233 0.960236 0.869965
1.000000 1.000000 0.837891
0.000000 0.000000 0.724701
0.241333 0.000000 0.766327
0.454620 0.000000 0.810394
0.658539 0.000000 0.856140
0.854492 0.000000 0.903320
1.000000 0.000000 0.948181
0.000000 0.147095 0.773895
0.180298 0.177490 0.797211
0.422699 0.205719 0.826904
0.638733 0.229431 0.859131
0.843964 0.257874 0.894775
1.000000 0.280884 0.931580
0.000000 0.319885 0.809296
0.103638 0.341003 0.834442
0.351440 0.386627 0.865356
0.609314 0.421143 0.890137
0.828979 0.444611 0.912140
1.000000 0.466003 0.935486
0.000000 0.481293 0.857910
0.000000 0.501495 0.879761
0.259705 0.543793 0.906250
0.545746 0.597015 0.928986
0.806122 0.631042 0.946625
1.000000 0.649170 0.958282
0.000000 0.644775 0.910889
0.000000 0.676758 0.929932
0.172913 0.716125 0.950714
0.446075 0.761322 0.973724
0.761627 0.808868 0.986450
1.000000 0.836182 0.995361
0.000000 0.825195 0.967468
0.000000 0.857819 0.984802
0.000000 0.895996 1.000000
0.360596 0.937103 1.000000
0.696014 0.972229 1.000000
1.000000 1.000000 1.000000
