Color Lookup Presets Effects/z1 (86).CUBE
#Created by: Adobe Photoshop Export Color Lookup Plugin
#Copyright: (C) Copyright 2015 www.zafizack.com
TITLE "zafizack-VG-12"
#LUT size
LUT_3D_SIZE 6
#data domain
DOMAIN_MIN 0.0 0.0 0.0
DOMAIN_MAX 1.0 1.0 1.0
#LUT data points
0.087585 0.050232 0.068115
0.252502 0.028503 0.050873
0.550598 0.009216 0.105438
0.780853 0.076752 0.180115
0.915192 0.122742 0.257294
1.000000 0.155945 0.341919
0.077911 0.134216 0.055878
0.338684 0.194244 0.114716
0.609009 0.203461 0.157898
0.802948 0.224792 0.221863
0.923920 0.239929 0.295227
1.000000 0.255493 0.378723
0.037170 0.260498 0.013245
0.201202 0.296814 0.127045
0.633484 0.376740 0.224731
0.816101 0.394531 0.287109
0.929169 0.394104 0.341553
1.000000 0.402618 0.411163
0.000000 0.340302 0.000000
0.136902 0.373383 0.126709
0.578888 0.473175 0.227600
0.828186 0.516296 0.355042
0.934082 0.521027 0.413391
1.000000 0.519440 0.461548
0.000000 0.590179 0.000000
0.000000 0.616638 0.149597
0.315125 0.666107 0.255524
0.709137 0.737488 0.350586
0.924469 0.775635 0.474823
1.000000 0.782318 0.531982
0.000000 0.857239 0.000000
0.000000 0.880890 0.202789
0.000000 0.911316 0.305664
0.473938 0.952759 0.389557
0.794647 0.982513 0.451447
0.998444 0.999939 0.542694
0.087494 0.050049 0.146301
0.298370 0.018066 0.197906
0.569244 0.009796 0.269714
0.785980 0.078552 0.350769
0.916962 0.123260 0.425201
1.000000 0.155884 0.497620
0.071411 0.166229 0.177795
0.198395 0.198273 0.198547
0.533112 0.220459 0.253448
0.775818 0.248749 0.322510
0.911743 0.265625 0.393646
1.000000 0.279602 0.468353
0.000000 0.323883 0.174103
0.090546 0.340698 0.188202
0.537628 0.425323 0.317993
0.772247 0.442505 0.374603
0.914520 0.448303 0.424988
1.000000 0.458282 0.485168
0.000000 0.422974 0.160187
0.000000 0.436676 0.176788
0.410980 0.504761 0.292877
0.771851 0.579926 0.434601
0.916718 0.593201 0.492493
1.000000 0.592102 0.529663
0.000000 0.622101 0.168671
0.000000 0.637665 0.182861
0.208344 0.680450 0.289093
0.621552 0.748749 0.405823
0.903900 0.801117 0.536621
1.000000 0.809631 0.584961
0.000000 0.857239 0.192322
0.000000 0.872833 0.205139
0.000000 0.904907 0.316864
0.411774 0.946198 0.407043
0.769531 0.980072 0.485382
1.000000 1.000000 0.586945
0.087158 0.049591 0.339569
0.326660 0.016632 0.403992
0.625824 0.020477 0.475555
0.791260 0.080505 0.534454
0.918732 0.123657 0.581116
1.000000 0.155792 0.634949
0.072601 0.158142 0.348358
0.207886 0.197144 0.390045
0.561981 0.247650 0.447510
0.779602 0.273438 0.503571
0.912567 0.288574 0.556885
1.000000 0.301117 0.611176
0.000000 0.387268 0.377533
0.066925 0.403839 0.405975
0.405579 0.458221 0.447388
0.719421 0.492340 0.500488
0.898560 0.504730 0.545074
1.000000 0.514191 0.589874
0.000000 0.500305 0.340851
0.000000 0.513916 0.363770
0.258301 0.545990 0.387024
0.705048 0.637695 0.548553
0.898590 0.653076 0.591705
1.000000 0.656311 0.621460
0.000000 0.654663 0.326477
0.000000 0.673645 0.337799
0.102844 0.700500 0.352264
0.537109 0.765564 0.492310
0.875641 0.822174 0.630615
1.000000 0.836639 0.669006
0.000000 0.857239 0.337006
0.000000 0.874084 0.348083
0.000000 0.898651 0.357819
0.351318 0.939880 0.453613
0.749268 0.978058 0.556946
1.000000 1.000000 0.666687
0.087097 0.049561 0.523804
0.353149 0.016724 0.579407
0.644653 0.025757 0.640686
0.795044 0.081757 0.681244
0.920502 0.124054 0.725281
1.000000 0.155670 0.754425
0.072723 0.157074 0.540955
0.218842 0.196899 0.575317
0.577118 0.258759 0.626404
0.781403 0.298553 0.664856
0.913330 0.311981 0.700958
1.000000 0.323914 0.735657
0.000000 0.371185 0.551514
0.073120 0.394684 0.586914
0.418488 0.457550 0.634521
0.735718 0.512482 0.669922
0.898926 0.523560 0.695679
1.000000 0.531708 0.724396
0.000000 0.569122 0.605133
0.000000 0.585083 0.628052
0.257446 0.622589 0.657074
0.618195 0.682587 0.684814
0.878296 0.713043 0.715027
1.000000 0.717224 0.733124
0.000000 0.690063 0.565796
0.000000 0.710083 0.587799
0.130127 0.740082 0.611420
0.464508 0.785431 0.630890
0.844574 0.842316 0.745361
1.000000 0.863312 0.771606
0.000000 0.857239 0.531738
0.000000 0.875275 0.546143
0.000000 0.899628 0.544739
0.308167 0.934448 0.569702
0.736786 0.976868 0.682556
1.000000 1.000000 0.768555
0.087097 0.049530 0.670471
0.377075 0.016602 0.721405
0.656708 0.029297 0.770966
0.795044 0.081573 0.800629
0.922302 0.124481 0.830139
1.000000 0.155579 0.853973
0.072968 0.155701 0.692291
0.226349 0.196136 0.720551
0.588989 0.270386 0.770111
0.780548 0.307190 0.797241
0.913727 0.336578 0.819580
1.000000 0.347046 0.842499
0.000000 0.368713 0.713501
0.074493 0.392181 0.739227
0.427399 0.456451 0.780426
0.743317 0.521301 0.815094
0.899384 0.542450 0.831146
1.000000 0.549591 0.847046
0.000000 0.564758 0.755707
0.000000 0.574921 0.768707
0.269562 0.618164 0.800842
0.625214 0.681427 0.831146
0.879944 0.721313 0.852173
1.000000 0.727844 0.863159
0.000000 0.725189 0.799744
0.000000 0.746246 0.816376
0.117828 0.776001 0.835022
0.490265 0.823273 0.860046
0.820313 0.868317 0.873291
1.000000 0.889130 0.888641
0.000000 0.857239 0.801331
0.000000 0.876526 0.817963
0.000000 0.902893 0.835022
0.402618 0.945160 0.854095
0.732452 0.976501 0.850525
1.000000 1.000000 0.881348
0.087097 0.049530 0.782288
0.379700 0.016388 0.827026
0.656647 0.029297 0.875580
0.794922 0.081543 0.905182
0.922272 0.124359 0.934875
1.000000 0.155426 0.955658
0.073090 0.155182 0.813721
0.225098 0.197510 0.833771
0.585022 0.279877 0.875793
0.779480 0.316406 0.902771
0.913208 0.345337 0.925293
1.000000 0.371155 0.944519
0.000000 0.366241 0.845947
0.075684 0.390106 0.862396
0.427368 0.456970 0.896057
0.740387 0.528931 0.924805
0.898529 0.549591 0.938446
1.000000 0.567627 0.951752
0.000000 0.553619 0.881531
0.000000 0.573242 0.904114
0.274353 0.617126 0.927460
0.626984 0.681122 0.950592
0.878906 0.725494 0.966339
1.000000 0.738403 0.972412
0.000000 0.729553 0.938171
0.000000 0.745697 0.948669
0.136536 0.771637 0.962158
0.499786 0.819458 0.984467
0.822601 0.867462 0.995941
1.000000 0.893066 1.000000
0.000000 0.857208 0.966583
0.000000 0.877625 0.981415
0.000000 0.904602 0.996887
0.420776 0.946930 1.000000
0.766876 0.979675 1.000000
1.000000 1.000000 1.000000
