Color Lookup Presets Effects/z1 (64).CUBE
#Created by: Adobe Photoshop Export Color Lookup Plugin
#Copyright: (C) Copyright 2014 www.zafizack.com
TITLE "zafizack"
#LUT size
LUT_3D_SIZE 16
#data domain
DOMAIN_MIN 0.0 0.0 0.0
DOMAIN_MAX 1.0 1.0 1.0
#LUT data points
0.034760 0.032227 0.035126
0.034760 0.032227 0.035126
0.034760 0.032227 0.035126
0.180725 0.032227 0.077393
0.369141 0.032227 0.137695
0.532440 0.032227 0.197784
0.695831 0.032227 0.253235
0.853607 0.032227 0.304291
0.970551 0.032227 0.349915
1.000000 0.032227 0.366425
1.000000 0.032227 0.366425
1.000000 0.032227 0.366425
1.000000 0.032227 0.366425
1.000000 0.032227 0.366425
1.000000 0.032227 0.366425
1.000000 0.032227 0.366425
0.034760 0.032227 0.035126
0.034760 0.032227 0.035126
0.034760 0.032227 0.035126
0.180725 0.032227 0.077393
0.369141 0.032227 0.137695
0.532440 0.032227 0.197784
0.695831 0.032227 0.253235
0.853607 0.032227 0.304291
0.970551 0.032227 0.349915
1.000000 0.032227 0.366425
1.000000 0.032227 0.366425
1.000000 0.032227 0.366425
1.000000 0.032227 0.366425
1.000000 0.032227 0.366425
1.000000 0.032227 0.366425
1.000000 0.032227 0.366425
0.034760 0.032227 0.035126
0.034760 0.032227 0.035126
0.034760 0.032227 0.035126
0.180725 0.032227 0.077393
0.365326 0.040161 0.129791
0.524628 0.050690 0.180206
0.682159 0.061279 0.226624
0.836456 0.072052 0.269165
0.955475 0.082977 0.306824
1.000000 0.094147 0.323151
1.000000 0.087006 0.328339
1.000000 0.071320 0.339539
1.000000 0.056183 0.350128
1.000000 0.041107 0.360474
1.000000 0.032227 0.366425
1.000000 0.032227 0.366425
0.000092 0.085846 0.000000
0.000092 0.085846 0.000000
0.000092 0.085846 0.000000
0.063446 0.089264 0.000000
0.308075 0.151123 0.010681
0.475800 0.163635 0.062195
0.626221 0.175446 0.110504
0.781677 0.187622 0.154602
0.912811 0.199829 0.193695
0.995880 0.212219 0.226166
1.000000 0.224396 0.218506
1.000000 0.236908 0.207367
1.000000 0.249268 0.196136
1.000000 0.261780 0.196808
1.000000 0.274109 0.217010
1.000000 0.256226 0.233276
0.000000 0.195709 0.000000
0.000000 0.195709 0.000000
0.000000 0.195709 0.000000
0.000031 0.195709 0.000000
0.167877 0.200714 0.000000
0.415283 0.284332 0.000000
0.561676 0.299347 0.000000
0.714325 0.311798 0.005402
0.854523 0.323944 0.047089
0.956970 0.336151 0.081757
1.000000 0.348267 0.097198
1.000000 0.360107 0.084198
1.000000 0.371765 0.071167
1.000000 0.383392 0.057800
1.000000 0.394836 0.045868
1.000000 0.406189 0.066559
0.000000 0.312836 0.000000
0.000000 0.312836 0.000000
0.000000 0.312836 0.000000
0.000000 0.312836 0.000000
0.049103 0.312836 0.000000
0.266113 0.319092 0.000000
0.499146 0.413483 0.000000
0.642761 0.428284 0.000000
0.786987 0.439240 0.000000
0.904236 0.449738 0.000000
0.983154 0.460114 0.000000
1.000000 0.470337 0.000000
1.000000 0.480530 0.000000
1.000000 0.490417 0.000000
1.000000 0.500153 0.000000
1.000000 0.509827 0.000000
0.000000 0.422852 0.000000
0.000000 0.422852 0.000000
0.000000 0.422852 0.000000
0.000000 0.422852 0.000000
0.000000 0.422852 0.000000
0.149597 0.422852 0.000000
0.354980 0.429565 0.000000
0.577484 0.524719 0.000000
0.717896 0.539063 0.000000
0.843231 0.550079 0.000000
0.938904 0.560272 0.000000
1.000000 0.570587 0.000000
1.000000 0.580627 0.000000
1.000000 0.590668 0.000000
1.000000 0.600800 0.000000
1.000000 0.610931 0.000000
0.000000 0.519104 0.000000
0.000000 0.519104 0.000000
0.000000 0.519104 0.000000
0.000000 0.519104 0.000000
0.000000 0.519104 0.000000
0.028931 0.519104 0.000000
0.248016 0.519104 0.000000
0.432281 0.526215 0.000000
0.644684 0.622284 0.000000
0.782684 0.647766 0.000000
0.888611 0.659332 0.000000
0.967133 0.668671 0.000000
1.000000 0.678009 0.000000
1.000000 0.687164 0.000000
1.000000 0.695984 0.000000
1.000000 0.705048 0.000000
0.013824 0.618011 0.000000
0.014038 0.618073 0.000000
0.014313 0.618164 0.000000
0.014496 0.618225 0.000000
0.014740 0.618286 0.000000
0.015045 0.618378 0.000000
0.152313 0.618439 0.000000
0.346222 0.618500 0.000000
0.507080 0.626617 0.000000
0.713074 0.714447 0.000000
0.843872 0.747253 0.000000
0.931091 0.758270 0.000000
0.993469 0.766174 0.000000
1.000000 0.773865 0.000000
1.000000 0.781372 0.000000
1.000000 0.788666 0.000000
0.042786 0.712769 0.000000
0.043121 0.712830 0.000000
0.043488 0.712921 0.000000
0.043793 0.712982 0.000000
0.044128 0.713043 0.000000
0.044464 0.713135 0.000000
0.075653 0.713196 0.000000
0.278198 0.713287 0.000000
0.442566 0.713348 0.000000
0.587738 0.721252 0.000000
0.778992 0.795074 0.000000
0.899231 0.830566 0.000000
0.969482 0.839691 0.000000
1.000000 0.846710 0.000000
1.000000 0.852722 0.000000
1.000000 0.858765 0.000000
0.077881 0.793488 0.000000
0.078217 0.793549 0.000000
0.078583 0.793610 0.000000
0.078949 0.793671 0.000000
0.079285 0.793732 0.000000
0.079620 0.793823 0.000000
0.080048 0.793884 0.000000
0.223145 0.793945 0.000000
0.392914 0.794006 0.000000
0.531433 0.794128 0.000000
0.668335 0.801300 0.000000
0.838135 0.861237 0.000000
0.946472 0.896454 0.000000
1.000000 0.903534 0.000000
1.000000 0.909637 0.000000
1.000000 0.914490 0.000000
0.114380 0.859009 0.000000
0.115265 0.859100 0.000000
0.115112 0.859070 0.000000
0.115479 0.859131 0.000000
0.115784 0.859161 0.000000
0.116150 0.859222 0.000000
0.116547 0.859253 0.000000
0.179016 0.859375 0.000000
0.351288 0.859436 0.000000
0.492340 0.859406 0.000000
0.616150 0.859528 0.000000
0.742401 0.865875 0.000000
0.889130 0.913696 0.000000
0.985840 0.947296 0.000000
1.000000 0.952911 0.000000
1.000000 0.958405 0.000000
0.148193 0.910461 0.000000
0.148468 0.910492 0.000000
0.148804 0.910522 0.000000
0.149078 0.910553 0.000000
0.149384 0.910583 0.000000
0.149689 0.910583 0.000000
0.150024 0.910614 0.000000
0.150330 0.910645 0.000000
0.313171 0.910675 0.000000
0.457520 0.910706 0.000000
0.577057 0.910736 0.000000
0.693970 0.910736 0.000000
0.805664 0.916290 0.000000
0.931580 0.954926 0.000000
1.000000 0.987213 0.000000
1.000000 0.991974 0.000000
0.250031 0.954712 0.000000
0.237823 0.954102 0.000000
0.227417 0.953552 0.000000
0.216888 0.953064 0.000000
0.206940 0.952576 0.000000
0.197937 0.952148 0.000000
0.189789 0.951721 0.000000
0.182770 0.951385 0.000000
0.274536 0.951141 0.000000
0.422272 0.951141 0.000000
0.541016 0.951141 0.000000
0.654022 0.951172 0.000000
0.759491 0.951172 0.000000
0.857971 0.956024 0.000000
0.966309 0.988403 0.000000
1.000000 1.000000 0.000000
0.207672 0.984222 0.000000
0.201477 0.984161 0.000000
0.195709 0.984070 0.000000
0.190643 0.983978 0.000000
0.188110 0.983948 0.000000
0.188110 0.983948 0.000000
0.188934 0.983948 0.000000
0.188110 0.983948 0.000000
0.221619 0.983948 0.000000
0.375641 0.983948 0.000000
0.500031 0.983948 0.000000
0.609283 0.983948 0.000000
0.715057 0.983948 0.000000
0.810303 0.983948 0.000000
0.898529 0.988495 0.000000
1.000000 1.000000 0.000000
0.186401 1.000000 0.000000
0.185486 1.000000 0.000000
0.186401 1.000000 0.000000
0.186401 1.000000 0.000000
0.186401 1.000000 0.000000
0.186401 1.000000 0.000000
0.185486 1.000000 0.000000
0.185486 1.000000 0.000000
0.186401 1.000000 0.000000
0.331268 1.000000 0.000000
0.463989 1.000000 0.000000
0.572632 1.000000 0.000000
0.678314 1.000000 0.000000
0.775940 1.000000 0.000000
0.863525 1.000000 0.000000
0.948486 1.000000 0.000000
0.034760 0.032227 0.035126
0.034760 0.032227 0.035126
0.034760 0.032227 0.035126
0.180725 0.032227 0.077393
0.369141 0.032227 0.137695
0.532440 0.032227 0.197784
0.695831 0.032227 0.253235
0.853638 0.032227 0.304291
0.970551 0.032227 0.349915
1.000000 0.032227 0.366425
1.000000 0.032227 0.373260
1.000000 0.032227 0.386292
1.000000 0.032227 0.399567
1.000000 0.032227 0.413696
1.000000 0.032227 0.428406
1.000000 0.032227 0.443665
0.034760 0.032227 0.035126
0.034760 0.032227 0.035126
0.034760 0.032227 0.035126
0.180725 0.032227 0.077393
0.369141 0.032227 0.137695
0.532440 0.032227 0.197784
0.695831 0.032227 0.253235
0.853638 0.032227 0.304291
0.970551 0.032227 0.349915
1.000000 0.032227 0.366425
1.000000 0.032227 0.366425
1.000000 0.032227 0.366425
1.000000 0.032227 0.376678
1.000000 0.032227 0.389557
1.000000 0.032227 0.403351
1.000000 0.032227 0.417236
0.034760 0.032227 0.035126
0.034760 0.032227 0.035126
0.034760 0.032227 0.035126
0.180725 0.032227 0.077393
0.367035 0.036652 0.133301
0.526184 0.047028 0.183746
0.683899 0.057587 0.230072
0.848633 0.044067 0.294037
0.970551 0.032227 0.349915
1.000000 0.032227 0.366425
1.000000 0.032227 0.366425
1.000000 0.032227 0.366425
1.000000 0.032227 0.366425
1.000000 0.032227 0.367218
1.000000 0.032227 0.379913
1.000000 0.032227 0.393005
0.000000 0.099640 0.000000
0.000000 0.099640 0.000000
0.000000 0.099640 0.000000
0.070984 0.099640 0.000000
0.310059 0.147522 0.014832
0.477753 0.159363 0.066986
0.628265 0.171356 0.114990
0.783844 0.183319 0.159210
0.914612 0.195465 0.198334
0.996979 0.207794 0.234039
1.000000 0.220032 0.255524
1.000000 0.224182 0.275391
1.000000 0.206604 0.290070
1.000000 0.189148 0.304138
1.000000 0.171875 0.317749
1.000000 0.154877 0.330780
0.000000 0.210907 0.000000
0.000000 0.210907 0.000000
0.000000 0.210907 0.000000
0.000031 0.210907 0.000000
0.170502 0.210907 0.000000
0.416290 0.282501 0.000000
0.563995 0.295074 0.000000
0.716888 0.307404 0.011292
0.856750 0.319794 0.052551
0.958588 0.331940 0.087219
1.000000 0.344025 0.101837
1.000000 0.355957 0.113190
1.000000 0.367706 0.135681
1.000000 0.379486 0.161652
1.000000 0.390808 0.192078
1.000000 0.402130 0.226715
0.000000 0.327972 0.000000
0.000000 0.327972 0.000000
0.000000 0.327972 0.000000
0.000000 0.327972 0.000000
0.041656 0.327972 0.000000
0.264038 0.327972 0.000000
0.499084 0.413574 0.000000
0.645203 0.424530 0.000000
0.789520 0.435364 0.000000
0.906281 0.445953 0.000000
0.984497 0.456451 0.000000
1.000000 0.466827 0.000000
1.000000 0.476959 0.000000
1.000000 0.487030 0.000000
1.000000 0.496704 0.003235
1.000000 0.506683 0.035278
0.000000 0.436310 0.000000
0.000000 0.436310 0.000000
0.000000 0.436310 0.000000
0.000000 0.436310 0.000000
0.000000 0.436310 0.000000
0.139099 0.436310 0.000000
0.349091 0.436310 0.000000
0.576324 0.526184 0.000000
0.719818 0.536255 0.000000
0.845490 0.546448 0.000000
0.940704 0.556610 0.000000
1.000000 0.566956 0.000000
1.000000 0.577057 0.000000
1.000000 0.587158 0.000000
1.000000 0.597412 0.000000
1.000000 0.607208 0.000000
0.000000 0.531433 0.000000
0.000000 0.531433 0.000000
0.000000 0.531433 0.000000
0.000000 0.531433 0.000000
0.000000 0.531433 0.000000
0.012604 0.531433 0.000000
0.235596 0.531433 0.000000
0.423645 0.531433 0.000000
0.639923 0.622284 0.000000
0.783386 0.646606 0.000000
0.890228 0.656250 0.000000
0.968353 0.665497 0.000000
1.000000 0.674866 0.000000
1.000000 0.683929 0.000000
1.000000 0.693085 0.000000
1.000000 0.701843 0.000000
0.015320 0.630554 0.000000
0.015564 0.630646 0.000000
0.015808 0.630707 0.000000
0.016083 0.630768 0.000000
0.016327 0.630829 0.000000
0.016632 0.630920 0.000000
0.139648 0.630981 0.000000
0.335693 0.631042 0.000000
0.497467 0.631104 0.000000
0.707001 0.714813 0.000000
0.843933 0.747833 0.000000
0.932434 0.755951 0.000000
0.994324 0.763641 0.000000
1.000000 0.771454 0.000000
1.000000 0.778931 0.000000
1.000000 0.786530 0.000000
0.044922 0.723724 0.000000
0.045197 0.723785 0.000000
0.045502 0.723846 0.000000
0.045868 0.723938 0.000000
0.046204 0.723999 0.000000
0.046539 0.724060 0.000000
0.064392 0.724152 0.000000
0.268829 0.724213 0.000000
0.434326 0.724243 0.000000
0.575714 0.724365 0.000000
0.771729 0.795471 0.000000
0.898651 0.832214 0.000000
0.970123 0.838623 0.000000
1.000000 0.844757 0.000000
1.000000 0.850891 0.000000
1.000000 0.856903 0.000000
0.080170 0.802582 0.000000
0.080505 0.802643 0.000000
0.080872 0.802704 0.000000
0.081268 0.802765 0.000000
0.081604 0.802856 0.000000
0.081940 0.802887 0.000000
0.082306 0.802979 0.000000
0.214935 0.803040 0.000000
0.385651 0.803101 0.000000
0.524536 0.803162 0.000000
0.654327 0.803223 0.000000
0.830566 0.861481 0.000000
0.945740 0.898346 0.000000
1.000000 0.903412 0.000000
1.000000 0.908264 0.000000
1.000000 0.912933 0.000000
0.116669 0.866241 0.000000
0.116974 0.866272 0.000000
0.117340 0.866333 0.000000
0.118225 0.866425 0.000000
0.118011 0.866394 0.000000
0.118988 0.866547 0.000000
0.119293 0.866547 0.000000
0.170929 0.866547 0.000000
0.344482 0.866577 0.000000
0.486908 0.866699 0.000000
0.609711 0.866669 0.000000
0.729279 0.866760 0.000000
0.880981 0.913849 0.000000
0.984924 0.949402 0.000000
1.000000 0.953247 0.000000
1.000000 0.957092 0.000000
0.154449 0.916565 0.000000
0.150391 0.916229 0.000000
0.150665 0.916229 0.000000
0.151001 0.916260 0.000000
0.151337 0.916290 0.000000
0.151611 0.916321 0.000000
0.151917 0.916351 0.000000
0.152252 0.916382 0.000000
0.306824 0.916412 0.000000
0.452179 0.916443 0.000000
0.571533 0.916443 0.000000
0.687805 0.916473 0.000000
0.793610 0.916504 0.000000
0.923370 0.954987 0.000000
1.000000 0.988159 0.000000
1.000000 0.992676 0.000000
0.252411 0.958984 0.000000
0.240082 0.958405 0.000000
0.229584 0.957947 0.000000
0.219025 0.957489 0.000000
0.209015 0.957031 0.000000
0.199890 0.956635 0.000000
0.191650 0.956299 0.000000
0.184540 0.955963 0.000000
0.267670 0.955688 0.000000
0.416168 0.955719 0.000000
0.535553 0.955719 0.000000
0.648285 0.955719 0.000000
0.753906 0.955750 0.000000
0.847260 0.956085 0.000000
0.958069 0.988434 0.000000
1.000000 1.000000 0.000000
0.202209 0.988037 0.000000
0.196655 0.987976 0.000000
0.191650 0.987915 0.000000
0.188110 0.987885 0.000000
0.188110 0.987885 0.000000
0.188110 0.987885 0.000000
0.188110 0.987885 0.000000
0.188110 0.987885 0.000000
0.212799 0.987885 0.000000
0.367950 0.987885 0.000000
0.493622 0.987885 0.000000
0.603149 0.987915 0.000000
0.708130 0.987885 0.000000
0.804016 0.987885 0.000000
0.888702 0.988495 0.000000
1.000000 1.000000 0.000000
0.185486 1.000000 0.000000
0.185486 1.000000 0.000000
0.185486 1.000000 0.000000
0.185486 1.000000 0.000000
0.185486 1.000000 0.000000
0.185486 1.000000 0.000000
0.185486 1.000000 0.000000
0.186401 1.000000 0.000000
0.185486 1.000000 0.000000
0.328674 1.000000 0.000000
0.461151 1.000000 0.000000
0.570679 1.000000 0.000000
0.676300 1.000000 0.000000
0.774231 1.000000 0.000000
0.862122 1.000000 0.000000
0.939484 1.000000 0.000000
0.034760 0.032227 0.035126
0.034760 0.032227 0.035126
0.061066 0.032227 0.073029
0.204834 0.032227 0.113281
0.370270 0.032227 0.170929
0.533966 0.032227 0.245941
0.698120 0.032227 0.315338
0.856262 0.032227 0.379700
0.972717 0.032227 0.437775
1.000000 0.032227 0.467865
1.000000 0.032227 0.484558
1.000000 0.032227 0.501617
1.000000 0.032227 0.519928
1.000000 0.032227 0.539734
1.000000 0.032227 0.560974
1.000000 0.032227 0.584167
0.034760 0.032227 0.035126
0.034760 0.032227 0.035126
0.034760 0.032227 0.035126
0.180725 0.032227 0.077393
0.369293 0.032227 0.142792
0.533051 0.032227 0.217896
0.697083 0.032227 0.287567
0.855225 0.032227 0.352051
0.972015 0.032227 0.410370
1.000000 0.032227 0.440216
1.000000 0.032227 0.455994
1.000000 0.032227 0.472107
1.000000 0.032227 0.488770
1.000000 0.032227 0.506226
1.000000 0.032227 0.524658
1.000000 0.032227 0.544861
0.034760 0.032227 0.035126
0.034760 0.032227 0.035126
0.034760 0.032227 0.035126
0.180725 0.032227 0.077393
0.369141 0.032227 0.137695
0.532440 0.032227 0.197784
0.696106 0.032227 0.261627
0.854340 0.032227 0.326233
0.971405 0.032227 0.384766
1.000000 0.032227 0.414398
1.000000 0.032227 0.428986
1.000000 0.032227 0.444244
1.000000 0.032227 0.460022
1.000000 0.032227 0.476257
1.000000 0.032227 0.493378
1.000000 0.032227 0.510651
0.000000 0.113617 0.000000
0.000000 0.113617 0.000000
0.000000 0.113617 0.000000
0.091675 0.113617 0.000000
0.312256 0.143494 0.019470
0.479614 0.155273 0.071594
0.631256 0.167114 0.145844
0.787872 0.179199 0.222687
0.924591 0.175446 0.291199
1.000000 0.158295 0.342072
1.000000 0.141632 0.354401
1.000000 0.124969 0.366425
1.000000 0.113617 0.379211
1.000000 0.113617 0.395721
1.000000 0.113617 0.412842
1.000000 0.113617 0.430237
0.000000 0.226227 0.000000
0.000000 0.226227 0.000000
0.000000 0.226227 0.000000
0.000031 0.226227 0.000000
0.190857 0.226227 0.000000
0.418610 0.278259 0.000000
0.566315 0.290680 0.000000
0.719788 0.303101 0.032074
0.860352 0.315521 0.108093
0.961945 0.327789 0.178986
1.000000 0.339844 0.230896
1.000000 0.351929 0.262848
1.000000 0.363617 0.299072
1.000000 0.350220 0.317535
1.000000 0.333282 0.332733
1.000000 0.315826 0.347839
0.000000 0.343018 0.000000
0.000000 0.343018 0.000000
0.000000 0.343018 0.000000
0.000000 0.343018 0.000000
0.062347 0.343018 0.000000
0.282928 0.343018 0.000000
0.501282 0.409668 0.000000
0.647644 0.420746 0.000000
0.791992 0.431610 0.000000
0.909058 0.442474 0.000000
0.986938 0.452972 0.038452
1.000000 0.463257 0.078491
1.000000 0.473572 0.112335
1.000000 0.483551 0.151276
1.000000 0.493500 0.194641
1.000000 0.503235 0.242645
0.000000 0.449432 0.000000
0.000000 0.449432 0.000000
0.000000 0.449432 0.000000
0.000000 0.449432 0.000000
0.000000 0.449432 0.000000
0.160004 0.449432 0.000000
0.365936 0.449432 0.000000
0.578735 0.522858 0.000000
0.722168 0.532867 0.000000
0.847687 0.542969 0.000000
0.942902 0.553131 0.000000
1.000000 0.563446 0.000000
1.000000 0.573669 0.000000
1.000000 0.583679 0.000000
1.000000 0.593964 0.000000
1.000000 0.603943 0.038116
0.000000 0.543823 0.000000
0.000000 0.543823 0.000000
0.000000 0.543823 0.000000
0.000000 0.543823 0.000000
0.000000 0.543823 0.000000
0.026733 0.543823 0.000000
0.254578 0.543823 0.000000
0.438721 0.543823 0.000000
0.645355 0.622314 0.000000
0.785431 0.643311 0.000000
0.892059 0.652802 0.000000
0.969788 0.662292 0.000000
1.000000 0.671509 0.000000
1.000000 0.680725 0.000000
1.000000 0.689819 0.000000
1.000000 0.698853 0.000000
0.016907 0.642944 0.000000
0.017151 0.643036 0.000000
0.017426 0.643097 0.000000
0.017639 0.643158 0.000000
0.017914 0.643219 0.000000
0.018250 0.643311 0.000000
0.151184 0.643372 0.000000
0.352203 0.643433 0.000000
0.511749 0.643494 0.000000
0.712158 0.715210 0.000000
0.845734 0.745453 0.000000
0.933807 0.753479 0.000000
0.995087 0.761383 0.000000
1.000000 0.769196 0.000000
1.000000 0.776703 0.000000
1.000000 0.784241 0.000000
0.046967 0.734406 0.000000
0.047363 0.734467 0.000000
0.047638 0.734528 0.000000
0.047974 0.734619 0.000000
0.048279 0.734680 0.000000
0.048645 0.734772 0.000000
0.064911 0.734833 0.000000
0.276642 0.734833 0.000000
0.447174 0.734955 0.000000
0.590149 0.735046 0.000000
0.776550 0.795837 0.000000
0.900116 0.830292 0.000000
0.971100 0.836670 0.000000
1.000000 0.842957 0.000000
1.000000 0.849152 0.000000
1.000000 0.855072 0.000000
0.082428 0.811310 0.000000
0.082855 0.811371 0.000000
0.083160 0.811432 0.000000
0.083527 0.811493 0.000000
0.083893 0.811554 0.000000
0.084290 0.811615 0.000000
0.084625 0.811676 0.000000
0.212830 0.811737 0.000000
0.390564 0.811798 0.000000
0.533997 0.811859 0.000000
0.668304 0.811951 0.000000
0.834564 0.861816 0.000000
0.946655 0.896973 0.000000
1.000000 0.901855 0.000000
1.000000 0.906708 0.000000
1.000000 0.911591 0.000000
0.119415 0.873260 0.000000
0.119812 0.873322 0.000000
0.119568 0.873291 0.000000
0.120453 0.873383 0.000000
0.120789 0.873413 0.000000
0.120636 0.873383 0.000000
0.120941 0.873444 0.000000
0.163666 0.873535 0.000000
0.340515 0.873535 0.000000
0.488922 0.873627 0.000000
0.616394 0.873596 0.000000
0.740021 0.873718 0.000000
0.884399 0.914032 0.000000
0.985626 0.948151 0.000000
1.000000 0.952057 0.000000
1.000000 0.955902 0.000000
0.161377 0.922485 0.000000
0.156677 0.922119 0.000000
0.152618 0.921814 0.000000
0.152893 0.921844 0.000000
0.153198 0.921844 0.000000
0.153503 0.921875 0.000000
0.153809 0.921906 0.000000
0.154114 0.921936 0.000000
0.300415 0.921936 0.000000
0.446564 0.921936 0.000000
0.571411 0.921967 0.000000
0.692139 0.921997 0.000000
0.801056 0.922028 0.000000
0.926270 0.955078 0.000000
1.000000 0.988159 0.000000
1.000000 0.991547 0.000000
0.254028 0.963165 0.000000
0.242371 0.962677 0.000000
0.230438 0.962219 0.000000
0.220490 0.961792 0.000000
0.210480 0.961426 0.000000
0.201416 0.961029 0.000000
0.193085 0.960724 0.000000
0.185974 0.960449 0.000000
0.261353 0.960236 0.000000
0.410278 0.960205 0.000000
0.530121 0.960236 0.000000
0.645844 0.960236 0.000000
0.755585 0.960236 0.000000
0.851654 0.960236 0.000000
0.960419 0.988434 0.000000
1.000000 1.000000 0.000000
0.196960 0.991913 0.000000
0.192169 0.991882 0.000000
0.188934 0.991852 0.000000
0.188110 0.991852 0.000000
0.188110 0.991852 0.000000
0.188110 0.991852 0.000000
0.188110 0.991852 0.000000
0.188110 0.991852 0.000000
0.203339 0.991852 0.000000
0.360870 0.991852 0.000000
0.487244 0.991852 0.000000
0.595764 0.991852 0.000000
0.702576 0.991852 0.000000
0.802826 0.991852 0.000000
0.890350 0.991852 0.000000
1.000000 1.000000 0.000000
0.185486 1.000000 0.000000
0.185486 1.000000 0.000000
0.185486 1.000000 0.000000
0.185486 1.000000 0.000000
0.185486 1.000000 0.000000
0.185486 1.000000 0.000000
0.186401 1.000000 0.000000
0.186401 1.000000 0.000000
0.185486 1.000000 0.000000
0.327423 1.000000 0.000000
0.460938 1.000000 0.000000
0.570282 1.000000 0.000000
0.675659 1.000000 0.000000
0.773956 1.000000 0.000000
0.865143 1.000000 0.000000
0.943329 1.000000 0.000000
0.038818 0.032227 0.131622
0.040710 0.032227 0.174744
0.096375 0.032227 0.234772
0.300018 0.032227 0.335663
0.467438 0.032227 0.416107
0.539063 0.032227 0.392792
0.704071 0.032227 0.459930
0.861877 0.032227 0.521637
0.976532 0.032227 0.584534
1.000000 0.032227 0.622833
1.000000 0.032227 0.650238
1.000000 0.032227 0.679443
1.000000 0.032227 0.709106
1.000000 0.032227 0.739563
1.000000 0.032227 0.771271
1.000000 0.032227 0.802185
0.036560 0.032227 0.078400
0.038147 0.032227 0.116669
0.052765 0.032227 0.161835
0.257782 0.032227 0.260590
0.395508 0.032227 0.302002
0.537689 0.032227 0.355133
0.702423 0.032227 0.423096
0.860352 0.032227 0.485474
0.975525 0.032227 0.543854
1.000000 0.032227 0.579285
1.000000 0.032227 0.603760
1.000000 0.032227 0.630249
1.000000 0.032227 0.657654
1.000000 0.032227 0.687225
1.000000 0.032227 0.717102
1.000000 0.032227 0.747681
0.034760 0.032227 0.035126
0.035980 0.032227 0.065216
0.037567 0.032227 0.102386
0.215179 0.032227 0.190643
0.372894 0.032227 0.245178
0.536407 0.032227 0.319672
0.700989 0.032227 0.388428
0.859009 0.032227 0.451569
0.974579 0.032227 0.508514
1.000000 0.032227 0.540710
1.000000 0.032227 0.562195
1.000000 0.032227 0.585480
1.000000 0.032227 0.610352
1.000000 0.032227 0.637054
1.000000 0.032227 0.665161
1.000000 0.032227 0.694489
0.000000 0.127838 0.000000
0.000000 0.127838 0.000000
0.000000 0.127838 0.000000
0.125854 0.127838 0.035187
0.317627 0.139435 0.117218
0.494385 0.128326 0.197296
0.653809 0.127838 0.271973
0.815308 0.127838 0.341522
0.944183 0.127838 0.404297
1.000000 0.127838 0.449554
1.000000 0.127838 0.469147
1.000000 0.127838 0.488983
1.000000 0.127838 0.509521
1.000000 0.127838 0.531799
1.000000 0.127838 0.555939
1.000000 0.127838 0.581787
0.000000 0.241577 0.000000
0.000000 0.241577 0.000000
0.000000 0.241577 0.000000
0.000031 0.241577 0.000000
0.212433 0.241577 0.000000
0.423370 0.273804 0.009247
0.572266 0.286255 0.100067
0.727081 0.298828 0.188263
0.867432 0.311188 0.272552
0.968689 0.319122 0.348419
1.000000 0.301483 0.380402
1.000000 0.283752 0.394592
1.000000 0.265839 0.408447
1.000000 0.248108 0.421692
1.000000 0.241577 0.440948
1.000000 0.241577 0.464355
0.000000 0.357758 0.000000
0.000000 0.357758 0.000000
0.000000 0.357758 0.000000
0.000000 0.357758 0.000000
0.083374 0.357758 0.000000
0.302551 0.357758 0.000000
0.505157 0.405884 0.000000
0.653290 0.416992 0.000000
0.798798 0.427948 0.056396
0.915161 0.438660 0.141632
0.991119 0.449280 0.222870
1.000000 0.459717 0.274109
1.000000 0.470093 0.322601
1.000000 0.480164 0.374023
1.000000 0.478455 0.407745
1.000000 0.463959 0.421509
0.000000 0.462311 0.000000
0.000000 0.462311 0.000000
0.000000 0.462311 0.000000
0.000000 0.462311 0.000000
0.000000 0.462311 0.000000
0.180969 0.462311 0.000000
0.383057 0.462311 0.000000
0.582520 0.519409 0.000000
0.727386 0.529358 0.000000
0.853668 0.539490 0.000000
0.948029 0.549591 0.000000
1.000000 0.559814 0.074341
1.000000 0.570129 0.122711
1.000000 0.580353 0.176086
1.000000 0.590271 0.233521
1.000000 0.600403 0.292542
