Color Lookup Presets Effects/z1 (90).CUBE
#Created by: Adobe Photoshop Export Color Lookup Plugin
#Copyright: (C) Copyright 2015 www.zafizack.com
TITLE "zafizack-VG-16"
#LUT size
LUT_3D_SIZE 16
#data domain
DOMAIN_MIN 0.0 0.0 0.0
DOMAIN_MAX 1.0 1.0 1.0
#LUT data points
0.000000 0.000000 0.000000
0.066681 0.000000 0.000000
0.133331 0.000000 0.000000
0.200012 0.000000 0.000000
0.266663 0.000000 0.000000
0.333344 0.000000 0.000000
0.399994 0.000000 0.000000
0.466675 0.000000 0.000000
0.533325 0.000000 0.000000
0.600006 0.000000 0.000000
0.666656 0.000000 0.000000
0.733337 0.000000 0.000000
0.799988 0.000000 0.000000
0.866669 0.000000 0.000000
0.933319 0.000000 0.000000
1.000000 0.000000 0.000000
0.124756 0.058350 0.000000
0.128906 0.062225 0.000000
0.191132 0.062225 0.000000
0.253357 0.062225 0.000000
0.315552 0.062225 0.000000
0.377808 0.062225 0.000000
0.440002 0.062225 0.000000
0.502228 0.062225 0.000000
0.564453 0.062225 0.000000
0.626678 0.062225 0.000000
0.688873 0.062225 0.000000
0.751129 0.062225 0.000000
0.813324 0.062225 0.000000
0.875549 0.062225 0.000000
0.937775 0.062225 0.000000
1.000000 0.062225 0.000000
0.233459 0.102203 0.000000
0.237274 0.108948 0.000000
0.248871 0.115540 0.000000
0.306671 0.115540 0.000000
0.364441 0.115540 0.000000
0.422241 0.115540 0.000000
0.479980 0.115540 0.000000
0.537781 0.115540 0.000000
0.595551 0.115540 0.000000
0.653351 0.115540 0.000000
0.711090 0.115540 0.000000
0.768890 0.115540 0.000000
0.826660 0.115540 0.000000
0.884460 0.115540 0.000000
0.942200 0.115540 0.000000
1.000000 0.115540 0.000000
0.328003 0.134399 0.000000
0.331329 0.143280 0.000000
0.342133 0.151825 0.000000
0.360016 0.160004 0.000000
0.413330 0.160004 0.000000
0.466675 0.160004 0.000000
0.519989 0.160004 0.000000
0.573334 0.160004 0.000000
0.626678 0.160004 0.000000
0.680023 0.160004 0.000000
0.733337 0.160004 0.000000
0.786682 0.160004 0.000000
0.839996 0.160004 0.000000
0.893341 0.160004 0.000000
0.946655 0.160004 0.000000
1.000000 0.160004 0.000000
0.410065 0.157318 0.000000
0.412628 0.167816 0.000000
0.422455 0.177704 0.000000
0.439178 0.186951 0.000000
0.462219 0.195557 0.000000
0.511108 0.195557 0.000000
0.559998 0.195557 0.000000
0.608887 0.195557 0.000000
0.657776 0.195557 0.000000
0.706665 0.195557 0.000000
0.755554 0.195557 0.000000
0.804443 0.195557 0.000000
0.853333 0.195557 0.000000
0.902222 0.195557 0.000000
0.951111 0.195557 0.000000
1.000000 0.195557 0.000000
0.481506 0.172852 0.000000
0.482849 0.184692 0.000000
0.491547 0.195557 0.000000
0.506989 0.205444 0.000000
0.528503 0.214325 0.000000
0.555573 0.222229 0.000000
0.600006 0.222229 0.000000
0.644470 0.222229 0.000000
0.688873 0.222229 0.000000
0.733337 0.222229 0.000000
0.777771 0.222229 0.000000
0.822235 0.222229 0.000000
0.866669 0.222229 0.000000
0.911102 0.222229 0.000000
0.955536 0.222229 0.000000
1.000000 0.222229 0.000000
0.543976 0.182404 0.000000
0.543701 0.195557 0.000000
0.550873 0.207275 0.000000
0.564789 0.217590 0.000000
0.584747 0.227234 0.000000
0.610077 0.249969 0.000000
0.639984 0.273468 0.000000
0.679993 0.273468 0.000000
0.720001 0.273468 0.000000
0.760010 0.273468 0.000000
0.799988 0.273468 0.000000
0.839996 0.273468 0.000000
0.880005 0.273468 0.000000
0.920013 0.273468 0.000000
0.959991 0.273468 0.000000
1.000000 0.273468 0.000000
0.611603 0.197906 0.000000
0.607758 0.209839 0.000000
0.611420 0.220215 0.000000
0.621765 0.234528 0.000000
0.638092 0.258514 0.000000
0.659698 0.283356 0.000000
0.685730 0.308990 0.000000
0.715576 0.335449 0.000000
0.751099 0.335449 0.000000
0.786682 0.335449 0.000000
0.822205 0.335449 0.000000
0.857788 0.335449 0.000000
0.893341 0.335449 0.000000
0.928894 0.335449 0.000000
0.964447 0.335449 0.000000
1.000000 0.335449 0.000000
0.691254 0.223877 0.000000
0.682770 0.240875 0.000000
0.681305 0.262054 0.000000
0.686127 0.283813 0.000000
0.696625 0.306213 0.000000
0.712128 0.329285 0.000000
0.731964 0.352295 0.000000
0.755585 0.376373 0.000000
0.782227 0.402100 0.000000
0.813324 0.402100 0.000000
0.844452 0.402100 0.000000
0.875549 0.402100 0.000000
0.906647 0.402100 0.000000
0.937775 0.402100 0.000000
0.968872 0.402100 0.000000
1.000000 0.402100 0.000000
0.764832 0.284332 0.000000
0.753021 0.303497 0.000000
0.747559 0.323151 0.000000
0.747864 0.343231 0.000000
0.753387 0.363800 0.000000
0.763611 0.384155 0.000000
0.777924 0.404236 0.000000
0.795807 0.425903 0.000000
0.816681 0.449066 0.000000
0.839996 0.473480 0.000000
0.866669 0.473480 0.000000
0.893341 0.473480 0.000000
0.919983 0.473480 0.000000
0.946655 0.473480 0.000000
0.973328 0.473480 0.000000
1.000000 0.473480 0.000000
0.830872 0.360840 0.000000
0.817047 0.378265 0.000000
0.808868 0.395996 0.000000
0.805786 0.414093 0.000000
0.807373 0.432220 0.000000
0.813171 0.448608 0.000000
0.822693 0.466400 0.000000
0.835480 0.485474 0.000000
0.851105 0.505768 0.000000
0.869049 0.527191 0.000000
0.888885 0.549500 0.000000
0.911102 0.549500 0.000000
0.933319 0.549500 0.000000
0.955566 0.549500 0.000000
0.977783 0.549500 0.000000
1.000000 0.549500 0.000000
0.888062 0.451782 0.000000
0.873718 0.466980 0.000000
0.864136 0.482391 0.000000
0.858856 0.497986 0.000000
0.857605 0.511322 0.000000
0.859924 0.525391 0.000000
0.865479 0.540588 0.000000
0.873932 0.556793 0.000000
0.884857 0.573975 0.000000
0.897919 0.592041 0.000000
0.912720 0.610809 0.000000
0.928894 0.630249 0.000000
0.946655 0.630249 0.000000
0.964447 0.630249 0.000000
0.982208 0.630249 0.000000
1.000000 0.630249 0.000000
0.934937 0.558960 0.000000
0.921631 0.571381 0.000000
0.912048 0.583893 0.000000
0.905914 0.594604 0.000000
0.902954 0.605072 0.000000
0.902893 0.616486 0.000000
0.905426 0.628693 0.000000
0.910309 0.641663 0.000000
0.917267 0.655334 0.000000
0.925964 0.669647 0.000000
0.936188 0.684540 0.000000
0.947632 0.699860 0.000000
0.959991 0.715637 0.000000
0.973328 0.715637 0.000000
0.986664 0.715637 0.000000
1.000000 0.715637 0.000000
0.970154 0.684570 0.000000
0.959503 0.693573 0.000000
0.951477 0.701538 0.000000
0.945892 0.708466 0.000000
0.942505 0.716064 0.000000
0.941193 0.724243 0.000000
0.941742 0.733002 0.000000
0.943970 0.742249 0.000000
0.947693 0.751953 0.000000
0.952728 0.762054 0.000000
0.958893 0.772583 0.000000
0.965973 0.783386 0.000000
0.973816 0.794464 0.000000
0.982208 0.805756 0.000000
0.991119 0.805756 0.000000
1.000000 0.805756 0.000000
0.992310 0.830750 0.000000
0.986053 0.835297 0.000000
0.981201 0.838745 0.000000
0.977600 0.842560 0.000000
0.975189 0.846710 0.000000
0.973846 0.851135 0.000000
0.973541 0.855835 0.000000
0.974091 0.860840 0.000000
0.975494 0.866028 0.000000
0.977570 0.871399 0.000000
0.980286 0.876953 0.000000
0.983551 0.882690 0.000000
0.987244 0.888519 0.000000
0.991272 0.894470 0.000000
0.995544 0.900513 0.000000
1.000000 0.900513 0.000000
1.000000 1.000000 0.000000
1.000000 1.000000 0.000000
1.000000 1.000000 0.000000
1.000000 1.000000 0.000000
1.000000 1.000000 0.000000
1.000000 1.000000 0.000000
1.000000 1.000000 0.000000
1.000000 1.000000 0.000000
1.000000 1.000000 0.000000
1.000000 1.000000 0.000000
1.000000 1.000000 0.000000
1.000000 1.000000 0.000000
1.000000 1.000000 0.000000
1.000000 1.000000 0.000000
1.000000 1.000000 0.000000
1.000000 1.000000 0.000000
0.000000 0.000000 0.066681
0.066681 0.000000 0.066681
0.133331 0.000000 0.066681
0.200012 0.000000 0.066681
0.266663 0.000000 0.066681
0.333344 0.000000 0.066681
0.399994 0.000000 0.066681
0.466675 0.000000 0.066681
0.533325 0.000000 0.066681
0.600006 0.000000 0.066681
0.666656 0.000000 0.066681
0.733337 0.000000 0.066681
0.799988 0.000000 0.066681
0.866669 0.000000 0.066681
0.933319 0.000000 0.066681
1.000000 0.000000 0.066681
0.000000 0.066681 0.066681
0.066681 0.066681 0.066681
0.133331 0.066681 0.066681
0.200012 0.066681 0.066681
0.266663 0.066681 0.066681
0.333344 0.066681 0.066681
0.399994 0.066681 0.066681
0.466675 0.066681 0.066681
0.533325 0.066681 0.066681
0.600006 0.066681 0.066681
0.666656 0.066681 0.066681
0.733337 0.066681 0.066681
0.799988 0.066681 0.066681
0.866669 0.066681 0.066681
0.933319 0.066681 0.066681
1.000000 0.066681 0.066681
0.124725 0.116699 0.058350
0.183075 0.116699 0.058350
0.191101 0.124451 0.062225
0.253326 0.124451 0.062225
0.315552 0.124451 0.062225
0.377777 0.124451 0.062225
0.439972 0.124451 0.062225
0.502228 0.124451 0.062225
0.564423 0.124451 0.062225
0.626678 0.124451 0.062225
0.688873 0.124451 0.062225
0.751099 0.124451 0.062225
0.813324 0.124451 0.062225
0.875549 0.124451 0.062225
0.937775 0.124451 0.062225
1.000000 0.124451 0.062225
0.233459 0.153320 0.051117
0.284576 0.153320 0.051117
0.291809 0.163452 0.054474
0.306671 0.173340 0.057800
0.364441 0.173340 0.057800
0.422241 0.173340 0.057800
0.479980 0.173340 0.057800
0.537781 0.173340 0.057800
0.595551 0.173340 0.057800
0.653351 0.173340 0.057800
0.711090 0.173340 0.057800
0.768890 0.173340 0.057800
0.826660 0.173340 0.057800
0.884460 0.173340 0.057800
0.942200 0.173340 0.057800
1.000000 0.173340 0.057800
0.327972 0.179199 0.044800
0.372803 0.179199 0.044800
0.379059 0.191071 0.047791
0.392700 0.202423 0.050598
0.413330 0.213348 0.053345
0.466675 0.213348 0.053345
0.519989 0.213348 0.053345
0.573334 0.213348 0.053345
0.626648 0.213348 0.053345
0.679993 0.213348 0.053345
0.733307 0.213348 0.053345
0.786652 0.213348 0.053345
0.839996 0.213348 0.053345
0.893341 0.213348 0.053345
0.946655 0.213348 0.053345
1.000000 0.213348 0.053345
0.410065 0.196655 0.039337
0.449402 0.196655 0.039337
0.454559 0.209778 0.041962
0.466919 0.222137 0.044434
0.485901 0.233673 0.046722
0.511108 0.244446 0.048889
0.559998 0.244446 0.048889
0.608887 0.244446 0.048889
0.657776 0.244446 0.048889
0.706665 0.244446 0.048889
0.755554 0.244446 0.048889
0.804443 0.244446 0.048889
0.853333 0.244446 0.048889
0.902222 0.244446 0.048889
0.951111 0.244446 0.048889
1.000000 0.244446 0.048889
0.481445 0.207397 0.034576
0.516022 0.207397 0.034576
0.519806 0.221619 0.036926
0.530640 0.234680 0.039124
0.548035 0.247162 0.041107
0.571350 0.270538 0.042877
0.599976 0.294556 0.044464
0.644440 0.294556 0.044464
0.688873 0.294556 0.044464
0.733337 0.294556 0.044464
0.777771 0.294556 0.044464
0.822205 0.294556 0.044464
0.866669 0.294556 0.044464
0.911102 0.294556 0.044464
0.955536 0.294556 0.044464
1.000000 0.294556 0.044464
0.555756 0.221832 0.029633
0.585358 0.221832 0.029633
0.585754 0.234802 0.031891
0.593079 0.251129 0.033905
0.606812 0.275879 0.035767
0.626282 0.301300 0.037384
0.650879 0.327393 0.038788
0.679993 0.354187 0.040009
0.720001 0.354187 0.040009
0.760010 0.354187 0.040009
0.799988 0.354187 0.040009
0.839996 0.354187 0.040009
0.880005 0.354187 0.040009
0.920013 0.354187 0.040009
0.959991 0.354187 0.040009
1.000000 0.354187 0.040009
0.641174 0.252838 0.023926
0.665070 0.252838 0.023926
0.660492 0.274994 0.026123
0.662415 0.297607 0.028137
0.670319 0.320770 0.029968
0.683685 0.344452 0.031647
0.701904 0.368011 0.033142
0.724609 0.392456 0.034424
0.751099 0.418518 0.035553
0.786652 0.418518 0.035553
0.822205 0.418518 0.035553
0.857788 0.418518 0.035553
0.893311 0.418518 0.035553
0.928894 0.418518 0.035553
0.964447 0.418518 0.035553
1.000000 0.418518 0.035553
0.720825 0.312805 0.018616
0.739441 0.312805 0.018616
0.731110 0.333405 0.020691
0.728638 0.354309 0.022614
0.731659 0.375610 0.024414
0.739716 0.396606 0.026031
0.752319 0.417236 0.027527
0.769073 0.439362 0.028870
0.789581 0.462860 0.030060
0.813324 0.487549 0.031128
0.844452 0.487549 0.031128
0.875549 0.487549 0.031128
0.906647 0.487549 0.031128
0.937775 0.487549 0.031128
0.968872 0.487549 0.031128
1.000000 0.487549 0.031128
0.793335 0.385162 0.013794
0.807098 0.385162 0.013794
0.796265 0.403748 0.015686
0.790619 0.422638 0.017456
0.789764 0.441437 0.019104
0.793396 0.458435 0.020660
0.801178 0.476776 0.022095
0.812744 0.496338 0.023407
0.827728 0.516998 0.024628
0.845825 0.538696 0.025696
0.866669 0.561218 0.026672
0.893341 0.561218 0.026672
0.919983 0.561218 0.026672
0.946655 0.561218 0.026672
0.973328 0.561218 0.026672
1.000000 0.561218 0.026672
0.857300 0.471741 0.009521
0.866821 0.471741 0.009521
0.854889 0.487915 0.011169
0.847260 0.504181 0.012726
0.843689 0.518127 0.014221
0.843933 0.532776 0.015625
0.847717 0.548462 0.016937
0.854797 0.565125 0.018158
0.864929 0.582672 0.019287
0.877869 0.601013 0.020355
0.893341 0.620026 0.021332
0.911102 0.639618 0.022217
0.933319 0.639618 0.022217
0.955566 0.639618 0.022217
0.977783 0.639618 0.022217
1.000000 0.639618 0.022217
0.911285 0.574341 0.005920
0.917206 0.574341 0.005920
0.905640 0.587463 0.007263
0.897369 0.598755 0.008545
0.892303 0.609711 0.009796
0.890259 0.621582 0.010986
0.891022 0.634247 0.012115
0.894501 0.647583 0.013184
0.900513 0.661560 0.014221
0.908905 0.676178 0.015198
0.919495 0.691254 0.016113
0.932129 0.706787 0.016968
0.946655 0.722656 0.017792
0.964447 0.722656 0.017792
0.982208 0.722656 0.017792
1.000000 0.722656 0.017792
0.953949 0.695099 0.003082
0.957031 0.695099 0.003082
0.947388 0.703491 0.004059
0.939972 0.710846 0.005005
0.934692 0.718811 0.005951
0.931519 0.727325 0.006866
0.930359 0.736420 0.007751
0.931152 0.745941 0.008606
0.933838 0.755890 0.009460
0.938385 0.766205 0.010284
0.944641 0.776917 0.011078
0.952606 0.787872 0.011841
0.962189 0.799072 0.012604
0.973328 0.810455 0.013336
0.986664 0.810455 0.013336
1.000000 0.810455 0.013336
0.983887 0.835571 0.001068
0.984955 0.835815 0.001068
0.978882 0.839508 0.001617
0.973816 0.843536 0.002197
0.969757 0.847870 0.002747
0.966736 0.852509 0.003326
0.964813 0.857391 0.003906
0.963989 0.862549 0.004486
0.964294 0.867859 0.005096
0.965729 0.873383 0.005707
0.968353 0.879028 0.006317
0.972168 0.884857 0.006958
0.977203 0.890778 0.007599
0.983521 0.896790 0.008240
0.991119 0.902863 0.008881
1.000000 0.902863 0.008881
0.999695 1.000000 0.000031
0.999725 1.000000 0.000031
0.998962 1.000000 0.000092
0.997864 1.000000 0.000183
0.996521 1.000000 0.000305
0.995056 1.000000 0.000488
0.993591 1.000000 0.000702
0.992249 1.000000 0.000977
0.991150 1.000000 0.001251
0.990387 1.000000 0.001587
0.990112 1.000000 0.001984
0.990448 1.000000 0.002380
0.991455 1.000000 0.002838
0.993317 1.000000 0.003326
0.996124 1.000000 0.003876
1.000000 1.000000 0.004456
0.000000 0.000000 0.133331
0.066681 0.000000 0.133331
0.133331 0.000000 0.133331
0.200012 0.000000 0.133331
0.266663 0.000000 0.133331
0.333344 0.000000 0.133331
0.399994 0.000000 0.133331
0.466675 0.000000 0.133331
0.533325 0.000000 0.133331
0.600006 0.000000 0.133331
0.666656 0.000000 0.133331
0.733337 0.000000 0.133331
0.799988 0.000000 0.133331
0.866669 0.000000 0.133331
0.933319 0.000000 0.133331
1.000000 0.000000 0.133331
0.000000 0.066681 0.133331
0.066681 0.066681 0.133331
0.133331 0.066681 0.133331
0.200012 0.066681 0.133331
0.266663 0.066681 0.133331
0.333344 0.066681 0.133331
0.399994 0.066681 0.133331
0.466675 0.066681 0.133331
0.533325 0.066681 0.133331
0.600006 0.066681 0.133331
0.666656 0.066681 0.133331
0.733337 0.066681 0.133331
0.799988 0.066681 0.133331
0.866669 0.066681 0.133331
0.933319 0.066681 0.133331
1.000000 0.066681 0.133331
0.000000 0.133331 0.133331
0.066681 0.133331 0.133331
0.133331 0.133331 0.133331
0.200012 0.133331 0.133331
0.266663 0.133331 0.133331
0.333344 0.133331 0.133331
0.399994 0.133331 0.133331
0.466675 0.133331 0.133331
0.533325 0.133331 0.133331
0.600006 0.133331 0.133331
0.666656 0.133331 0.133331
0.733337 0.133331 0.133331
0.799988 0.133331 0.133331
0.866669 0.133331 0.133331
0.933319 0.133331 0.133331
1.000000 0.133331 0.133331
0.124756 0.175049 0.116699
0.183105 0.175049 0.116699
0.241455 0.175049 0.116699
0.253357 0.186676 0.124451
0.315552 0.186676 0.124451
0.377808 0.186676 0.124451
0.440002 0.186676 0.124451
0.502228 0.186676 0.124451
0.564453 0.186676 0.124451
0.626678 0.186676 0.124451
0.688873 0.186676 0.124451
0.751129 0.186676 0.124451
0.813324 0.186676 0.124451
0.875549 0.186676 0.124451
0.937775 0.186676 0.124451
1.000000 0.186676 0.124451
0.233490 0.204407 0.102173
0.284607 0.204407 0.102173
0.335693 0.204407 0.102173
0.346252 0.217926 0.108948
0.364441 0.231110 0.115540
0.422241 0.231110 0.115540
0.479980 0.231110 0.115540
0.537781 0.231110 0.115540
0.595551 0.231110 0.115540
0.653351 0.231110 0.115540
0.711090 0.231110 0.115540
0.768890 0.231110 0.115540
0.826660 0.231110 0.115540
0.884460 0.231110 0.115540
0.942200 0.231110 0.115540
1.000000 0.231110 0.115540
0.328003 0.223999 0.089600
0.372833 0.223999 0.089600
0.417603 0.223999 0.089600
0.426880 0.238831 0.095520
0.443329 0.253052 0.101227
0.466675 0.266663 0.106659
0.519989 0.266663 0.106659
0.573334 0.266663 0.106659
0.626678 0.266663 0.106659
0.680023 0.266663 0.106659
0.733337 0.266663 0.106659
0.786682 0.266663 0.106659
0.839996 0.266663 0.106659
0.893341 0.266663 0.106659
0.946655 0.266663 0.106659
1.000000 0.266663 0.106659
0.410065 0.235962 0.078644
0.449402 0.235962 0.078644
0.488739 0.235962 0.078644
0.496521 0.251740 0.083893
0.511322 0.267029 0.088837
0.532623 0.291107 0.093475
0.559998 0.315643 0.097778
0.608887 0.315643 0.097778
0.657776 0.315643 0.097778
0.706665 0.315643 0.097778
0.755554 0.315643 0.097778
0.804443 0.315643 0.097778
0.853333 0.315643 0.097778
0.902222 0.315643 0.097778
0.951111 0.315643 0.097778
1.000000 0.315643 0.097778
0.492371 0.249329 0.067688
0.526245 0.249329 0.067688
0.560059 0.249329 0.067688
0.564392 0.267761 0.072601
0.575531 0.293213 0.077179
0.592926 0.319244 0.081390
0.616058 0.345795 0.085327
0.644470 0.372955 0.088898
0.688873 0.372955 0.088898
0.733337 0.372955 0.088898
0.777771 0.372955 0.088898
0.822235 0.372955 0.088898
0.866669 0.372955 0.088898
0.911102 0.372955 0.088898
0.955536 0.372955 0.088898
1.000000 0.372955 0.088898
0.584290 0.287903 0.055420
0.612000 0.287903 0.055420
0.639709 0.287903 0.055420
0.638702 0.311401 0.060211
0.644043 0.335297 0.064728
0.655243 0.359619 0.068939
0.671906 0.383698 0.072906
0.693634 0.408569 0.076599
0.720001 0.434906 0.079987
0.760010 0.434906 0.079987
0.799988 0.434906 0.079987
0.839996 0.434906 0.079987
0.880005 0.434906 0.079987
0.920013 0.434906 0.079987
0.959991 0.434906 0.079987
1.000000 0.434906 0.079987
0.670776 0.343628 0.043884
0.692749 0.343628 0.043884
0.714691 0.343628 0.043884
0.709442 0.365387 0.048401
0.709930 0.387421 0.052734
0.715820 0.409088 0.056824
0.726715 0.430237 0.060730
0.742401 0.452820 0.064392
0.762482 0.476685 0.067871
0.786682 0.501587 0.071106
0.822205 0.501587 0.071106
0.857788 0.501587 0.071106
0.893341 0.501587 0.071106
0.928894 0.501587 0.071106
0.964447 0.501587 0.071106
1.000000 0.501587 0.071106
0.750427 0.411499 0.033264
0.767059 0.411499 0.033264
0.783691 0.411499 0.033264
0.775452 0.431152 0.037415
0.772186 0.450684 0.041412
0.773651 0.468292 0.045258
0.779663 0.487152 0.048950
0.789978 0.507172 0.052490
0.804352 0.528198 0.055878
0.822601 0.550201 0.059143
0.844452 0.572937 0.062225
0.875549 0.572937 0.062225
0.906647 0.572937 0.062225
0.937775 0.572937 0.062225
0.968872 0.572937 0.062225
1.000000 0.572937 0.062225
0.821869 0.492615 0.023743
0.833740 0.493408 0.023743
0.845642 0.493408 0.023743
0.835632 0.510376 0.027405
0.829773 0.524963 0.030945
0.827942 0.540161 0.034393
0.829926 0.556335 0.037811
0.835693 0.573425 0.041077
0.845032 0.591339 0.044281
0.857849 0.609955 0.047363
0.873993 0.629211 0.050415
0.893341 0.648987 0.053345
0.919983 0.648987 0.053345
0.946655 0.648987 0.053345
0.973328 0.648987 0.053345
1.000000 0.648987 0.053345
0.883698 0.588776 0.015503
0.891449 0.590515 0.015503
0.899200 0.591034 0.015503
0.888855 0.602875 0.018524
0.881653 0.614380 0.021515
0.877625 0.626709 0.024475
0.876648 0.639771 0.027405
0.878723 0.653503 0.030334
0.883789 0.667816 0.033203
0.891846 0.682678 0.036041
0.902802 0.697998 0.038879
0.916656 0.713684 0.041687
0.933319 0.729706 0.044434
0.955566 0.729706 0.044434
0.977783 0.729706 0.044434
1.000000 0.729706 0.044434
0.934540 0.703552 0.008728
0.938904 0.704498 0.008728
0.943268 0.705475 0.008728
0.934021 0.713226 0.010986
0.926849 0.721558 0.013306
0.921814 0.730438 0.015625
0.918976 0.739838 0.018005
0.918365 0.749634 0.020416
0.920013 0.759827 0.022858
0.924042 0.770386 0.025330
0.930450 0.781250 0.027832
0.939270 0.792358 0.030365
0.950592 0.803680 0.032959
0.964447 0.815125 0.035553
0.982208 0.815125 0.035553
1.000000 0.815125 0.035553
0.972961 0.839539 0.003601
0.974762 0.839905 0.003601
0.976563 0.840271 0.003601
0.970032 0.844543 0.005005
0.964325 0.849060 0.006470
0.959625 0.853912 0.008087
0.956116 0.858948 0.009766
0.953888 0.864258 0.011536
0.953094 0.869720 0.013397
0.953888 0.875336 0.015381
0.956390 0.881104 0.017456
0.960785 0.887024 0.019592
0.967194 0.893005 0.021851
0.975769 0.899078 0.024231
0.986664 0.905182 0.026672
1.000000 0.905182 0.026672
0.997620 1.000000 0.000305
0.997772 1.000000 0.000305
0.997955 1.000000 0.000305
0.995728 1.000000 0.000702
0.993042 1.000000 0.001251
0.990112 1.000000 0.001984
0.987183 1.000000 0.002838
0.984497 1.000000 0.003876
0.982300 1.000000 0.005066
0.980804 1.000000 0.006409
0.980255 1.000000 0.007904
0.980865 1.000000 0.009552
0.982941 1.000000 0.011383
0.986664 1.000000 0.013336
0.992249 1.000000 0.015503
1.000000 1.000000 0.017792
0.000000 0.000000 0.200012
0.066681 0.000000 0.200012
0.133331 0.000000 0.200012
0.200012 0.000000 0.200012
0.266663 0.000000 0.200012
0.333344 0.000000 0.200012
0.399994 0.000000 0.200012
0.466675 0.000000 0.200012
0.533325 0.000000 0.200012
0.600006 0.000000 0.200012
0.666656 0.000000 0.200012
0.733337 0.000000 0.200012
0.799988 0.000000 0.200012
0.866669 0.000000 0.200012
0.933319 0.000000 0.200012
1.000000 0.000000 0.200012
0.000000 0.066681 0.200012
0.066681 0.066681 0.200012
0.133331 0.066681 0.200012
0.200012 0.066681 0.200012
0.266663 0.066681 0.200012
0.333344 0.066681 0.200012
0.399994 0.066681 0.200012
0.466675 0.066681 0.200012
0.533325 0.066681 0.200012
0.600006 0.066681 0.200012
0.666656 0.066681 0.200012
0.733337 0.066681 0.200012
0.799988 0.066681 0.200012
0.866669 0.066681 0.200012
0.933319 0.066681 0.200012
1.000000 0.066681 0.200012
0.000000 0.133331 0.200012
0.066681 0.133331 0.200012
0.133331 0.133331 0.200012
0.200012 0.133331 0.200012
0.266663 0.133331 0.200012
0.333344 0.133331 0.200012
0.399994 0.133331 0.200012
0.466675 0.133331 0.200012
0.533325 0.133331 0.200012
0.600006 0.133331 0.200012
0.666656 0.133331 0.200012
0.733337 0.133331 0.200012
0.799988 0.133331 0.200012
0.866669 0.133331 0.200012
0.933319 0.133331 0.200012
1.000000 0.133331 0.200012
0.000000 0.200012 0.200012
0.066681 0.200012 0.200012
0.133331 0.200012 0.200012
0.200012 0.200012 0.200012
0.266663 0.200012 0.200012
0.333344 0.200012 0.200012
0.399994 0.200012 0.200012
0.466675 0.200012 0.200012
0.533325 0.200012 0.200012
0.600006 0.200012 0.200012
0.666656 0.200012 0.200012
0.733337 0.200012 0.200012
0.799988 0.200012 0.200012
0.866669 0.200012 0.200012
0.933319 0.200012 0.200012
1.000000 0.200012 0.200012
0.124725 0.233398 0.175049
0.183075 0.233398 0.175049
0.241425 0.233398 0.175049
0.299774 0.233398 0.175049
0.315552 0.248901 0.186676
0.377777 0.248901 0.186676
0.439972 0.248901 0.186676
0.502228 0.248901 0.186676
0.564423 0.248901 0.186676
0.626678 0.248901 0.186676
0.688873 0.248901 0.186676
0.751099 0.248901 0.186676
0.813324 0.248901 0.186676
0.875549 0.248901 0.186676
0.937775 0.248901 0.186676
1.000000 0.248901 0.186676
0.233490 0.255524 0.153320
0.284607 0.255524 0.153320
0.335693 0.255524 0.153320
0.386810 0.255524 0.153320
0.400726 0.272400 0.163452
0.422241 0.288910 0.173340
0.479980 0.288910 0.173340
0.537781 0.288910 0.173340
0.595551 0.288910 0.173340
0.653351 0.288910 0.173340
0.711090 0.288910 0.173340
0.768890 0.288910 0.173340
0.826660 0.288910 0.173340
0.884460 0.288910 0.173340
0.942200 0.288910 0.173340
1.000000 0.288910 0.173340
0.327972 0.268799 0.134399
0.372803 0.268799 0.134399
0.417572 0.268799 0.134399
0.462402 0.268799 0.134399
0.474579 0.286957 0.143311
0.493927 0.311646 0.151825
0.519989 0.336731 0.160004
0.573334 0.336731 0.160004
0.626648 0.336731 0.160004
0.679993 0.336731 0.160004
0.733307 0.336731 0.160004
0.786652 0.336731 0.160004
0.839996 0.336731 0.160004
0.893341 0.336731 0.160004
0.946655 0.336731 0.160004
1.000000 0.336731 0.160004
