Color Lookup Presets Effects/z1 (70).CUBE
#Created by: Adobe Photoshop Export Color Lookup Plugin
#Copyright: (C) Copyright 2016 www.zafizack.com
TITLE "zafizack pastel color preset"
#LUT size
LUT_3D_SIZE 6
#data domain
DOMAIN_MIN 0.0 0.0 0.0
DOMAIN_MAX 1.0 1.0 1.0
#LUT data points
0.036438 0.024750 0.025696
0.210480 0.050201 0.056732
0.543427 0.074371 0.098175
0.774750 0.094696 0.145874
0.900757 0.153351 0.238251
1.000000 0.225525 0.313538
0.036560 0.176880 0.025818
0.170837 0.181000 0.030243
0.476532 0.225189 0.057617
0.721222 0.261627 0.086426
0.897919 0.314392 0.155975
1.000000 0.388794 0.253082
0.036652 0.472473 0.025909
0.161713 0.469788 0.026764
0.432312 0.479706 0.037811
0.685242 0.506683 0.059845
0.893158 0.526917 0.075562
1.000000 0.565643 0.205658
0.036713 0.683807 0.025970
0.156219 0.680359 0.026215
0.416656 0.683411 0.033112
0.662689 0.694672 0.046753
0.866791 0.709564 0.060974
1.000000 0.721649 0.193756
0.036835 0.863159 0.026123
0.151703 0.861084 0.026215
0.406189 0.865051 0.030853
0.651367 0.877258 0.041718
0.852173 0.894958 0.054382
1.000000 0.892792 0.267670
0.037567 1.000000 0.026764
0.147034 0.998077 0.026215
0.400146 1.000000 0.031647
0.649933 1.000000 0.061371
0.846802 1.000000 0.191315
1.000000 1.000000 0.486023
0.036438 0.024750 0.150330
0.200562 0.044342 0.331665
0.529022 0.067841 0.401062
0.763855 0.087891 0.455109
0.900238 0.142151 0.489380
1.000000 0.218781 0.522705
0.036438 0.156799 0.245972
0.161926 0.166229 0.259979
0.463287 0.209778 0.317261
0.711456 0.245758 0.367188
0.897461 0.296295 0.423218
1.000000 0.377808 0.480774
0.036438 0.454102 0.247345
0.152985 0.457184 0.242035
0.419525 0.467102 0.261993
0.675812 0.494415 0.304718
0.882965 0.514404 0.333527
1.000000 0.556641 0.439972
0.036438 0.669159 0.241364
0.147888 0.670776 0.230530
0.404297 0.674011 0.241272
0.653687 0.685364 0.265686
0.857117 0.700287 0.290955
1.000000 0.715210 0.411774
0.036438 0.848755 0.233398
0.143341 0.852386 0.220276
0.394287 0.855927 0.226257
0.642609 0.868225 0.244110
0.842804 0.885895 0.266113
1.000000 0.889618 0.459869
0.036438 0.985596 0.223785
0.138824 0.989380 0.209991
0.386597 0.992096 0.213623
0.636200 1.000000 0.235443
0.839752 1.000000 0.374207
1.000000 1.000000 0.599701
0.036438 0.024750 0.338470
0.191040 0.038696 0.598572
0.514984 0.061646 0.633850
0.753418 0.081238 0.662964
0.899719 0.130035 0.664551
1.000000 0.211304 0.672821
0.036438 0.142548 0.508728
0.153015 0.151733 0.550232
0.449860 0.194397 0.591248
0.701477 0.229614 0.616669
0.897003 0.275543 0.634186
1.000000 0.364777 0.647980
0.036438 0.438202 0.527863
0.144318 0.444672 0.537262
0.405823 0.454407 0.551941
0.665955 0.481537 0.584229
0.871948 0.501282 0.599823
1.000000 0.545624 0.624451
0.036438 0.655334 0.531219
0.139252 0.660706 0.529053
0.391052 0.663605 0.536926
0.643738 0.675079 0.555206
0.846252 0.689941 0.574707
1.000000 0.706696 0.610199
0.036438 0.833618 0.529816
0.134705 0.842224 0.521820
0.381073 0.845612 0.526184
0.632416 0.857727 0.539520
0.831787 0.875275 0.556763
1.000000 0.884918 0.623535
0.036438 0.969330 0.525818
0.130157 0.978394 0.515259
0.373352 0.981049 0.517517
0.624268 0.991119 0.527527
0.828186 1.000000 0.579285
1.000000 1.000000 0.715149
0.036438 0.024750 0.509979
0.182068 0.033630 0.772064
0.501007 0.055878 0.813141
0.743378 0.075012 0.844879
0.898926 0.121826 0.823792
1.000000 0.203644 0.811493
0.036438 0.132355 0.666534
0.144836 0.138092 0.733521
0.436554 0.179810 0.766510
0.691895 0.214417 0.794220
0.896515 0.253082 0.809937
1.000000 0.351776 0.794281
0.036438 0.425446 0.697418
0.136108 0.432648 0.723541
0.393127 0.442261 0.734558
0.656128 0.469055 0.758942
0.861267 0.488770 0.775391
1.000000 0.533752 0.776459
0.036438 0.643799 0.707733
0.131104 0.651215 0.717468
0.378418 0.653900 0.722900
0.634308 0.665253 0.736511
0.835846 0.679993 0.751495
1.000000 0.697113 0.762848
0.036438 0.820557 0.711090
0.126709 0.832550 0.712372
0.368561 0.835846 0.714783
0.622955 0.847565 0.724365
0.821442 0.864929 0.737640
1.000000 0.877960 0.763794
0.036438 0.954895 0.709961
0.122131 0.968048 0.707245
0.360809 0.970612 0.708313
0.614807 0.980530 0.715363
0.812042 0.998962 0.728149
1.000000 1.000000 0.831512
0.036438 0.024750 0.593719
0.176392 0.030670 0.886536
0.490417 0.053375 0.924225
0.713928 0.084015 0.924683
0.890656 0.120789 0.924927
1.000000 0.198639 0.906311
0.036438 0.127686 0.749390
0.139404 0.129120 0.847809
0.428467 0.170441 0.884796
0.685486 0.204163 0.915985
0.883240 0.249756 0.924927
1.000000 0.342072 0.899200
0.036438 0.417816 0.795837
0.130737 0.424530 0.842133
0.384369 0.433899 0.855804
0.649841 0.460480 0.883484
0.854309 0.479919 0.903168
1.000000 0.524445 0.891754
0.036438 0.636566 0.816681
0.125702 0.644562 0.840881
0.369415 0.647125 0.848541
0.627472 0.658203 0.864685
0.828247 0.672852 0.883026
1.000000 0.688812 0.885956
0.036438 0.812866 0.828186
0.121094 0.825806 0.840454
0.359314 0.829010 0.845123
0.615997 0.840637 0.857056
0.813599 0.857880 0.873413
1.000000 0.869812 0.884979
0.036438 0.945618 0.833740
0.116089 0.960632 0.840179
0.351257 0.962952 0.843475
0.607666 0.972595 0.852692
0.804016 0.990814 0.868225
1.000000 1.000000 0.924927
0.036438 0.024750 0.658081
0.170471 0.028351 1.000000
0.468658 0.058167 1.000000
0.692719 0.091278 1.000000
0.864136 0.131195 1.000000
1.000000 0.193481 1.000000
0.036438 0.124603 0.834229
0.134308 0.123993 0.966278
0.419830 0.162506 1.000000
0.667725 0.213684 1.000000
0.849762 0.272705 1.000000
1.000000 0.332764 1.000000
0.036438 0.410980 0.892853
0.125702 0.416809 0.960724
0.376221 0.426117 0.974091
0.643463 0.453369 1.000000
0.834869 0.484558 1.000000
1.000000 0.515533 1.000000
0.036438 0.630157 0.920410
0.120544 0.638428 0.959412
0.361389 0.641235 0.966461
0.621552 0.651947 0.982819
0.821106 0.667114 1.000000
1.000000 0.680786 1.000000
0.036438 0.806061 0.936005
0.115936 0.819946 0.958893
0.351257 0.823425 0.962860
0.610229 0.834564 0.974670
0.807007 0.851837 0.991577
1.000000 0.860718 1.000000
0.036438 0.938019 0.943573
0.111145 0.954376 0.958588
0.341766 0.956696 0.961121
0.601715 0.966187 0.970093
0.797394 0.984344 0.986420
1.000000 1.000000 1.000000
