Color Lookup Presets Effects/z1 (89).CUBE
#Created by: Adobe Photoshop Export Color Lookup Plugin
#Copyright: (C) Copyright 2015 www.zafizack.com
TITLE "zafizack-VG-15"
#LUT size
LUT_3D_SIZE 6
#data domain
DOMAIN_MIN 0.0 0.0 0.0
DOMAIN_MAX 1.0 1.0 1.0
#LUT data points
0.000000 0.000000 0.000000
0.200012 0.000000 0.000000
0.399994 0.000000 0.000000
0.600006 0.000000 0.000000
0.799988 0.000000 0.000000
1.000000 0.000000 0.000000
0.328003 0.217987 0.000000
0.360016 0.269043 0.000000
0.519989 0.269043 0.000000
0.680023 0.269043 0.000000
0.839996 0.269043 0.000000
1.000000 0.269043 0.000000
0.543976 0.318665 0.000000
0.564789 0.413879 0.000000
0.639984 0.503510 0.000000
0.760010 0.503510 0.000000
0.880005 0.503510 0.000000
1.000000 0.503510 0.000000
0.764832 0.516571 0.000000
0.747864 0.582275 0.000000
0.777924 0.634857 0.000000
0.839996 0.703522 0.000000
0.919983 0.703522 0.000000
1.000000 0.703522 0.000000
0.934937 0.769379 0.000000
0.905914 0.786255 0.000000
0.905426 0.789825 0.000000
0.925964 0.820435 0.000000
0.959991 0.869019 0.000000
1.000000 0.869019 0.000000
1.000000 1.000000 0.000000
1.000000 1.000000 0.000000
1.000000 1.000000 0.000000
1.000000 1.000000 0.000000
1.000000 1.000000 0.000000
1.000000 1.000000 0.000000
0.000000 0.000000 0.200012
0.200012 0.000000 0.200012
0.399994 0.000000 0.200012
0.600006 0.000000 0.200012
0.799988 0.000000 0.200012
1.000000 0.000000 0.200012
0.000000 0.200012 0.200012
0.200012 0.200012 0.200012
0.399994 0.200012 0.200012
0.600006 0.200012 0.200012
0.799988 0.200012 0.200012
1.000000 0.200012 0.200012
0.327972 0.293335 0.134399
0.462402 0.366943 0.134399
0.519989 0.451752 0.160004
0.679993 0.451752 0.160004
0.839996 0.451752 0.160004
1.000000 0.451752 0.160004
0.612823 0.507416 0.077423
0.690247 0.555084 0.077423
0.701111 0.602905 0.099640
0.760010 0.669037 0.119995
0.880005 0.669037 0.119995
1.000000 0.669037 0.119995
0.850372 0.747528 0.029938
0.880310 0.776093 0.029938
0.862244 0.776215 0.045929
0.874756 0.804474 0.062622
0.919983 0.851746 0.080017
1.000000 0.851746 0.080017
0.992004 1.000000 0.001587
0.993591 1.000000 0.001587
0.980804 1.000000 0.006409
0.971191 1.000000 0.014404
0.974396 1.000000 0.025604
1.000000 1.000000 0.040009
0.000000 0.000000 0.399994
0.200012 0.000000 0.399994
0.399994 0.000000 0.399994
0.600006 0.000000 0.399994
0.799988 0.000000 0.399994
1.000000 0.000000 0.399994
0.000000 0.200012 0.399994
0.200012 0.200012 0.399994
0.399994 0.200012 0.399994
0.600006 0.200012 0.399994
0.799988 0.200012 0.399994
1.000000 0.200012 0.399994
0.000000 0.399994 0.399994
0.200012 0.399994 0.399994
0.399994 0.399994 0.399994
0.600006 0.399994 0.399994
0.799988 0.399994 0.399994
1.000000 0.399994 0.399994
0.373901 0.458588 0.250427
0.499146 0.481079 0.250427
0.624329 0.570984 0.250427
0.680023 0.634521 0.319977
0.839996 0.634521 0.319977
1.000000 0.634521 0.319977
0.698395 0.686066 0.120636
0.758728 0.724365 0.120636
0.819031 0.762634 0.120636
0.823547 0.788513 0.176453
0.880005 0.834503 0.239990
1.000000 0.834503 0.239990
0.936005 1.000000 0.025604
0.948792 1.000000 0.025604
0.961609 1.000000 0.025604
0.942413 1.000000 0.057587
0.948792 1.000000 0.102386
1.000000 1.000000 0.160004
0.000000 0.000000 0.600006
0.200012 0.000000 0.600006
0.399994 0.000000 0.600006
0.600006 0.000000 0.600006
0.799988 0.000000 0.600006
1.000000 0.000000 0.600006
0.000000 0.200012 0.600006
0.200012 0.200012 0.600006
0.399994 0.200012 0.600006
0.600006 0.200012 0.600006
0.799988 0.200012 0.600006
1.000000 0.200012 0.600006
0.000000 0.399994 0.600006
0.200012 0.399994 0.600006
0.399994 0.399994 0.600006
0.600006 0.399994 0.600006
0.799988 0.399994 0.600006
1.000000 0.399994 0.600006
0.000000 0.600006 0.600006
0.200012 0.600006 0.600006
0.399994 0.600006 0.600006
0.600006 0.600006 0.600006
0.799988 0.600006 0.600006
1.000000 0.600006 0.600006
0.385010 0.726746 0.453552
0.508026 0.726746 0.453552
0.631012 0.726746 0.453552
0.753998 0.766815 0.428589
0.839996 0.817230 0.496246
1.000000 0.817230 0.496246
0.715179 1.000000 0.258575
0.772125 1.000000 0.255737
0.829102 1.000000 0.248138
0.886078 1.000000 0.240540
0.914032 1.000000 0.316742
1.000000 1.000000 0.392456
0.000000 0.000000 0.799988
0.200012 0.000000 0.799988
0.399994 0.000000 0.799988
0.600006 0.000000 0.799988
0.799988 0.000000 0.799988
1.000000 0.000000 0.799988
0.000000 0.200012 0.799988
0.200012 0.200012 0.799988
0.399994 0.200012 0.799988
0.600006 0.200012 0.799988
0.799988 0.200012 0.799988
1.000000 0.200012 0.799988
0.000000 0.399994 0.799988
0.200012 0.399994 0.799988
0.399994 0.399994 0.799988
0.600006 0.399994 0.799988
0.799988 0.399994 0.799988
1.000000 0.399994 0.799988
0.000000 0.600006 0.799988
0.200012 0.600006 0.799988
0.399994 0.600006 0.799988
0.600006 0.600006 0.799988
0.799988 0.600006 0.799988
1.000000 0.600006 0.799988
0.000000 0.799988 0.799988
0.200012 0.799988 0.799988
0.399994 0.799988 0.799988
0.600006 0.799988 0.799988
0.799988 0.799988 0.799988
1.000000 0.799988 0.799988
0.385101 1.000000 0.726715
0.508087 1.000000 0.726715
0.631042 1.000000 0.726715
0.754059 1.000000 0.726715
0.877014 1.000000 0.718231
1.000000 1.000000 0.748077
0.000000 0.000000 1.000000
0.200012 0.000000 1.000000
0.399994 0.000000 1.000000
0.600006 0.000000 1.000000
0.799988 0.000000 1.000000
1.000000 0.000000 1.000000
0.000000 0.200012 1.000000
0.200012 0.200012 1.000000
0.399994 0.200012 1.000000
0.600006 0.200012 1.000000
0.799988 0.200012 1.000000
1.000000 0.200012 1.000000
0.000000 0.399994 1.000000
0.200012 0.399994 1.000000
0.399994 0.399994 1.000000
0.600006 0.399994 1.000000
0.799988 0.399994 1.000000
1.000000 0.399994 1.000000
0.000000 0.600006 1.000000
0.200012 0.600006 1.000000
0.399994 0.600006 1.000000
0.600006 0.600006 1.000000
0.799988 0.600006 1.000000
1.000000 0.600006 1.000000
0.000000 0.799988 1.000000
0.200012 0.799988 1.000000
0.399994 0.799988 1.000000
0.600006 0.799988 1.000000
0.799988 0.799988 1.000000
1.000000 0.799988 1.000000
0.000000 1.000000 1.000000
0.200012 1.000000 1.000000
0.399994 1.000000 1.000000
0.600006 1.000000 1.000000
0.799988 1.000000 1.000000
1.000000 1.000000 1.000000
