Color Lookup Presets Effects/z1 (85).CUBE
#Created by: Adobe Photoshop Export Color Lookup Plugin
#Copyright: (C) Copyright 2015 www.zafizack.com
TITLE "zafizack-VG-11"
#LUT size
LUT_3D_SIZE 16
#data domain
DOMAIN_MIN 0.0 0.0 0.0
DOMAIN_MAX 1.0 1.0 1.0
#LUT data points
0.117828 0.121948 0.130646
0.141083 0.122070 0.130493
0.199005 0.122223 0.130341
0.289459 0.122406 0.130219
0.400116 0.122559 0.130096
0.512756 0.122711 0.129944
0.608368 0.122864 0.129822
0.672424 0.122986 0.129669
0.728790 0.123169 0.129547
0.779205 0.123352 0.129425
0.824860 0.123474 0.129272
0.866821 0.123657 0.129150
0.905701 0.123810 0.128998
0.942627 0.123993 0.128876
0.978058 0.124146 0.128723
0.982117 0.124146 0.128723
0.118408 0.163300 0.130280
0.142242 0.163696 0.130127
0.201477 0.164185 0.129944
0.293274 0.164612 0.129761
0.404205 0.165039 0.129608
0.516602 0.165466 0.129456
0.610687 0.165833 0.129303
0.674377 0.166260 0.129150
0.730316 0.166626 0.128998
0.780365 0.167023 0.128876
0.825745 0.167450 0.128723
0.867432 0.167847 0.128601
0.906128 0.168243 0.128448
0.942841 0.168671 0.128296
0.978088 0.169037 0.128174
0.982117 0.169098 0.128143
0.118927 0.227112 0.129974
0.143280 0.227783 0.129791
0.203583 0.228699 0.129578
0.296326 0.229401 0.129395
0.407684 0.230164 0.129242
0.519684 0.230865 0.129059
0.612549 0.231537 0.128906
0.675812 0.232269 0.128754
0.731506 0.232910 0.128632
0.781281 0.233551 0.128479
0.826477 0.234253 0.128326
0.867950 0.234894 0.128174
0.906433 0.235565 0.128021
0.942993 0.236206 0.127899
0.978119 0.236847 0.127747
0.982117 0.236938 0.127716
0.119415 0.313141 0.129669
0.144287 0.314087 0.129486
0.205597 0.315308 0.129272
0.299286 0.316315 0.129059
0.410736 0.317261 0.128876
0.522491 0.318207 0.128723
0.614227 0.319122 0.128571
0.677124 0.319916 0.128418
0.732513 0.320801 0.128235
0.782104 0.321686 0.128082
0.827057 0.322479 0.127960
0.868378 0.323303 0.127808
0.906708 0.324066 0.127655
0.943146 0.324890 0.127502
0.978119 0.325684 0.127380
0.982117 0.325775 0.127380
0.119965 0.420532 0.129364
0.145386 0.421539 0.129150
0.207764 0.422821 0.128906
0.302399 0.423981 0.128723
0.414001 0.424896 0.128540
0.525391 0.425842 0.128387
0.615875 0.426697 0.128204
0.678497 0.427673 0.128021
0.733582 0.428528 0.127899
0.782928 0.429352 0.127747
0.827667 0.430206 0.127563
0.868835 0.430969 0.127441
0.907043 0.431763 0.127289
0.943268 0.432587 0.127136
0.978119 0.433441 0.127014
0.982117 0.433533 0.127014
0.120514 0.525085 0.129028
0.146484 0.526062 0.128815
0.209869 0.527161 0.128601
0.305420 0.528107 0.128387
0.417145 0.529022 0.128204
0.528229 0.529816 0.128021
0.617493 0.530640 0.127869
0.679779 0.531403 0.127686
0.734619 0.532196 0.127533
0.783691 0.532898 0.127411
0.828247 0.533630 0.127228
0.869232 0.534363 0.127106
0.907288 0.535065 0.126953
0.943420 0.535736 0.126831
0.978119 0.536377 0.126709
0.982117 0.536469 0.126678
0.121094 0.607910 0.128723
0.147583 0.608551 0.128540
0.211975 0.609253 0.128296
0.308319 0.609894 0.128052
0.420197 0.610382 0.127899
0.530823 0.610870 0.127716
0.619019 0.611359 0.127533
0.680969 0.611816 0.127380
0.735565 0.612274 0.127228
0.784424 0.612732 0.127075
0.828827 0.613190 0.126923
0.869598 0.613617 0.126801
0.907562 0.614044 0.126648
0.943542 0.614410 0.126526
0.978119 0.614807 0.126404
0.982117 0.614838 0.126404
0.121613 0.666382 0.128448
0.148651 0.666870 0.128235
0.214020 0.667480 0.127991
0.311005 0.667908 0.127777
0.422943 0.668365 0.127594
0.533295 0.668762 0.127441
0.620422 0.669189 0.127258
0.682068 0.669556 0.127075
0.736389 0.669922 0.126953
0.785065 0.670258 0.126801
0.829285 0.670624 0.126648
0.869965 0.670929 0.126495
0.907745 0.671265 0.126404
0.943634 0.671570 0.126251
0.978119 0.671906 0.126129
0.982117 0.671936 0.126129
0.122131 0.717041 0.128174
0.149689 0.717407 0.127960
0.215973 0.717896 0.127716
0.313721 0.718231 0.127502
0.425720 0.718597 0.127319
0.535645 0.718964 0.127136
0.621796 0.719238 0.126984
0.683136 0.719543 0.126831
0.737244 0.719818 0.126678
0.785706 0.720093 0.126526
0.829773 0.720398 0.126404
0.870300 0.720642 0.126251
0.907990 0.720856 0.126129
0.943787 0.721100 0.126007
0.978149 0.721375 0.125885
0.982117 0.721405 0.125854
0.122681 0.761536 0.127930
0.150757 0.761871 0.127686
0.217865 0.762207 0.127472
0.316223 0.762512 0.127228
0.428192 0.762787 0.127075
0.537872 0.763031 0.126862
0.623047 0.763275 0.126740
0.684113 0.763519 0.126556
0.738007 0.763733 0.126434
0.786316 0.763916 0.126282
0.830200 0.764130 0.126160
0.870605 0.764313 0.126007
0.908173 0.764496 0.125916
0.943848 0.764709 0.125793
0.978149 0.764893 0.125671
0.982117 0.764893 0.125641
0.123199 0.801208 0.127655
0.151733 0.801483 0.127441
0.219727 0.801758 0.127167
0.318695 0.801971 0.126984
0.430664 0.802155 0.126801
0.539917 0.802399 0.126648
0.624268 0.802551 0.126495
0.685089 0.802734 0.126343
0.738739 0.802917 0.126190
0.786835 0.803070 0.126038
0.830597 0.803223 0.125916
0.870880 0.803406 0.125793
0.908325 0.803528 0.125671
0.943939 0.803680 0.125580
0.978180 0.803772 0.125458
0.982117 0.803802 0.125458
0.123718 0.837311 0.127411
0.152740 0.837494 0.127197
0.221527 0.837708 0.126953
0.321045 0.837860 0.126770
0.433044 0.838013 0.126556
0.541870 0.838196 0.126404
0.625366 0.838318 0.126251
0.685944 0.838409 0.126099
0.739410 0.838562 0.125977
0.787354 0.838654 0.125824
0.830963 0.838776 0.125732
0.871155 0.838867 0.125580
0.908478 0.838989 0.125488
0.944031 0.839111 0.125366
0.978180 0.839203 0.125275
0.982117 0.839203 0.125244
0.124237 0.870422 0.127167
0.153717 0.870544 0.126953
0.223236 0.870697 0.126740
0.323303 0.870819 0.126526
0.435272 0.870941 0.126343
0.543793 0.871033 0.126190
0.626434 0.871155 0.126038
0.686768 0.871246 0.125916
0.740051 0.871307 0.125763
0.787811 0.871399 0.125641
0.831329 0.871490 0.125549
0.871399 0.871490 0.125397
0.908661 0.871582 0.125305
0.944122 0.871643 0.125183
0.978210 0.871735 0.125092
0.982117 0.871735 0.125092
0.124725 0.901398 0.126953
0.154663 0.901489 0.126740
0.224945 0.901581 0.126495
0.325500 0.901642 0.126312
0.437378 0.901733 0.126160
0.545624 0.901764 0.125977
0.627441 0.901825 0.125854
0.687561 0.901917 0.125702
0.740662 0.901978 0.125580
0.788300 0.902008 0.125458
0.831604 0.902069 0.125336
0.871613 0.902130 0.125244
0.908813 0.902130 0.125122
0.944183 0.902161 0.125031
0.978210 0.902222 0.124939
0.982117 0.902222 0.124939
0.125244 0.930756 0.126740
0.155609 0.930817 0.126526
0.226654 0.930847 0.126282
0.327576 0.930908 0.126099
0.439453 0.930908 0.125946
0.547302 0.930939 0.125793
0.628448 0.931000 0.125671
0.688324 0.931000 0.125549
0.741211 0.931030 0.125397
0.788696 0.931061 0.125275
0.831940 0.931091 0.125153
0.871826 0.931122 0.125061
0.908936 0.931122 0.124969
0.944244 0.931122 0.124878
0.978210 0.931152 0.124786
0.982117 0.931152 0.124786
0.125732 0.958984 0.126495
0.156555 0.958984 0.126312
0.228241 0.958984 0.126099
0.329590 0.958984 0.125916
0.441406 0.958984 0.125763
0.548889 0.958984 0.125610
0.629333 0.958984 0.125488
0.689026 0.958984 0.125366
0.741760 0.958984 0.125244
0.789124 0.958984 0.125122
0.832245 0.958984 0.125031
0.872040 0.958984 0.124939
0.909058 0.958984 0.124817
0.944336 0.958984 0.124756
0.978210 0.958984 0.124664
0.982117 0.958984 0.124634
0.117889 0.121979 0.150421
0.141174 0.122101 0.150208
0.199219 0.122284 0.149963
0.289825 0.122437 0.149750
0.400513 0.122620 0.149536
0.513062 0.122742 0.149353
0.608612 0.122894 0.149139
0.672638 0.123077 0.148956
0.728943 0.123230 0.148743
0.779327 0.123383 0.148529
0.824951 0.123566 0.148376
0.866852 0.123718 0.148132
0.905762 0.123871 0.147949
0.942657 0.124023 0.147736
0.978058 0.124207 0.147552
0.982117 0.124237 0.147491
0.118469 0.163422 0.149841
0.142395 0.163818 0.149628
0.201782 0.164307 0.149323
0.293671 0.164764 0.149078
0.404724 0.165161 0.148865
0.517059 0.165588 0.148590
0.610962 0.165985 0.148376
0.674530 0.166412 0.148163
0.730469 0.166809 0.147949
0.780518 0.167236 0.147736
0.825867 0.167633 0.147491
0.867523 0.168030 0.147308
0.906189 0.168457 0.147095
0.942841 0.168823 0.146881
0.978088 0.169250 0.146667
0.982117 0.169312 0.146637
0.118988 0.227234 0.149384
0.143463 0.228027 0.149109
0.203918 0.228882 0.148804
0.296875 0.229645 0.148529
0.408173 0.230408 0.148285
0.520203 0.231079 0.148010
0.612823 0.231812 0.147797
0.676056 0.232483 0.147552
0.731689 0.233154 0.147308
0.781403 0.233826 0.147095
0.826569 0.234467 0.146881
0.868011 0.235138 0.146637
0.906494 0.235809 0.146454
0.943024 0.236481 0.146240
0.978119 0.237152 0.146027
0.982117 0.237213 0.145996
0.119507 0.313446 0.148926
0.144470 0.314392 0.148651
0.205902 0.315582 0.148315
0.299774 0.316650 0.148010
0.411316 0.317566 0.147766
0.523010 0.318512 0.147491
0.614441 0.319397 0.147247
0.677338 0.320282 0.147034
0.732727 0.321106 0.146820
0.782227 0.321991 0.146545
0.827118 0.322815 0.146332
0.868439 0.323639 0.146118
0.906799 0.324432 0.145905
0.943146 0.325226 0.145691
0.978119 0.326019 0.145477
0.982117 0.326111 0.145477
0.120056 0.420837 0.148438
0.145599 0.421906 0.148132
0.208099 0.423187 0.147827
0.302887 0.424225 0.147491
0.414612 0.425232 0.147217
0.525940 0.426208 0.146973
0.616211 0.427063 0.146729
0.678741 0.427979 0.146454
0.733765 0.428802 0.146240
0.783051 0.429657 0.145996
0.827789 0.430542 0.145813
0.868896 0.431335 0.145569
0.907074 0.432098 0.145355
0.943298 0.432953 0.145142
0.978119 0.433716 0.144928
0.982117 0.433838 0.144897
0.120605 0.525238 0.147980
0.146698 0.526245 0.147675
0.210266 0.527405 0.147308
0.305969 0.528351 0.147003
0.417755 0.529236 0.146729
0.528687 0.530121 0.146454
0.617798 0.530884 0.146210
0.679993 0.531677 0.145966
0.734772 0.532440 0.145721
0.783813 0.533203 0.145508
0.828369 0.533936 0.145294
0.869324 0.534607 0.145081
0.907318 0.535278 0.144867
0.943451 0.536011 0.144653
0.978119 0.536652 0.144470
0.982117 0.536774 0.144440
0.121155 0.608124 0.147491
0.147797 0.608704 0.147217
0.212372 0.609406 0.146851
0.308838 0.610016 0.146515
0.420746 0.610535 0.146240
0.531311 0.611084 0.145966
0.619293 0.611572 0.145752
0.681213 0.612030 0.145508
0.735748 0.612518 0.145264
0.784546 0.612946 0.145020
0.828918 0.613312 0.144806
0.869690 0.613800 0.144592
0.907593 0.614197 0.144379
0.943573 0.614594 0.144196
0.978119 0.614990 0.144012
0.982117 0.615021 0.144012
0.121704 0.666565 0.147095
0.148895 0.667023 0.146790
0.214386 0.667603 0.146393
0.311584 0.668091 0.146088
0.423553 0.668518 0.145813
0.533813 0.668915 0.145538
0.620758 0.669312 0.145294
0.682312 0.669708 0.145050
0.736603 0.670044 0.144836
0.785217 0.670410 0.144592
0.829376 0.670715 0.144379
0.870026 0.671082 0.144165
0.907837 0.671387 0.144012
0.943665 0.671692 0.143799
0.978119 0.671967 0.143616
0.982117 0.671997 0.143585
0.122253 0.717163 0.146667
0.149933 0.717560 0.146332
0.216400 0.717987 0.145966
0.314331 0.718384 0.145660
0.426239 0.718719 0.145386
0.536163 0.719086 0.145111
0.622101 0.719360 0.144867
0.683380 0.719635 0.144623
0.737396 0.719940 0.144409
0.785858 0.720184 0.144196
0.829865 0.720459 0.144012
0.870361 0.720734 0.143799
0.908051 0.720978 0.143616
0.943787 0.721252 0.143402
0.978149 0.721466 0.143250
0.982117 0.721466 0.143219
0.122803 0.761627 0.146271
0.151001 0.761963 0.145935
0.218292 0.762299 0.145569
0.316833 0.762604 0.145264
0.428802 0.762848 0.144989
0.538330 0.763123 0.144745
0.623352 0.763367 0.144501
0.684326 0.763580 0.144257
0.738190 0.763794 0.144043
0.786438 0.764008 0.143829
0.830261 0.764221 0.143646
0.870667 0.764404 0.143433
0.908203 0.764587 0.143280
0.943878 0.764801 0.143066
0.978149 0.764954 0.142914
0.982117 0.764984 0.142883
0.123322 0.801300 0.145905
0.151978 0.801575 0.145569
0.220154 0.801819 0.145203
0.319275 0.802063 0.144897
0.431274 0.802246 0.144623
0.540405 0.802460 0.144379
0.624512 0.802612 0.144165
0.685303 0.802826 0.143921
0.738892 0.802979 0.143707
0.786957 0.803131 0.143494
0.830688 0.803314 0.143311
0.870941 0.803406 0.143127
0.908386 0.803589 0.142944
0.943970 0.803741 0.142761
0.978180 0.803864 0.142609
0.982117 0.803864 0.142609
0.123840 0.837372 0.145538
0.153015 0.837524 0.145203
0.221985 0.837738 0.144836
0.321655 0.837921 0.144531
0.433624 0.838104 0.144257
0.542419 0.838226 0.144043
0.625671 0.838379 0.143799
0.686157 0.838470 0.143585
0.739594 0.838593 0.143372
0.787476 0.838715 0.143188
0.831055 0.838837 0.142975
0.871216 0.838928 0.142792
0.908539 0.839020 0.142639
0.944031 0.839111 0.142487
0.978180 0.839264 0.142303
0.982117 0.839264 0.142303
0.124329 0.870483 0.145203
0.153961 0.870605 0.144867
0.223694 0.870758 0.144501
0.323853 0.870850 0.144196
0.435760 0.871002 0.143951
0.544281 0.871063 0.143707
0.626740 0.871185 0.143494
0.687012 0.871277 0.143280
0.740204 0.871338 0.143066
0.787964 0.871399 0.142883
0.831421 0.871490 0.142731
0.871460 0.871521 0.142517
0.908691 0.871643 0.142365
0.944153 0.871674 0.142242
0.978210 0.871765 0.142059
0.982117 0.871765 0.142059
0.124847 0.901459 0.144836
0.154938 0.901520 0.144531
0.225433 0.901611 0.144165
0.326019 0.901672 0.143890
0.437927 0.901733 0.143646
0.546082 0.901794 0.143402
0.627716 0.901855 0.143188
0.687775 0.901947 0.142975
0.740814 0.901978 0.142792
0.788391 0.902008 0.142609
0.831726 0.902100 0.142426
0.871643 0.902130 0.142273
0.908844 0.902130 0.142120
0.944183 0.902191 0.141968
0.978210 0.902222 0.141815
0.982117 0.902222 0.141815
0.125366 0.930786 0.144501
0.155884 0.930847 0.144196
0.227081 0.930878 0.143860
0.328156 0.930908 0.143585
0.439972 0.930908 0.143311
0.547729 0.930969 0.143127
0.628662 0.931000 0.142883
0.688507 0.931000 0.142700
0.741364 0.931061 0.142517
0.788788 0.931091 0.142334
0.832031 0.931122 0.142181
0.871857 0.931122 0.142029
0.908966 0.931122 0.141876
0.944275 0.931152 0.141754
0.978210 0.931152 0.141602
0.982117 0.931152 0.141602
0.125854 0.958984 0.144196
0.156830 0.958984 0.143890
0.228729 0.958984 0.143555
0.330139 0.958984 0.143280
0.441925 0.958984 0.143036
0.549347 0.958984 0.142822
0.629608 0.958984 0.142639
0.689209 0.958984 0.142456
0.741882 0.958984 0.142273
0.789246 0.958984 0.142120
0.832336 0.958984 0.141937
0.872070 0.958984 0.141815
0.909088 0.958984 0.141663
0.944336 0.958984 0.141541
0.978210 0.958984 0.141449
0.982117 0.958984 0.141418
0.117981 0.122040 0.199585
0.141327 0.122162 0.199249
0.199554 0.122345 0.198883
0.290344 0.122528 0.198517
0.401093 0.122681 0.198151
0.513672 0.122864 0.197815
0.608948 0.122986 0.197540
0.672913 0.123169 0.197174
0.729187 0.123322 0.196808
0.779480 0.123474 0.196472
0.825104 0.123657 0.196167
0.866974 0.123810 0.195801
0.905823 0.123993 0.195496
0.942657 0.124146 0.195190
0.978058 0.124329 0.194824
0.982117 0.124329 0.194794
0.118561 0.163574 0.198639
0.142609 0.163971 0.198273
0.202179 0.164490 0.197784
0.294342 0.164978 0.197357
0.405426 0.165375 0.196991
0.517700 0.165802 0.196594
0.611328 0.166229 0.196228
0.674866 0.166626 0.195862
0.730713 0.167023 0.195496
0.780701 0.167450 0.195160
0.826019 0.167847 0.194794
0.867615 0.168274 0.194427
0.906250 0.168671 0.194092
0.942871 0.169067 0.193756
0.978088 0.169495 0.193390
0.982117 0.169525 0.193359
0.119110 0.227570 0.197845
0.143677 0.228271 0.197449
0.204376 0.229187 0.196899
0.297577 0.230011 0.196442
0.408966 0.230774 0.196045
0.520844 0.231476 0.195618
0.613190 0.232208 0.195251
0.676361 0.232819 0.194855
0.731903 0.233551 0.194519
0.781616 0.234253 0.194122
0.826691 0.234894 0.193787
0.868134 0.235596 0.193390
0.906586 0.236237 0.193054
0.943054 0.236908 0.192688
0.978119 0.237549 0.192383
0.982117 0.237610 0.192291
0.119629 0.313782 0.197144
0.144714 0.314850 0.196655
0.206451 0.316040 0.196106
0.300507 0.317047 0.195618
0.412018 0.318085 0.195221
0.523621 0.318970 0.194794
0.614868 0.319855 0.194366
0.677673 0.320770 0.194000
0.732971 0.321594 0.193604
0.782410 0.322479 0.193207
0.827271 0.323303 0.192871
0.868561 0.324097 0.192505
0.906830 0.324951 0.192169
0.943207 0.325745 0.191772
0.978119 0.326569 0.191467
0.982117 0.326630 0.191437
0.120178 0.421234 0.196350
0.145844 0.422333 0.195831
0.208679 0.423615 0.195251
0.303680 0.424683 0.194763
0.415405 0.425659 0.194336
0.526703 0.426636 0.193909
0.616577 0.427582 0.193481
0.679047 0.428467 0.193085
0.734039 0.429291 0.192688
0.783264 0.430206 0.192352
0.827911 0.431000 0.191986
0.869019 0.431793 0.191589
0.907166 0.432587 0.191254
0.943359 0.433472 0.190918
0.978119 0.434235 0.190582
0.982117 0.434326 0.190552
0.120758 0.525726 0.195557
0.147003 0.526703 0.195038
0.210876 0.527802 0.194458
0.306793 0.528778 0.193939
0.418579 0.529694 0.193512
0.529480 0.530548 0.193085
0.618225 0.531311 0.192657
0.680328 0.532196 0.192230
0.735046 0.532898 0.191833
0.784027 0.533630 0.191498
0.828491 0.534363 0.191132
0.869415 0.535065 0.190796
0.907410 0.535736 0.190430
0.943512 0.536407 0.190094
0.978119 0.537018 0.189758
0.982117 0.537140 0.189728
0.121338 0.608398 0.194824
0.148102 0.608978 0.194305
0.212982 0.609619 0.193665
0.309692 0.610260 0.193146
0.421600 0.610809 0.192719
0.532104 0.611328 0.192261
0.619720 0.611816 0.191833
0.681549 0.612274 0.191467
0.735992 0.612732 0.191071
0.784760 0.613190 0.190735
0.829071 0.613647 0.190369
0.869751 0.614044 0.190033
0.907654 0.614441 0.189697
0.943634 0.614807 0.189362
0.978119 0.615204 0.189026
0.982117 0.615265 0.189026
0.121918 0.666779 0.194092
0.149200 0.667267 0.193573
0.215027 0.667786 0.192963
0.312469 0.668274 0.192444
0.424408 0.668701 0.191986
0.534515 0.669128 0.191559
0.621155 0.669495 0.191162
0.682648 0.669922 0.190765
0.736847 0.670227 0.190369
0.785431 0.670624 0.190033
0.829559 0.670929 0.189697
0.870148 0.671295 0.189331
0.907867 0.671600 0.189026
0.943695 0.671906 0.188660
0.978149 0.672180 0.188354
0.982117 0.672211 0.188324
0.122437 0.717316 0.193420
0.150269 0.717682 0.192871
0.217010 0.718140 0.192261
0.315125 0.718567 0.191742
0.427124 0.718903 0.191315
0.536896 0.719208 0.190857
0.622528 0.719513 0.190460
0.683716 0.719788 0.190094
0.737671 0.720093 0.189697
0.786011 0.720398 0.189362
0.830017 0.720642 0.189026
0.870453 0.720856 0.188660
0.908081 0.721130 0.188354
0.943787 0.721405 0.188080
0.978149 0.721588 0.187744
0.982117 0.721619 0.187714
0.122986 0.761780 0.192749
0.151337 0.762054 0.192230
0.218933 0.762421 0.191650
0.317657 0.762756 0.191101
0.429688 0.762970 0.190643
0.539063 0.763245 0.190247
0.623749 0.763489 0.189819
0.684692 0.763733 0.189453
0.738434 0.763916 0.189056
0.786621 0.764130 0.188751
0.830414 0.764343 0.188416
0.870758 0.764496 0.188110
0.908264 0.764709 0.187775
0.943939 0.764893 0.187500
0.978180 0.765076 0.187195
0.982117 0.765076 0.187164
0.123505 0.801392 0.192139
0.152344 0.801666 0.191589
0.220825 0.801941 0.191010
0.320160 0.802124 0.190491
0.432098 0.802338 0.190033
0.541138 0.802521 0.189636
0.624908 0.802704 0.189270
0.685608 0.802917 0.188873
0.739166 0.803070 0.188507
0.787170 0.803223 0.188202
0.830811 0.803406 0.187866
0.871033 0.803528 0.187531
0.908447 0.803680 0.187256
0.944000 0.803802 0.186981
0.978180 0.803925 0.186676
0.982117 0.803925 0.186676
0.124023 0.837433 0.191528
0.153351 0.837585 0.191040
0.222595 0.837799 0.190399
0.322418 0.837982 0.189911
0.434418 0.838165 0.189484
0.543121 0.838287 0.189056
0.626038 0.838409 0.188660
0.686462 0.838562 0.188324
0.739838 0.838623 0.187988
0.787659 0.838776 0.187653
0.831177 0.838898 0.187347
0.871307 0.838989 0.187042
0.908600 0.839111 0.186798
0.944061 0.839203 0.186523
0.978210 0.839294 0.186218
0.982117 0.839294 0.186188
0.124542 0.870514 0.190948
0.154327 0.870636 0.190430
0.224335 0.870819 0.189819
0.324677 0.870911 0.189362
0.436646 0.871033 0.188965
0.544952 0.871124 0.188538
0.627075 0.871246 0.188171
0.687256 0.871307 0.187805
0.740417 0.871399 0.187469
0.788147 0.871490 0.187164
0.831512 0.871490 0.186890
0.871521 0.871613 0.186584
0.908722 0.871643 0.186340
0.944183 0.871735 0.186035
0.978210 0.871796 0.185822
0.982117 0.871796 0.185791
0.125061 0.901489 0.190399
0.155304 0.901550 0.189911
0.226074 0.901642 0.189301
0.326843 0.901703 0.188812
0.438751 0.901764 0.188385
0.546722 0.901825 0.188019
0.628113 0.901886 0.187653
0.688049 0.901978 0.187317
0.741028 0.901978 0.187012
0.788544 0.902069 0.186707
0.831818 0.902130 0.186432
0.871735 0.902130 0.186157
0.908875 0.902161 0.185913
0.944214 0.902222 0.185638
0.978210 0.902252 0.185425
0.982117 0.902252 0.185394
0.125549 0.930817 0.189819
0.156250 0.930847 0.189362
0.227692 0.930908 0.188782
0.328918 0.930908 0.188324
0.440704 0.930939 0.187897
0.548431 0.930969 0.187531
0.629089 0.931000 0.187195
0.688782 0.931030 0.186890
0.741577 0.931061 0.186554
0.788971 0.931091 0.186310
0.832184 0.931122 0.186005
0.871948 0.931122 0.185760
0.909027 0.931122 0.185516
0.944305 0.931152 0.185303
0.978210 0.931152 0.185089
0.982117 0.931152 0.185089
0.126038 0.958984 0.189331
0.157166 0.958984 0.188843
0.229340 0.958984 0.188293
0.330933 0.958984 0.187805
0.442657 0.958984 0.187439
0.550018 0.958984 0.187073
0.629913 0.958984 0.186768
0.689484 0.958984 0.186432
0.742126 0.958984 0.186157
0.789368 0.958984 0.185913
0.832458 0.958984 0.185638
0.872131 0.958984 0.185394
0.909149 0.958984 0.185181
0.944336 0.958984 0.184967
0.978210 0.958984 0.184784
0.982117 0.958984 0.184723
0.118042 0.122070 0.276672
0.141479 0.122223 0.276215
0.199890 0.122406 0.275696
0.290833 0.122589 0.275177
0.401611 0.122742 0.274719
0.514252 0.122925 0.274200
0.609283 0.123108 0.273773
0.673157 0.123230 0.273315
0.729370 0.123413 0.272827
0.779633 0.123566 0.272339
0.825226 0.123749 0.271912
0.867065 0.123901 0.271454
0.905884 0.124084 0.270935
0.942688 0.124268 0.270538
0.978058 0.124420 0.270050
0.982117 0.124451 0.270020
0.118652 0.163727 0.275421
0.142792 0.164124 0.274811
0.202637 0.164673 0.274170
0.294952 0.165131 0.273621
0.406128 0.165558 0.273041
0.518280 0.166016 0.272522
0.611725 0.166412 0.271973
0.675140 0.166870 0.271484
0.730957 0.167267 0.270935
0.780884 0.167694 0.270477
0.826141 0.168091 0.270020
0.867706 0.168488 0.269531
0.906311 0.168915 0.269012
0.942932 0.169312 0.268524
0.978119 0.169739 0.268097
0.982117 0.169800 0.268005
0.119232 0.227814 0.274261
0.143921 0.228607 0.273682
0.204834 0.229523 0.272980
0.298187 0.230316 0.272308
0.409607 0.231079 0.271759
0.521515 0.231812 0.271179
0.613617 0.232513 0.270630
0.676636 0.233215 0.270081
0.732178 0.233917 0.269592
0.781799 0.234619 0.269043
0.826843 0.235229 0.268555
0.868256 0.235931 0.268097
0.906616 0.236603 0.267578
0.943085 0.237305 0.267120
0.978119 0.237915 0.266632
0.982117 0.238007 0.266571
0.119751 0.314209 0.273254
0.144989 0.315247 0.272583
0.206940 0.316467 0.271820
0.301239 0.317505 0.271179
0.412872 0.318451 0.270569
0.524353 0.319458 0.270020
0.615204 0.320343 0.269379
0.677979 0.321198 0.268921
0.733215 0.322052 0.268341
0.782593 0.322968 0.267822
0.827423 0.323792 0.267365
0.868683 0.324646 0.266815
0.906921 0.325378 0.266327
0.943237 0.326172 0.265839
0.978119 0.327026 0.265350
0.982117 0.327087 0.265289
0.120331 0.421631 0.272125
0.146118 0.422729 0.271454
0.209167 0.424042 0.270660
0.304382 0.425140 0.269989
0.416199 0.426117 0.269318
0.527374 0.427124 0.268768
0.617004 0.427979 0.268158
0.679352 0.428894 0.267609
0.734283 0.429840 0.267120
0.783417 0.430664 0.266602
0.828094 0.431488 0.266052
0.869110 0.432312 0.265533
0.907196 0.433136 0.265045
0.943390 0.433929 0.264587
0.978119 0.434662 0.264099
0.982117 0.434753 0.264008
0.120911 0.526123 0.271027
0.147278 0.527039 0.270355
0.211395 0.528229 0.269562
0.307495 0.529175 0.268829
0.419373 0.530060 0.268188
0.530151 0.530945 0.267578
0.618591 0.531769 0.267029
0.680664 0.532532 0.266479
0.735291 0.533295 0.265930
0.784241 0.534027 0.265381
0.828674 0.534760 0.264893
0.869507 0.535431 0.264404
0.907471 0.536102 0.263885
0.943512 0.536865 0.263428
0.978119 0.537384 0.263000
0.982117 0.537537 0.262970
0.121490 0.608612 0.270020
0.148407 0.609222 0.269287
0.213531 0.609924 0.268463
0.310455 0.610535 0.267731
0.422424 0.611084 0.267120
0.532776 0.611572 0.266479
0.620087 0.612061 0.265961
0.681824 0.612518 0.265350
0.736206 0.612976 0.264862
0.784912 0.613403 0.264313
0.829163 0.613831 0.263824
0.869873 0.614258 0.263367
0.907684 0.614685 0.262848
0.943634 0.615051 0.262421
0.978119 0.615448 0.261963
0.982117 0.615479 0.261902
