Color Lookup Presets Effects/z1 (70).CUBE
#Created by: Adobe Photoshop Export Color Lookup Plugin
#Copyright: (C) Copyright 2016 www.zafizack.com
TITLE "zafizack pastel color preset"
#LUT size
LUT_3D_SIZE 16
#data domain
DOMAIN_MIN 0.0 0.0 0.0
DOMAIN_MAX 1.0 1.0 1.0
#LUT data points
0.036438 0.024750 0.025696
0.087921 0.033752 0.036346
0.142670 0.041870 0.045898
0.210480 0.050201 0.056732
0.342377 0.058746 0.068298
0.442261 0.066742 0.080536
0.543427 0.074371 0.098175
0.631775 0.081421 0.114838
0.702362 0.088226 0.130859
0.774750 0.094696 0.145874
0.823273 0.108490 0.173706
0.861603 0.126068 0.206757
0.900757 0.153351 0.238251
0.940216 0.182678 0.269287
0.972290 0.206207 0.293457
1.000000 0.225525 0.313538
0.036499 0.061249 0.025787
0.076050 0.062073 0.027161
0.129242 0.071228 0.035919
0.195221 0.079926 0.046112
0.311981 0.088898 0.056885
0.419037 0.097076 0.067474
0.518433 0.104889 0.077942
0.614136 0.112091 0.093811
0.683594 0.118958 0.108887
0.754456 0.125366 0.122986
0.822388 0.135468 0.139343
0.860779 0.164185 0.174652
0.899963 0.193604 0.208862
0.939392 0.224091 0.242584
0.972290 0.248352 0.270111
1.000000 0.269073 0.292084
0.036499 0.104706 0.025787
0.075409 0.105072 0.026733
0.118622 0.106415 0.028503
0.181885 0.115387 0.037354
0.285980 0.124542 0.047455
0.398560 0.135437 0.057312
0.496429 0.148254 0.067017
0.597015 0.160431 0.076355
0.667084 0.171906 0.089966
0.737213 0.182861 0.103882
0.809326 0.193451 0.116730
0.859985 0.215790 0.146484
0.898804 0.245514 0.184021
0.938507 0.275604 0.220490
0.972290 0.300323 0.250153
1.000000 0.320099 0.273468
0.036560 0.176880 0.025818
0.073273 0.175232 0.025787
0.115692 0.177124 0.027130
0.170837 0.181000 0.030243
0.261993 0.196014 0.039001
0.380249 0.211456 0.048431
0.476532 0.225189 0.057617
0.575897 0.238159 0.066498
0.652039 0.250092 0.075043
0.721222 0.261627 0.086426
0.792145 0.272339 0.098450
0.859100 0.285492 0.114563
0.897919 0.314392 0.155975
0.937744 0.343903 0.195282
0.972290 0.369293 0.228180
1.000000 0.388794 0.253082
0.036591 0.277740 0.025848
0.072906 0.273804 0.025696
0.112823 0.275116 0.025909
0.166473 0.277496 0.028198
0.242737 0.283722 0.032471
0.363586 0.298798 0.040710
0.459961 0.314301 0.049805
0.557861 0.328003 0.058167
0.638794 0.340637 0.066162
0.707214 0.352234 0.073700
0.776825 0.363220 0.082520
0.848022 0.373474 0.092590
0.897095 0.396179 0.127411
0.936493 0.418976 0.170685
0.972290 0.435577 0.207336
1.000000 0.447937 0.234314
0.036652 0.387604 0.025879
0.071960 0.382721 0.025696
0.111359 0.383118 0.025696
0.163788 0.385010 0.027313
0.234619 0.388458 0.030396
0.350677 0.395630 0.035034
0.444183 0.409637 0.042816
0.542114 0.420044 0.051392
0.627930 0.428741 0.058899
0.695160 0.436768 0.066010
0.763824 0.444092 0.072540
0.834015 0.450836 0.078705
0.896210 0.460388 0.099152
0.935669 0.477051 0.148071
0.972290 0.492859 0.188995
1.000000 0.504425 0.218140
0.036652 0.472473 0.025909
0.071564 0.469208 0.025696
0.110016 0.469025 0.025696
0.161713 0.469788 0.026764
0.229156 0.471313 0.029266
0.343384 0.474365 0.032928
0.432312 0.479706 0.037811
0.527496 0.488861 0.045074
0.618469 0.498871 0.052948
0.685242 0.506683 0.059845
0.753052 0.513947 0.065887
0.822479 0.520599 0.071289
0.893158 0.526917 0.075562
0.934814 0.540863 0.126617
0.972290 0.555115 0.173553
1.000000 0.565643 0.205658
0.036682 0.553528 0.025909
0.070923 0.549957 0.025696
0.108734 0.549408 0.025696
0.159668 0.549957 0.026459
0.224792 0.550964 0.028564
0.336914 0.553192 0.031555
0.425934 0.557190 0.035736
0.516724 0.562805 0.040741
0.609161 0.571320 0.047363
0.676605 0.580902 0.054626
0.744110 0.588196 0.060547
0.812775 0.592773 0.065582
0.882568 0.596954 0.069489
0.933990 0.603638 0.106232
0.972290 0.612396 0.161011
1.000000 0.618988 0.196472
0.036713 0.622711 0.025970
0.070374 0.620148 0.025696
0.107391 0.619568 0.025696
0.157928 0.619843 0.026215
0.220642 0.620239 0.027985
0.331909 0.621429 0.030670
0.421234 0.623657 0.034210
0.510406 0.627258 0.038727
0.603088 0.631226 0.043823
0.668213 0.636658 0.049652
0.736298 0.643066 0.056061
0.804688 0.647522 0.061035
0.873962 0.651733 0.064667
0.933136 0.655853 0.086914
0.972290 0.662872 0.151917
1.000000 0.668518 0.192169
0.036713 0.683807 0.025970
0.069855 0.681152 0.025696
0.106232 0.680298 0.025696
0.156219 0.680359 0.026215
0.217041 0.680664 0.027557
0.327057 0.681641 0.029877
0.416656 0.683411 0.033112
0.505310 0.686340 0.037140
0.597900 0.690582 0.041931
0.662689 0.694672 0.046753
0.728668 0.699646 0.051880
0.797760 0.705505 0.057373
0.866791 0.709564 0.060974
0.932312 0.712952 0.071503
0.972046 0.717255 0.147003
1.000000 0.721649 0.193756
0.036774 0.746826 0.026031
0.069061 0.743835 0.025696
0.104767 0.742706 0.025696
0.154785 0.742645 0.026215
0.213898 0.742889 0.027252
0.322876 0.743561 0.029388
0.413025 0.745361 0.032166
0.500244 0.747925 0.035797
0.592346 0.751556 0.040192
0.658966 0.756378 0.045044
0.724213 0.760620 0.049652
0.791443 0.765045 0.053955
0.860840 0.770477 0.058075
0.930695 0.773651 0.060913
0.971283 0.774628 0.146698
1.000000 0.777283 0.203705
0.036774 0.811798 0.026062
0.068695 0.808990 0.025696
0.103577 0.807800 0.025696
0.153259 0.807526 0.026215
0.210938 0.807800 0.027039
0.318604 0.808167 0.028900
0.409576 0.809418 0.031372
0.496094 0.811646 0.034698
0.586700 0.815308 0.038574
0.654785 0.819580 0.043182
0.720245 0.824829 0.047974
0.787445 0.829285 0.052307
0.855438 0.833252 0.055389
0.925690 0.837402 0.058685
0.970428 0.834839 0.154480
1.000000 0.835785 0.226685
0.036835 0.863159 0.026123
0.067749 0.861267 0.025696
0.102081 0.860718 0.025696
0.151703 0.861084 0.026215
0.209381 0.862030 0.026917
0.315186 0.863159 0.028564
0.406189 0.865051 0.030853
0.492462 0.868225 0.033783
0.582428 0.872009 0.037415
0.651367 0.877258 0.041718
0.716583 0.882996 0.046356
0.784088 0.889313 0.050873
0.852173 0.894958 0.054382
0.921661 0.899017 0.057068
0.969543 0.893433 0.172913
1.000000 0.892792 0.267670
0.036835 0.908081 0.026154
0.067566 0.906036 0.025696
0.100830 0.905396 0.025696
0.150177 0.905731 0.026215
0.207794 0.906586 0.026917
0.311829 0.907745 0.028320
0.403534 0.909485 0.030457
0.488861 0.912476 0.033203
0.578217 0.916077 0.036652
0.648224 0.921112 0.040588
0.713104 0.926788 0.045044
0.780487 0.933350 0.049622
0.849518 0.939728 0.053436
0.918396 0.943268 0.061310
0.968719 0.933807 0.195587
1.000000 0.931152 0.315216
0.036835 0.953949 0.026154
0.066223 0.951965 0.025696
0.099396 0.951202 0.025696
0.148682 0.951385 0.026215
0.206177 0.952148 0.026917
0.308411 0.953369 0.028076
0.400940 0.954926 0.030029
0.485931 0.957794 0.032684
0.574768 0.961212 0.035797
0.645477 0.965698 0.039581
0.710083 0.971436 0.044037
0.778748 0.971436 0.066742
0.846100 0.971436 0.109100
0.909637 0.971436 0.172791
0.966492 0.971436 0.251160
1.000000 0.967865 0.388031
0.037567 1.000000 0.026764
0.066223 0.998810 0.025696
0.098053 0.997864 0.025696
0.147034 0.998077 0.026215
0.204620 0.998749 0.026917
0.305328 1.000000 0.027863
0.400146 1.000000 0.031647
0.487122 1.000000 0.037781
0.578430 1.000000 0.047180
0.649933 1.000000 0.061371
0.715424 1.000000 0.084137
0.781555 1.000000 0.129517
0.846802 1.000000 0.191315
0.907990 1.000000 0.276917
0.962524 1.000000 0.389648
1.000000 1.000000 0.486023
0.036438 0.024750 0.055542
0.085175 0.031921 0.092529
0.139618 0.039917 0.109985
0.207062 0.048187 0.127991
0.335938 0.056702 0.148560
0.437378 0.064636 0.167572
0.538818 0.072174 0.186798
0.628632 0.079163 0.204590
0.699097 0.085876 0.222137
0.771027 0.092377 0.238434
0.823059 0.105499 0.262421
0.861481 0.123444 0.292511
0.900604 0.150024 0.320831
0.940063 0.179810 0.349976
0.972290 0.203552 0.372192
1.000000 0.223480 0.391693
0.036438 0.058197 0.072021
0.073547 0.059875 0.074432
0.126404 0.068878 0.089050
0.192078 0.077637 0.106415
0.305908 0.086456 0.125519
0.414459 0.094574 0.143311
0.514160 0.102356 0.161194
0.611084 0.109436 0.177856
0.680267 0.116302 0.194061
0.751343 0.122833 0.209259
0.822266 0.129517 0.224091
0.860626 0.159058 0.257019
0.899719 0.189209 0.288422
0.939240 0.220520 0.320374
0.972290 0.245392 0.345642
1.000000 0.266449 0.367065
0.036438 0.100891 0.073822
0.072998 0.102417 0.073853
0.115845 0.103912 0.075928
0.178802 0.112671 0.090332
0.280151 0.121765 0.108643
0.393982 0.131012 0.125214
0.492096 0.143768 0.141907
0.592529 0.155640 0.157410
0.663666 0.167023 0.172852
0.734131 0.178192 0.187622
0.805786 0.188599 0.201111
0.859802 0.209747 0.227936
0.898621 0.240448 0.263123
0.938354 0.271179 0.297699
0.972290 0.296722 0.325745
1.000000 0.317108 0.348541
0.036438 0.169281 0.073029
0.070770 0.170532 0.071289
0.113007 0.172180 0.072845
0.167847 0.176025 0.075775
0.256714 0.191376 0.090759
0.375854 0.206696 0.106842
0.472351 0.220398 0.122589
0.571503 0.233093 0.137421
0.649017 0.245148 0.151642
0.718170 0.256470 0.165192
0.788757 0.267426 0.177643
0.858978 0.278748 0.191345
0.897797 0.309021 0.231049
0.937378 0.339081 0.269623
0.972290 0.365295 0.300720
1.000000 0.385498 0.325348
0.036438 0.269409 0.073090
0.070038 0.269226 0.070313
0.110291 0.269592 0.071228
0.163544 0.272003 0.073090
0.237152 0.278229 0.078339
0.359619 0.293304 0.092590
0.455414 0.309082 0.108429
0.553131 0.322418 0.122223
0.635864 0.335052 0.135437
0.703857 0.346680 0.148163
0.773468 0.357666 0.159332
0.844910 0.368195 0.170135
0.896881 0.389740 0.200592
0.936310 0.415558 0.243622
0.972290 0.432800 0.278717
1.000000 0.445526 0.305206
0.036438 0.378479 0.072174
0.069061 0.378052 0.069092
0.108734 0.377747 0.069611
0.160950 0.379242 0.070953
0.229340 0.382568 0.074432
0.346313 0.389832 0.080048
0.440155 0.404572 0.093903
0.537964 0.416443 0.108215
0.624786 0.425110 0.120819
0.692230 0.433044 0.132477
0.760803 0.440338 0.142914
0.831024 0.446838 0.152496
0.896027 0.455597 0.168304
0.935486 0.473511 0.217285
0.972290 0.489990 0.257599
1.000000 0.501984 0.286804
0.036438 0.466156 0.071869
0.068695 0.465759 0.068604
0.107147 0.465179 0.068939
0.158844 0.465668 0.069763
0.224091 0.467163 0.072632
0.337585 0.470581 0.076172
0.428375 0.475494 0.083893
0.523041 0.484619 0.096008
0.615417 0.494629 0.109497
0.682281 0.502930 0.120697
0.750122 0.510193 0.130432
0.819519 0.516418 0.139313
0.889587 0.522888 0.145721
0.934631 0.536713 0.193512
0.972290 0.552155 0.240295
1.000000 0.563080 0.272461
0.036438 0.547272 0.070953
0.067993 0.546356 0.067566
0.105743 0.545502 0.067810
0.156891 0.545624 0.068420
0.219513 0.546753 0.070862
0.331726 0.549347 0.073792
0.422058 0.553192 0.078552
0.512360 0.558929 0.086853
0.606415 0.567017 0.097931
0.673767 0.576630 0.109894
0.741211 0.584351 0.119354
0.809814 0.590057 0.127625
0.879211 0.594086 0.133362
0.933838 0.600616 0.169769
0.972290 0.609924 0.224701
1.000000 0.616852 0.260956
0.036438 0.618225 0.070251
0.067505 0.617584 0.066956
0.104431 0.616852 0.066956
0.155182 0.616730 0.067352
0.215790 0.617126 0.069427
0.326385 0.618652 0.071899
0.416901 0.620819 0.075745
0.506531 0.624176 0.082001
0.599579 0.628418 0.090149
0.665466 0.633850 0.099945
0.733490 0.639984 0.110260
0.801849 0.644836 0.118652
0.870697 0.649017 0.123718
0.932983 0.653076 0.147217
0.972290 0.660706 0.213562
1.000000 0.666626 0.254852
0.036438 0.678955 0.069580
0.067047 0.678436 0.066254
0.103210 0.677582 0.066162
0.153564 0.677277 0.066406
0.211914 0.677490 0.068237
0.321960 0.678375 0.070282
0.412872 0.680542 0.073700
0.500946 0.683472 0.077789
0.593903 0.687469 0.085541
0.659912 0.691833 0.093628
0.725922 0.696777 0.101501
0.794922 0.702423 0.110718
0.863922 0.706818 0.116058
0.932190 0.709961 0.124756
0.971924 0.715149 0.205872
1.000000 0.719513 0.254425
0.036438 0.741974 0.068665
0.066223 0.741364 0.065369
0.101746 0.740356 0.065247
0.151886 0.739990 0.065338
0.210114 0.739990 0.066833
0.317505 0.740662 0.068665
0.409393 0.742126 0.071686
0.496460 0.745056 0.075226
0.588043 0.748718 0.080780
0.655945 0.753510 0.088867
0.721252 0.757813 0.095978
0.788300 0.762207 0.103088
0.857971 0.767334 0.109222
0.927612 0.770874 0.114014
0.971069 0.772644 0.202362
1.000000 0.775696 0.262177
0.036438 0.807190 0.068207
0.065887 0.806488 0.064911
0.100586 0.805359 0.064636
0.150330 0.804901 0.064636
0.208282 0.804749 0.066010
0.313690 0.805206 0.067535
0.405609 0.806488 0.070160
0.492310 0.808716 0.073334
0.582947 0.812012 0.077515
0.652161 0.816742 0.084686
0.717621 0.821991 0.092407
0.784698 0.826324 0.099304
0.852295 0.830383 0.103668
0.922821 0.834564 0.109222
0.970245 0.833191 0.207520
1.000000 0.834381 0.283173
0.036438 0.858948 0.066925
0.065063 0.859039 0.063690
0.099213 0.858612 0.063446
0.148743 0.858887 0.063385
0.206512 0.859375 0.064545
0.310089 0.860504 0.065948
0.402710 0.862396 0.068298
0.488403 0.865326 0.071198
0.578217 0.869415 0.074860
0.648468 0.874390 0.079865
0.713593 0.880371 0.087250
0.781097 0.886749 0.094727
0.849518 0.891998 0.099640
0.918884 0.896515 0.104065
0.969391 0.892365 0.222076
1.000000 0.891724 0.322052
0.036438 0.903717 0.066650
0.064880 0.903809 0.063446
0.097900 0.903381 0.063171
0.147125 0.903534 0.063019
0.204865 0.904114 0.064178
0.306824 0.905060 0.065430
0.400024 0.906830 0.067535
0.485321 0.909424 0.070129
0.574554 0.913452 0.073578
0.645660 0.918182 0.077667
0.710480 0.924164 0.084473
0.777924 0.930756 0.092133
0.846832 0.936737 0.097748
0.916138 0.941681 0.102509
0.968567 0.933350 0.242462
1.000000 0.930756 0.368958
0.036438 0.949707 0.065186
0.063812 0.949768 0.062103
0.096497 0.949188 0.061676
0.145813 0.949341 0.061432
0.203400 0.949829 0.062592
0.303864 0.950775 0.063568
0.397369 0.952332 0.065704
0.482422 0.954773 0.068024
0.571167 0.958557 0.071167
0.643005 0.963074 0.074921
0.707489 0.968994 0.079681
0.775696 0.971436 0.105377
0.843628 0.971436 0.153107
0.908051 0.971436 0.217621
0.966125 0.971436 0.295868
1.000000 0.967712 0.440033
0.036438 0.996521 0.065186
0.063812 0.996429 0.062103
0.095123 0.995911 0.061676
0.144012 0.996002 0.061432
0.201569 0.996368 0.062439
0.300293 0.997284 0.063354
0.394623 0.998749 0.065247
0.480408 1.000000 0.069092
0.572388 1.000000 0.078491
0.645905 1.000000 0.100403
0.711884 1.000000 0.132172
0.778992 1.000000 0.177643
0.845032 1.000000 0.240448
0.906952 1.000000 0.326904
0.962067 1.000000 0.440308
1.000000 1.000000 0.519836
0.036438 0.024750 0.095398
0.082825 0.030090 0.185577
0.136749 0.037994 0.203827
0.203827 0.046173 0.224548
0.329865 0.054688 0.246490
0.432922 0.062592 0.267822
0.533661 0.069946 0.288025
0.625061 0.076996 0.307617
0.695496 0.083801 0.325745
0.767609 0.090240 0.342926
0.822876 0.102356 0.362427
0.861267 0.120758 0.387085
0.900452 0.146179 0.411835
0.939880 0.176788 0.437256
0.972290 0.201111 0.453613
1.000000 0.221313 0.464264
0.036438 0.056152 0.145752
0.071106 0.057770 0.162628
0.123474 0.066589 0.179993
0.188934 0.075348 0.199890
0.299713 0.084259 0.220215
0.409943 0.092194 0.240295
0.509064 0.099915 0.259064
0.607666 0.106964 0.277557
0.677002 0.113800 0.294464
0.747955 0.120270 0.310547
0.820190 0.126465 0.325195
0.860413 0.153900 0.351837
0.899414 0.185059 0.379333
0.939087 0.216827 0.407867
0.972290 0.242371 0.431213
1.000000 0.263641 0.448822
0.036438 0.097656 0.152863
0.070679 0.099792 0.158630
0.113129 0.101227 0.161194
0.175903 0.109955 0.178467
0.274567 0.119110 0.197601
0.389801 0.127380 0.216217
0.487335 0.139038 0.234009
0.587585 0.151123 0.251099
0.660645 0.162231 0.267242
0.731018 0.173401 0.282867
0.802582 0.183685 0.297058
0.859619 0.203613 0.319550
0.898407 0.235474 0.351105
0.938232 0.267029 0.382416
0.972290 0.293152 0.408356
1.000000 0.313751 0.428650
0.036438 0.162506 0.154846
0.068512 0.165497 0.154297
0.110413 0.167084 0.155609
0.164764 0.171326 0.160889
0.250885 0.186157 0.177490
0.371704 0.201508 0.195496
0.467651 0.215057 0.212189
0.566650 0.228027 0.228302
0.645752 0.239807 0.243439
0.715027 0.251373 0.257935
0.785553 0.261993 0.271088
0.857697 0.272186 0.282990
0.897614 0.302979 0.318481
0.937134 0.334290 0.353546
0.972290 0.361206 0.382965
1.000000 0.381683 0.405090
0.036438 0.261627 0.154297
0.067780 0.263702 0.150146
0.107666 0.264160 0.150146
0.160583 0.266785 0.153381
0.231873 0.272675 0.160889
0.355194 0.287659 0.176483
0.451202 0.303406 0.193176
0.548798 0.317047 0.208344
0.632599 0.329437 0.222290
0.700867 0.341248 0.235626
0.770325 0.352203 0.247650
0.841431 0.362579 0.258514
0.896790 0.383087 0.284454
0.936188 0.412079 0.324493
0.972290 0.429596 0.357971
1.000000 0.442993 0.382385
0.036438 0.369812 0.152893
0.066895 0.371979 0.147461
0.106232 0.371735 0.146698
0.158173 0.373138 0.149200
0.223999 0.376923 0.154053
0.340637 0.383759 0.162140
0.435669 0.398560 0.176270
0.533112 0.412537 0.191742
0.621918 0.421326 0.205322
0.689178 0.428925 0.217407
0.757782 0.436279 0.228424
0.827911 0.443115 0.238190
0.895905 0.451019 0.249969
0.935364 0.469757 0.296600
0.972290 0.486511 0.335571
1.000000 0.499329 0.362579
0.036438 0.460205 0.150970
0.066528 0.461731 0.144470
0.104584 0.461273 0.143585
0.155975 0.461670 0.145050
0.218689 0.463318 0.148743
0.332123 0.466248 0.154755
0.423920 0.471649 0.163025
0.518890 0.480804 0.175995
0.612579 0.490936 0.189880
0.679108 0.499115 0.201721
0.746826 0.506012 0.211975
0.816101 0.512604 0.220917
0.886505 0.519073 0.227753
0.934509 0.532715 0.269470
0.972290 0.548950 0.315369
1.000000 0.560333 0.345520
0.036438 0.540741 0.149109
0.065826 0.542267 0.142090
0.103363 0.541443 0.140594
0.154236 0.541595 0.141907
0.214508 0.542603 0.144592
0.325958 0.544891 0.149475
0.417969 0.549225 0.156097
0.508209 0.554596 0.164551
0.603607 0.563019 0.175964
0.670532 0.572693 0.188599
0.737946 0.580322 0.198547
0.806519 0.586548 0.206848
0.876160 0.591339 0.212891
0.933655 0.597748 0.242981
0.972290 0.607635 0.297913
1.000000 0.614807 0.332703
0.036438 0.613525 0.146423
0.065399 0.614624 0.139008
0.101929 0.613922 0.137695
0.152344 0.613800 0.138306
0.211090 0.614227 0.140411
0.321075 0.615448 0.144501
0.413086 0.617737 0.150116
0.502472 0.621399 0.157532
0.595398 0.625336 0.165558
0.662323 0.630768 0.175659
0.730255 0.637115 0.186523
0.798523 0.642029 0.194641
0.867615 0.645905 0.200134
0.932861 0.650146 0.216217
0.972290 0.658386 0.283600
1.000000 0.664612 0.323700
0.036438 0.674347 0.144348
0.064941 0.675446 0.136688
0.100769 0.674622 0.134918
0.150848 0.674347 0.135254
0.209106 0.674530 0.137115
0.316406 0.675507 0.140381
0.409088 0.677307 0.145111
0.496979 0.680603 0.151642
0.589325 0.684509 0.159210
0.657043 0.689026 0.167358
0.723114 0.693634 0.175415
0.792053 0.699554 0.184509
0.860596 0.703705 0.189911
0.930420 0.707062 0.194031
0.971771 0.712799 0.272827
1.000000 0.717621 0.320923
0.036438 0.737183 0.141449
0.064331 0.738312 0.133759
0.099487 0.737305 0.132019
0.149323 0.737000 0.132172
0.207214 0.737000 0.133392
0.312439 0.737640 0.136322
0.405212 0.739227 0.140167
0.492554 0.741760 0.145844
0.583984 0.745789 0.152649
0.653290 0.750275 0.160858
0.718445 0.754883 0.167908
0.785492 0.759003 0.174591
0.855011 0.764435 0.181000
0.924469 0.767731 0.184845
0.970947 0.770538 0.266327
1.000000 0.773926 0.326385
0.036438 0.801941 0.139099
0.064026 0.803009 0.131348
0.098206 0.801971 0.129333
0.147644 0.801483 0.129242
0.205414 0.801361 0.130402
0.308411 0.801819 0.132690
0.401947 0.803131 0.136169
0.488068 0.805695 0.140808
0.578583 0.808990 0.146881
0.649475 0.813721 0.154480
0.714874 0.818665 0.162018
0.781555 0.823425 0.168610
0.849487 0.827148 0.172974
0.919891 0.831696 0.177856
0.970032 0.831360 0.267273
1.000000 0.832855 0.344635
0.036438 0.853912 0.136322
0.063080 0.855774 0.128296
0.096924 0.855438 0.126434
0.146271 0.855621 0.126190
0.203857 0.856354 0.126953
0.305115 0.857758 0.128876
0.398956 0.859650 0.131775
0.484619 0.862427 0.136230
0.574341 0.866669 0.141418
0.645874 0.871582 0.148315
0.710907 0.877686 0.155396
0.778320 0.884064 0.162537
0.846680 0.889313 0.167572
0.915588 0.893890 0.171082
0.969208 0.891083 0.278259
1.000000 0.890869 0.381958
0.036438 0.898712 0.133667
0.062958 0.900635 0.125824
0.095734 0.900238 0.123718
0.144623 0.900421 0.123322
0.202118 0.900940 0.123932
0.301941 0.902283 0.125824
0.396118 0.904114 0.128265
0.481567 0.906708 0.132263
0.570831 0.910461 0.137207
0.643097 0.915405 0.143463
0.707916 0.921448 0.150146
0.775238 0.927734 0.157288
0.843719 0.934113 0.163025
0.913422 0.939117 0.167084
0.968353 0.932831 0.293915
1.000000 0.930176 0.426117
0.036438 0.944580 0.130707
0.061890 0.946411 0.122833
0.094208 0.945953 0.120728
0.143280 0.946136 0.120331
0.200653 0.946625 0.120789
0.298767 0.947632 0.122162
0.393677 0.949554 0.124603
0.478424 0.952057 0.127930
0.567017 0.955475 0.132416
0.640259 0.960358 0.138092
0.704529 0.965881 0.144470
0.772003 0.971436 0.156738
0.841278 0.971436 0.204254
0.906738 0.971436 0.268158
0.965485 0.971436 0.346222
1.000000 0.967499 0.478241
0.036438 0.991425 0.127930
0.061981 0.993225 0.120331
0.092987 0.992706 0.118103
0.141632 0.992828 0.117584
0.199097 0.993256 0.117859
0.295776 0.994171 0.119293
0.391266 0.996002 0.121185
0.475586 0.998291 0.124481
0.565521 1.000000 0.133026
0.642029 1.000000 0.154083
0.708466 1.000000 0.185425
0.776245 1.000000 0.230743
0.842682 1.000000 0.293579
0.905762 1.000000 0.380035
0.961700 1.000000 0.476898
1.000000 1.000000 0.554230
0.036438 0.024750 0.150330
0.080170 0.028442 0.287811
0.133820 0.036133 0.308655
0.200562 0.044342 0.331665
0.323517 0.052643 0.355927
0.428406 0.060516 0.378815
0.529022 0.067841 0.401062
0.621887 0.074860 0.421844
0.692108 0.081482 0.441772
0.763855 0.087891 0.455109
0.822754 0.099152 0.465485
0.861115 0.117889 0.476898
0.900238 0.142151 0.489380
0.939728 0.173431 0.502441
0.972290 0.198456 0.513397
1.000000 0.218781 0.522705
0.036438 0.054626 0.222778
0.068604 0.055542 0.262543
0.120728 0.064331 0.282043
0.185699 0.072968 0.304169
0.293945 0.081787 0.326813
0.405273 0.089691 0.348907
0.504578 0.097473 0.369476
0.604584 0.104492 0.389618
0.673767 0.111237 0.408081
0.744385 0.117554 0.425415
0.816437 0.123627 0.441376
0.860291 0.148071 0.455750
0.899109 0.180084 0.470001
0.938843 0.212585 0.484863
0.972290 0.238953 0.498138
1.000000 0.260681 0.508453
0.036438 0.094940 0.239441
0.068146 0.097260 0.257996
0.110626 0.098602 0.260681
0.172760 0.107330 0.280365
0.268524 0.116302 0.301819
0.385162 0.124603 0.322144
0.482849 0.134247 0.341827
0.582947 0.146210 0.360291
0.657379 0.157440 0.377960
0.727417 0.168365 0.394867
0.798859 0.178833 0.410645
0.859467 0.196869 0.429108
0.898285 0.229645 0.452454
0.938049 0.262085 0.469360
0.972290 0.289001 0.483795
1.000000 0.310394 0.495056
0.036438 0.156799 0.245972
0.066010 0.160461 0.252533
0.107758 0.162109 0.254425
0.161926 0.166229 0.259979
0.244995 0.181030 0.279022
0.367004 0.196259 0.298737
0.463287 0.209778 0.317261
0.561951 0.222534 0.334839
0.642517 0.234314 0.351563
0.711456 0.245758 0.367188
0.781769 0.256317 0.381714
0.854156 0.266724 0.394531
0.897461 0.296295 0.423218
0.936859 0.328674 0.451385
0.972290 0.356506 0.468262
1.000000 0.377808 0.480774
0.036438 0.254425 0.248199
0.065277 0.258331 0.248047
0.104980 0.258728 0.248047
0.157715 0.261108 0.251770
0.226074 0.267365 0.259918
0.350983 0.282013 0.277649
0.446411 0.297546 0.296021
0.543732 0.311127 0.312531
0.629395 0.323608 0.328033
0.697266 0.335144 0.342499
0.766937 0.346130 0.355865
0.837952 0.356354 0.367523
0.896606 0.375671 0.388611
0.935974 0.407227 0.424622
0.972290 0.426239 0.452271
1.000000 0.440155 0.466187
0.036438 0.361481 0.248413
0.064423 0.365814 0.244720
0.103516 0.365448 0.244080
0.155182 0.367310 0.246490
0.218170 0.370667 0.251892
0.334351 0.377808 0.260925
0.431305 0.392242 0.277008
0.528656 0.408051 0.294128
0.618683 0.416931 0.308868
0.685669 0.424896 0.322144
0.754089 0.432159 0.334381
0.824036 0.438660 0.344940
0.895325 0.445343 0.353638
0.935181 0.464874 0.395905
0.972290 0.483002 0.432739
1.000000 0.495789 0.453705
0.036438 0.454102 0.247345
0.064117 0.457214 0.241516
0.101959 0.456726 0.240509
0.152985 0.457184 0.242035
0.213257 0.459106 0.245880
0.325867 0.462128 0.252441
0.419525 0.467102 0.261993
0.514252 0.476196 0.276428
0.609161 0.486298 0.291962
0.675812 0.494415 0.304718
0.743439 0.501678 0.316101
0.812561 0.508423 0.325775
0.882965 0.514404 0.333527
0.934326 0.527985 0.367676
0.972290 0.544678 0.411438
