Color Lookup Presets Effects/z1 (94).CUBE
#Created by: Adobe Photoshop Export Color Lookup Plugin
#Copyright: (C) Copyright 2014 www.zafizack.com
TITLE "Devinda"
#LUT size
LUT_3D_SIZE 16
#data domain
DOMAIN_MIN 0.0 0.0 0.0
DOMAIN_MAX 1.0 1.0 1.0
#LUT data points
0.040955 0.016632 0.082062
0.110260 0.041809 0.086945
0.210175 0.062744 0.083618
0.314209 0.085205 0.072174
0.423401 0.110779 0.055542
0.533905 0.138184 0.028046
0.632202 0.165924 0.000000
0.734467 0.195007 0.000000
0.818817 0.227661 0.000000
0.883667 0.262970 0.000000
0.933929 0.302032 0.000000
0.973083 0.341919 0.000000
0.996063 0.381775 0.000000
0.996063 0.422028 0.000000
0.996063 0.443542 0.000000
0.996063 0.443542 0.000000
0.034180 0.042542 0.082123
0.087311 0.056610 0.093384
0.178467 0.083130 0.092987
0.278778 0.107513 0.085541
0.384674 0.133331 0.073975
0.491791 0.159576 0.056732
0.594391 0.187378 0.031860
0.700653 0.215485 0.000000
0.789185 0.246826 0.000000
0.862335 0.280243 0.000000
0.919037 0.315796 0.000000
0.963257 0.353241 0.000000
0.996063 0.391510 0.000000
0.996063 0.432281 0.000000
0.996063 0.452759 0.000000
0.996063 0.452118 0.000000
0.023834 0.080383 0.101196
0.062195 0.083801 0.102600
0.138885 0.111694 0.105713
0.238129 0.139893 0.103180
0.348663 0.165710 0.094238
0.460907 0.192047 0.082306
0.572144 0.218323 0.064728
0.688049 0.246490 0.036072
0.784271 0.276367 0.000000
0.859161 0.307861 0.000000
0.916809 0.342621 0.000000
0.961670 0.378723 0.000000
0.996063 0.416443 0.000000
0.996063 0.452942 0.000000
0.996063 0.472656 0.000000
0.996063 0.472656 0.000000
0.008972 0.130310 0.126801
0.043976 0.131592 0.127411
0.091034 0.139832 0.125519
0.186554 0.171265 0.127716
0.296051 0.199799 0.130371
0.408112 0.226318 0.125702
0.523163 0.251801 0.118042
0.648071 0.278595 0.106903
0.752441 0.306854 0.095703
0.835510 0.336548 0.086487
0.900635 0.368683 0.083069
0.951141 0.403442 0.088135
0.990967 0.438660 0.100983
0.996063 0.472931 0.121399
0.996063 0.490417 0.134399
0.996063 0.489899 0.133545
0.000000 0.191956 0.160461
0.013092 0.191315 0.159760
0.054199 0.193237 0.160034
0.127869 0.209839 0.154358
0.248932 0.242584 0.156006
0.359833 0.269653 0.168945
0.477142 0.296082 0.168304
0.611176 0.321472 0.163849
0.723816 0.347992 0.160858
0.815277 0.377502 0.161285
0.886902 0.408264 0.165039
0.942139 0.440979 0.174377
0.985718 0.472107 0.187500
0.996063 0.502747 0.206543
0.996063 0.518768 0.218018
0.996063 0.519348 0.218658
0.000000 0.268188 0.204803
0.000000 0.266541 0.203186
0.003082 0.265442 0.201630
0.075775 0.266907 0.200043
0.185181 0.292542 0.192932
0.316620 0.324677 0.201080
0.434814 0.350830 0.220398
0.576477 0.376892 0.223602
0.698273 0.403503 0.226379
0.796997 0.431000 0.231049
0.874573 0.459900 0.239319
0.933990 0.488373 0.251190
0.980804 0.516052 0.267181
0.996063 0.543427 0.287140
0.996063 0.557007 0.298431
0.996063 0.557007 0.298431
0.000000 0.358185 0.259064
0.000000 0.356384 0.257507
0.000000 0.355133 0.255920
0.019348 0.354156 0.253174
0.131958 0.358337 0.249359
0.256470 0.388611 0.251312
0.394775 0.419342 0.263580
0.543274 0.443909 0.287445
0.674072 0.471130 0.297028
0.780853 0.497589 0.307037
0.863770 0.522461 0.318970
0.926697 0.546112 0.333679
0.976166 0.569611 0.351990
0.996063 0.593140 0.373474
0.996063 0.605164 0.385529
0.996063 0.605164 0.385529
0.000000 0.459625 0.331604
0.000000 0.458679 0.330566
0.000000 0.457397 0.329163
0.000000 0.455322 0.326294
0.080231 0.453827 0.321442
0.195984 0.455597 0.330261
0.326721 0.485840 0.336700
0.495728 0.512665 0.349762
0.633942 0.533020 0.379547
0.751129 0.556122 0.395844
0.844055 0.577942 0.412201
0.914185 0.598358 0.429626
0.968750 0.617371 0.447083
0.996063 0.637360 0.466644
0.996063 0.647583 0.477173
0.996063 0.647949 0.477631
0.000000 0.565094 0.420502
0.000000 0.561432 0.440887
0.000000 0.567902 0.430145
0.000000 0.569611 0.413147
0.042267 0.558868 0.409241
0.187592 0.554138 0.404022
0.296326 0.554779 0.429901
0.457153 0.586426 0.438354
0.596130 0.602295 0.470856
0.709686 0.613373 0.514221
0.819763 0.633972 0.508942
0.899231 0.651855 0.522675
0.960022 0.668182 0.538757
0.996063 0.684540 0.555603
0.996063 0.693420 0.565155
0.996063 0.693146 0.564758
0.000000 0.662109 0.514099
0.000000 0.660980 0.512695
0.000000 0.660553 0.512146
0.000000 0.659027 0.509644
0.000000 0.657227 0.505646
0.114807 0.656952 0.501648
0.248444 0.656647 0.496246
0.354340 0.645905 0.529724
0.524048 0.663666 0.541016
0.679962 0.677155 0.553528
0.792328 0.689789 0.583160
0.881622 0.704620 0.598511
0.949921 0.718292 0.613068
0.996063 0.731659 0.627899
0.996063 0.739075 0.636047
0.996063 0.738770 0.635803
0.000000 0.747131 0.605194
0.000000 0.752380 0.614075
0.000000 0.758789 0.624756
0.000000 0.764801 0.634247
0.000000 0.770142 0.640930
0.178436 0.774597 0.645081
0.318634 0.776794 0.644958
0.400879 0.765442 0.565186
0.493591 0.754059 0.606140
0.646515 0.758270 0.606750
0.774200 0.761993 0.609924
0.864014 0.764771 0.629883
0.937775 0.768677 0.631622
0.996063 0.772797 0.633698
0.996063 0.773590 0.632172
0.996063 0.773590 0.632172
0.000000 0.820221 0.684967
0.000000 0.819794 0.684265
0.000000 0.819427 0.683807
0.000000 0.818451 0.682037
0.000000 0.817413 0.679626
0.049774 0.816650 0.676636
0.236481 0.815796 0.672821
0.320648 0.805725 0.591522
0.410339 0.793701 0.534912
0.520538 0.783630 0.576599
0.689301 0.787872 0.580414
0.825897 0.794128 0.592072
0.918549 0.803070 0.627686
0.990997 0.811340 0.640350
0.996063 0.815460 0.647034
0.996063 0.815460 0.647034
0.000000 0.880920 0.752075
0.000000 0.880707 0.751801
0.000000 0.880432 0.751465
0.000000 0.879944 0.750366
0.000000 0.879181 0.748566
0.000000 0.878296 0.745880
0.231598 0.877472 0.742706
0.320313 0.871002 0.683105
0.416321 0.863617 0.604523
0.517181 0.855225 0.587311
0.631287 0.846588 0.623688
0.785461 0.847321 0.625397
0.902069 0.850555 0.638306
0.983551 0.858154 0.671112
0.996063 0.861664 0.677979
0.996063 0.861664 0.677979
0.000000 0.933624 0.809326
0.000000 0.933502 0.809143
0.000000 0.933197 0.808716
0.000000 0.932739 0.807831
0.000000 0.932251 0.806427
0.000000 0.931641 0.804596
0.232208 0.930847 0.802094
0.323639 0.926910 0.759644
0.419037 0.922272 0.704590
0.526428 0.917236 0.641968
0.636139 0.911377 0.651825
0.751984 0.904785 0.678375
0.879395 0.902954 0.681000
0.975769 0.905304 0.701691
0.996063 0.908813 0.717010
0.996063 0.908813 0.717010
0.000000 0.979980 0.856873
0.000000 0.979858 0.856842
0.000000 0.979675 0.856598
0.000000 0.979431 0.855988
0.000000 0.978943 0.854919
0.000000 0.978394 0.853394
0.234833 0.977631 0.851410
0.327728 0.975555 0.822083
0.422363 0.973114 0.784973
0.529419 0.970306 0.743744
0.645691 0.967010 0.701965
0.757782 0.963074 0.722473
0.865173 0.958405 0.738739
0.966705 0.955994 0.744995
0.996063 0.955841 0.752777
0.996063 0.955841 0.752777
0.000000 0.996063 0.898071
0.000000 0.996063 0.898071
0.000000 0.996063 0.897949
0.000000 0.996063 0.897461
0.000000 0.996063 0.896667
0.000000 0.996063 0.895447
0.244141 0.996063 0.893829
0.335114 0.996063 0.873962
0.427948 0.996063 0.849915
0.534210 0.996063 0.824371
0.650177 0.996063 0.797699
0.766663 0.996063 0.782715
0.868866 0.996063 0.793854
0.961029 0.996063 0.802368
0.996063 0.996063 0.806549
0.996063 0.996063 0.806549
0.041351 0.017120 0.082367
0.110260 0.041809 0.086945
0.210175 0.062744 0.083618
0.314209 0.085205 0.072174
0.422913 0.110168 0.055176
0.533020 0.136841 0.027008
0.632202 0.165924 0.000000
0.734467 0.195007 0.000000
0.818817 0.227661 0.000000
0.883667 0.262970 0.000000
0.933868 0.301331 0.000000
0.973053 0.340546 0.000000
0.996063 0.379700 0.000000
0.996063 0.422028 0.000000
0.996063 0.442932 0.000000
0.996063 0.444244 0.000000
0.033234 0.041992 0.089905
0.086884 0.057098 0.093597
0.177460 0.083282 0.092712
0.280212 0.108093 0.084961
0.389008 0.133026 0.071838
0.500092 0.158844 0.052063
0.605377 0.186523 0.022064
0.713898 0.215881 0.000000
0.803436 0.247162 0.000000
0.872650 0.280945 0.000000
0.926056 0.315613 0.000000
0.967896 0.353943 0.000000
0.996063 0.391724 0.000000
0.996063 0.433197 0.000000
0.996063 0.453644 0.000000
0.996063 0.453644 0.000000
0.023682 0.078918 0.114197
0.059265 0.081696 0.115753
0.126892 0.103119 0.113190
0.222198 0.131653 0.114594
0.330383 0.156647 0.108612
0.439331 0.181793 0.100006
0.550049 0.207825 0.088562
0.666809 0.234558 0.070190
0.764374 0.263763 0.049133
0.842682 0.294922 0.026550
0.905548 0.328278 0.008606
0.954559 0.363739 0.004120
0.993195 0.400055 0.015045
0.996063 0.438080 0.043121
0.996063 0.458008 0.062775
0.996063 0.457489 0.061462
0.009613 0.128845 0.145447
0.042236 0.129578 0.145782
0.082916 0.130890 0.135437
0.172058 0.161224 0.140442
0.279297 0.189880 0.143555
0.388672 0.215912 0.141479
0.500946 0.240784 0.137146
0.627014 0.266724 0.129456
0.732300 0.293640 0.122162
0.818878 0.323059 0.117523
0.889343 0.353760 0.115387
0.944122 0.387817 0.120850
0.987274 0.423004 0.131927
0.996063 0.457245 0.148804
0.996063 0.475098 0.160492
0.996063 0.475677 0.161133
0.000000 0.189148 0.185211
0.013489 0.188812 0.184387
0.050629 0.189270 0.184113
0.118530 0.199341 0.167908
0.233215 0.230591 0.170837
0.342255 0.258179 0.183716
0.456421 0.284393 0.185242
0.590424 0.309021 0.182892
0.704407 0.335388 0.182343
0.798615 0.363495 0.183960
0.875885 0.392792 0.187592
0.935303 0.425201 0.196625
0.982147 0.457367 0.209717
0.996063 0.488586 0.227325
0.996063 0.504730 0.238464
0.996063 0.504730 0.238464
0.000000 0.262665 0.235291
0.000000 0.262146 0.234009
0.000977 0.261169 0.232635
0.070313 0.261871 0.231567
0.173676 0.280853 0.211273
0.300232 0.311371 0.217346
0.414215 0.336609 0.237366
0.555511 0.362732 0.240967
0.678741 0.389221 0.245300
0.780273 0.415924 0.250977
0.863708 0.444702 0.259003
0.927338 0.473297 0.270477
0.977356 0.501404 0.285919
0.996063 0.528900 0.304779
0.996063 0.542603 0.315552
0.996063 0.543640 0.316650
0.000000 0.350159 0.295746
0.000000 0.348755 0.294067
0.000000 0.347748 0.292572
0.012909 0.347015 0.290314
0.122894 0.348633 0.283691
0.243469 0.374969 0.272125
0.376068 0.403595 0.281158
0.522552 0.428986 0.306793
0.654144 0.454865 0.314697
0.763916 0.481720 0.324799
0.852753 0.507568 0.337097
0.920074 0.531342 0.351471
0.972809 0.555328 0.369171
0.996063 0.578796 0.389404
0.996063 0.590698 0.400299
0.996063 0.591064 0.400787
0.000000 0.454651 0.366119
0.000000 0.453705 0.364899
0.000000 0.452393 0.363464
0.000000 0.450439 0.360382
0.076508 0.449585 0.356598
0.191772 0.452911 0.343140
0.324158 0.484497 0.352142
0.492523 0.510529 0.363007
0.631439 0.531250 0.393219
0.748871 0.555298 0.409302
0.842285 0.576202 0.424713
0.913086 0.596680 0.441559
0.968231 0.616669 0.459229
0.996063 0.635895 0.477081
0.996063 0.646515 0.487701
0.996063 0.646912 0.488068
0.000000 0.562592 0.474884
0.000000 0.571136 0.456848
0.000000 0.559326 0.451599
0.000000 0.547760 0.450195
0.048523 0.552612 0.444366
0.187317 0.554718 0.438141
0.302979 0.554932 0.445251
0.471283 0.573090 0.459930
0.624969 0.597595 0.468597
0.733459 0.627411 0.507721
0.822998 0.639679 0.541656
0.902832 0.658844 0.534119
0.961792 0.674652 0.549133
0.996063 0.690796 0.565277
0.996063 0.699646 0.574524
0.996063 0.699646 0.574524
0.000000 0.662567 0.547089
0.000000 0.661346 0.545563
0.000000 0.660553 0.544739
0.000000 0.659027 0.542145
0.000000 0.657227 0.538452
0.113617 0.656097 0.533997
0.247894 0.656311 0.529755
0.353210 0.646606 0.515137
0.525635 0.662994 0.523285
0.682404 0.677307 0.537140
0.794250 0.689941 0.568329
0.882843 0.704681 0.583008
0.950531 0.718048 0.597137
0.996063 0.731598 0.611847
0.996063 0.738617 0.619507
0.996063 0.738922 0.619873
0.000000 0.747131 0.633850
0.000000 0.747620 0.634827
0.000000 0.752625 0.642548
0.000000 0.757355 0.649445
0.000000 0.761841 0.654907
0.150909 0.765381 0.657837
0.294800 0.767303 0.657959
0.375824 0.755249 0.572144
0.475677 0.744141 0.585052
0.634064 0.748718 0.584747
0.767761 0.753845 0.588959
0.861206 0.757996 0.611237
0.937042 0.763275 0.614288
0.996063 0.768829 0.618195
0.996063 0.773682 0.623718
0.996063 0.773682 0.623718
0.000000 0.820221 0.709625
0.000000 0.819794 0.708893
0.000000 0.819427 0.708466
0.000000 0.818451 0.706757
0.000000 0.817413 0.704315
0.049774 0.816650 0.701721
0.236481 0.815796 0.698273
0.321198 0.805908 0.625214
0.413910 0.794037 0.538483
0.524078 0.784210 0.578461
0.691498 0.788208 0.581360
0.827026 0.794403 0.592560
0.919128 0.803192 0.627228
0.991211 0.811401 0.639618
0.996063 0.815887 0.646606
0.996063 0.815887 0.646606
0.000000 0.880920 0.772858
0.000000 0.880707 0.772583
0.000000 0.880432 0.772156
0.000000 0.879944 0.771088
0.000000 0.879181 0.769318
0.000000 0.878296 0.766937
0.231598 0.877472 0.764038
0.320313 0.871002 0.710693
0.416321 0.863617 0.640686
0.520294 0.855408 0.597809
0.633270 0.846680 0.631531
0.786774 0.847504 0.633057
0.902588 0.850677 0.645905
0.983704 0.858551 0.677368
0.996063 0.861969 0.683777
0.996063 0.861969 0.683777
0.000000 0.933624 0.826691
0.000000 0.933502 0.826508
0.000000 0.933197 0.826141
0.000000 0.932831 0.825287
0.000000 0.932251 0.824005
0.000000 0.931641 0.822296
0.232208 0.930847 0.819977
0.323639 0.926910 0.782288
0.419037 0.922272 0.733734
0.526428 0.917236 0.678650
0.638306 0.911499 0.667206
0.753540 0.904846 0.691589
0.880157 0.903107 0.693756
0.975830 0.905548 0.713989
0.996063 0.909363 0.728851
0.996063 0.909271 0.728638
0.000000 0.979980 0.871552
0.000000 0.979858 0.871552
0.000000 0.979675 0.871216
0.000000 0.979431 0.870728
0.000000 0.978943 0.869659
0.000000 0.978394 0.868317
0.234833 0.977631 0.866455
0.327728 0.975555 0.840485
0.422363 0.973114 0.808197
0.529419 0.970306 0.772522
0.645782 0.966980 0.733887
0.759827 0.963043 0.740936
0.866058 0.958405 0.755127
0.966888 0.956085 0.760834
0.996063 0.956116 0.768738
0.996063 0.956116 0.768738
0.000000 0.996063 0.910919
0.000000 0.996063 0.910919
0.000000 0.996063 0.910614
0.000000 0.996063 0.910217
0.000000 0.996063 0.909454
0.000000 0.996063 0.908386
0.244141 0.996063 0.906860
0.335114 0.996063 0.889526
0.428558 0.996063 0.868805
0.534210 0.996063 0.846680
0.650177 0.996063 0.824036
0.768005 0.996063 0.802734
0.870209 0.996063 0.813232
0.961456 0.996063 0.820099
0.996063 0.996063 0.823639
0.996063 0.996063 0.823547
0.040619 0.016205 0.081665
0.110687 0.042236 0.087372
0.210175 0.062744 0.083618
0.313751 0.084625 0.071899
0.422394 0.109558 0.054779
0.533020 0.136841 0.027008
0.631897 0.165192 0.000000
0.734467 0.195007 0.000000
0.818817 0.227661 0.000000
0.883667 0.262970 0.000000
0.933777 0.299896 0.000000
0.973022 0.339813 0.000000
0.996063 0.380402 0.000000
0.996063 0.421326 0.000000
0.996063 0.443542 0.000000
0.996063 0.443542 0.000000
0.032501 0.040497 0.101257
0.076874 0.049011 0.098938
0.162109 0.075378 0.101135
0.260803 0.099182 0.096497
0.367737 0.124023 0.087769
0.475372 0.149048 0.074402
0.581268 0.176483 0.056885
0.690277 0.203583 0.024261
0.781494 0.234131 0.000000
0.854279 0.266998 0.000000
0.913574 0.301239 0.000000
0.959778 0.337555 0.000000
0.996063 0.376282 0.000000
0.996063 0.417084 0.000000
0.996063 0.438080 0.000000
0.996063 0.437317 0.000000
0.024017 0.079071 0.129486
0.056030 0.078583 0.130005
0.116272 0.093018 0.120636
0.206970 0.123596 0.124634
0.312134 0.147522 0.121307
0.418732 0.172363 0.115997
0.527588 0.197815 0.108521
0.645233 0.223511 0.095795
0.743866 0.251190 0.082886
0.825317 0.281036 0.070404
0.894135 0.314148 0.061340
0.947235 0.348816 0.060455
0.989410 0.385406 0.070099
0.996063 0.423340 0.088470
0.996063 0.443207 0.101624
0.996063 0.443207 0.101624
0.009796 0.127625 0.166321
0.039978 0.127441 0.165619
0.076477 0.126617 0.153229
0.158417 0.150391 0.149567
0.262817 0.179779 0.155060
0.369446 0.205566 0.155518
0.479401 0.230621 0.153687
0.605255 0.254272 0.147858
0.712402 0.281616 0.144318
0.801941 0.310272 0.142151
0.878265 0.340668 0.142059
0.937073 0.372589 0.146271
0.983612 0.407410 0.156769
0.996063 0.443298 0.173431
0.996063 0.460907 0.183411
0.996063 0.460907 0.183411
0.000000 0.185730 0.211670
0.012054 0.186066 0.210968
0.045227 0.185455 0.209839
0.108551 0.187225 0.178772
0.218170 0.218536 0.184631
0.325256 0.247040 0.196930
0.435913 0.272461 0.200073
0.569580 0.297058 0.200104
0.684326 0.321960 0.200562
0.781311 0.348633 0.203125
0.864777 0.378204 0.207916
0.928406 0.409332 0.216309
0.978638 0.441711 0.228638
0.996063 0.473480 0.245361
0.996063 0.489441 0.255371
0.996063 0.489441 0.255371
0.000000 0.257965 0.268066
0.000000 0.258575 0.267517
0.000000 0.258545 0.266724
0.066040 0.258911 0.265930
0.161835 0.268158 0.226746
0.283966 0.297882 0.232483
0.395966 0.323883 0.251740
0.534943 0.349731 0.257111
0.658600 0.374146 0.261627
0.763519 0.402161 0.269043
0.852631 0.429565 0.276611
0.920685 0.458923 0.288361
0.973938 0.486145 0.302032
0.996063 0.514587 0.320984
0.996063 0.528656 0.331451
0.996063 0.529602 0.332428
0.000000 0.344147 0.334869
0.000000 0.343353 0.333527
0.000000 0.342926 0.332397
0.008667 0.342773 0.330750
0.117523 0.343719 0.324707
0.230927 0.361664 0.291138
0.358704 0.389008 0.298340
0.502411 0.414093 0.322174
0.634552 0.439514 0.331024
0.746582 0.465912 0.341034
0.841583 0.492035 0.353119
0.913391 0.516663 0.367371
0.969421 0.539917 0.383911
0.996063 0.564911 0.404266
0.996063 0.577454 0.415009
0.996063 0.576965 0.414612
0.000000 0.446045 0.409882
0.000000 0.444580 0.408203
0.000000 0.445038 0.407776
0.000000 0.443176 0.404877
0.070709 0.442810 0.402191
0.185120 0.443420 0.380646
0.310608 0.470428 0.373047
0.471924 0.494568 0.380524
0.612122 0.516785 0.409149
0.731384 0.540222 0.423615
0.831238 0.562653 0.439728
0.906555 0.583862 0.456116
0.964966 0.603668 0.472595
0.996063 0.623352 0.489746
0.996063 0.633850 0.499420
0.996063 0.634674 0.500214
0.000000 0.562744 0.506195
0.000000 0.553345 0.494476
0.000000 0.547546 0.494629
0.000000 0.561646 0.489380
0.010834 0.562622 0.488373
0.164642 0.560852 0.488098
0.285370 0.565399 0.462219
0.461243 0.587708 0.471252
0.617432 0.587433 0.486389
0.732391 0.612427 0.515594
0.823700 0.640228 0.543365
0.898346 0.653229 0.559753
0.960266 0.670685 0.560242
0.996063 0.687378 0.576111
0.996063 0.695557 0.584045
0.996063 0.695862 0.584381
0.000000 0.662567 0.578339
0.000000 0.661346 0.576904
0.000000 0.661011 0.576233
0.000000 0.659027 0.573364
0.000000 0.657227 0.569733
0.113617 0.656097 0.565796
0.248444 0.656647 0.562683
0.352600 0.647614 0.503998
0.529144 0.663208 0.510559
0.684753 0.677155 0.523682
0.796021 0.689941 0.555939
0.884003 0.704681 0.570343
0.951111 0.718048 0.583832
0.996063 0.731171 0.597870
0.996063 0.738129 0.605438
0.996063 0.738129 0.605438
0.000000 0.747467 0.661438
0.000000 0.746796 0.660553
0.000000 0.747620 0.661438
0.000000 0.750580 0.665497
0.000000 0.753479 0.668579
0.124146 0.755951 0.670410
0.272278 0.757568 0.670013
0.354034 0.744904 0.588959
0.458649 0.733582 0.564423
0.623230 0.739655 0.564514
0.761749 0.745544 0.569427
0.858795 0.751526 0.594788
0.936462 0.758575 0.600159
0.996063 0.768036 0.610931
0.996063 0.773773 0.618225
0.996063 0.773773 0.618225
0.000000 0.820221 0.732819
0.000000 0.819763 0.732178
0.000000 0.819244 0.731445
0.000000 0.818634 0.730164
0.000000 0.817596 0.727966
0.048340 0.816498 0.725128
0.235901 0.815582 0.722015
0.321198 0.805908 0.656586
0.415558 0.794373 0.568817
0.527527 0.784760 0.583252
0.693726 0.788513 0.585449
0.828247 0.794800 0.596069
0.919678 0.803619 0.630035
0.991333 0.811951 0.642120
0.996063 0.816040 0.648285
0.996063 0.816193 0.648529
0.000000 0.881012 0.792572
0.000000 0.880981 0.792358
0.000000 0.880554 0.791748
0.000000 0.879944 0.790588
0.000000 0.879181 0.788971
0.000000 0.878540 0.786987
0.232361 0.877594 0.784393
0.320953 0.871124 0.736694
0.416321 0.863617 0.674316
0.523376 0.855560 0.610901
0.636047 0.847107 0.642548
0.788208 0.847748 0.643250
0.903107 0.851013 0.656342
0.983856 0.859009 0.685608
0.996063 0.862366 0.691986
0.996063 0.862366 0.691986
0.000000 0.933624 0.843079
0.000000 0.933380 0.842590
0.000000 0.933197 0.842438
0.000000 0.932831 0.841675
0.000000 0.932312 0.840515
0.000000 0.931641 0.838898
0.232208 0.930847 0.836792
0.323639 0.926910 0.803406
0.419037 0.922272 0.760803
0.526428 0.917236 0.712769
0.640930 0.911682 0.684540
0.755249 0.904968 0.706543
0.880768 0.903290 0.708252
0.975952 0.906036 0.728485
0.996063 0.909882 0.742004
0.996063 0.909973 0.742157
0.000000 0.980011 0.885712
0.000000 0.979858 0.885559
0.000000 0.979675 0.885315
0.000000 0.979431 0.884766
0.000000 0.979034 0.883972
0.000000 0.978394 0.882507
0.235657 0.977631 0.880920
0.327728 0.975555 0.858032
0.422363 0.973114 0.829865
0.529419 0.970306 0.799103
0.646027 0.966980 0.766174
0.761841 0.963104 0.760559
0.866913 0.958435 0.772675
0.966980 0.956177 0.777588
0.996063 0.956482 0.785950
0.996063 0.956482 0.786163
0.000000 0.996063 0.923096
0.000000 0.996063 0.923065
0.000000 0.996063 0.922943
0.000000 0.996063 0.922577
0.000000 0.996063 0.921814
0.000000 0.996063 0.920776
0.243256 0.996063 0.919312
0.335114 0.996063 0.904327
0.428558 0.996063 0.886383
0.534668 0.996063 0.867523
0.649933 0.996063 0.848114
0.768188 0.996063 0.829346
0.871704 0.996063 0.832794
0.961823 0.996063 0.838287
0.996063 0.996063 0.840942
0.996063 0.996063 0.840790
0.040131 0.015625 0.085907
0.105743 0.039856 0.089935
0.203186 0.059875 0.086914
0.305023 0.080261 0.076050
0.412903 0.105469 0.061310
0.522491 0.132416 0.037994
0.622131 0.161041 0.003876
0.724945 0.189880 0.000000
0.810059 0.222137 0.000000
0.876282 0.257324 0.000000
0.928711 0.294312 0.000000
0.969696 0.333130 0.000000
0.996063 0.373657 0.000000
0.996063 0.415375 0.000000
0.996063 0.436981 0.000000
0.996063 0.436981 0.000000
0.031982 0.039276 0.113892
0.070404 0.043518 0.106140
0.149963 0.068115 0.108612
0.243256 0.091492 0.106995
0.346619 0.114105 0.100159
0.452240 0.139618 0.091888
0.557281 0.166138 0.080139
0.667236 0.191589 0.059570
0.760101 0.221985 0.036499
0.836365 0.254120 0.009521
0.901367 0.287323 0.000000
0.952087 0.323547 0.000000
0.992188 0.361847 0.000000
0.996063 0.402435 0.000397
0.996063 0.423431 0.020050
0.996063 0.423431 0.020050
0.024323 0.079346 0.147369
0.053467 0.076782 0.147003
0.105591 0.084137 0.127319
0.193542 0.113861 0.132813
0.295410 0.138489 0.132629
0.398712 0.163666 0.130371
0.504669 0.187683 0.125214
0.623688 0.213104 0.116760
0.723206 0.239288 0.107788
0.807892 0.269135 0.101166
0.882385 0.300537 0.094940
0.940094 0.335693 0.096832
0.985504 0.370392 0.103333
0.996063 0.408417 0.118927
0.996063 0.429108 0.130524
0.996063 0.428436 0.129547
0.009369 0.125336 0.189056
0.038208 0.126190 0.188690
0.070923 0.123901 0.173676
0.146759 0.139648 0.158691
0.247894 0.169403 0.165100
0.351990 0.195160 0.167725
0.458527 0.220581 0.168640
0.584229 0.243439 0.164764
0.692017 0.269287 0.162903
0.784393 0.297180 0.162659
0.866882 0.326538 0.163025
0.930084 0.358490 0.167969
0.979980 0.392578 0.177979
0.996063 0.428192 0.193054
0.996063 0.445465 0.201813
0.996063 0.446777 0.203064
0.000000 0.182831 0.241058
0.010559 0.183319 0.240204
0.040680 0.183594 0.239655
0.100159 0.181152 0.200897
0.203064 0.205902 0.197418
0.309021 0.234863 0.208160
0.416687 0.260376 0.213501
0.548187 0.284515 0.215118
0.664154 0.309570 0.217468
0.763947 0.336029 0.221375
0.853180 0.363373 0.225525
0.921478 0.394409 0.234070
0.975067 0.426605 0.246094
0.996063 0.458282 0.261597
0.996063 0.475616 0.272339
0.996063 0.475067 0.271790
0.000000 0.253876 0.303162
0.000000 0.253510 0.301819
0.000000 0.253387 0.300873
0.060028 0.252563 0.299133
0.149902 0.254852 0.240143
0.267059 0.283447 0.246704
0.378235 0.309998 0.263763
0.514252 0.335327 0.270752
0.639130 0.360870 0.277252
0.746033 0.387238 0.284851
0.841522 0.415100 0.293243
0.913971 0.443848 0.304108
0.970490 0.471313 0.317261
0.996063 0.499756 0.335205
0.996063 0.514587 0.345917
0.996063 0.514587 0.345917
0.000000 0.337616 0.374481
0.000000 0.337128 0.373383
0.000000 0.336945 0.372314
0.004578 0.336731 0.370636
0.111603 0.337280 0.364777
0.216888 0.346497 0.306610
0.339844 0.372192 0.313141
0.482269 0.398560 0.335052
0.615662 0.424286 0.345184
0.729645 0.449921 0.355469
0.830536 0.477356 0.368195
0.906616 0.501495 0.381561
0.966125 0.526093 0.398376
0.996063 0.551025 0.417419
0.996063 0.563782 0.427704
0.996063 0.563324 0.427307
