Color Lookup Presets Effects/z1 (87).CUBE
#Created by: Adobe Photoshop Export Color Lookup Plugin
#Copyright: (C) Copyright 2015 www.zafizack.com
TITLE "zafizack-VG-13"
#LUT size
LUT_3D_SIZE 6
#data domain
DOMAIN_MIN 0.0 0.0 0.0
DOMAIN_MAX 1.0 1.0 1.0
#LUT data points
0.010712 0.000000 0.000000
0.220001 0.020844 0.015289
0.533356 0.074768 0.047363
0.785400 0.174286 0.095428
0.916931 0.229248 0.128326
1.000000 0.277344 0.164703
0.083923 0.099945 0.045807
0.362030 0.168152 0.044952
0.617737 0.229340 0.058502
0.811584 0.301727 0.077484
0.926208 0.351166 0.093689
1.000000 0.394012 0.123169
0.145233 0.227997 0.102844
0.457367 0.316376 0.105469
0.680298 0.364075 0.081696
0.838531 0.415314 0.081024
0.936951 0.452454 0.082306
1.000000 0.488342 0.087463
0.205353 0.395874 0.174896
0.530609 0.478760 0.160736
0.732269 0.484528 0.128326
0.870941 0.484680 0.087067
0.951660 0.511658 0.082672
1.000000 0.538269 0.078644
0.211273 0.630493 0.262756
0.437378 0.652527 0.249695
0.711548 0.699341 0.210388
0.868774 0.698944 0.168518
0.957581 0.679565 0.115753
1.000000 0.694672 0.101685
0.200287 0.888092 0.363678
0.365204 0.914459 0.350525
0.522827 0.936340 0.322296
0.679962 0.957794 0.278656
0.825714 0.978790 0.220276
0.956635 0.995331 0.135376
0.012268 0.000000 0.083588
0.270721 0.018768 0.144165
0.547028 0.067322 0.200134
0.790161 0.169128 0.263306
0.918701 0.223511 0.307190
1.000000 0.270996 0.353973
0.000000 0.105743 0.126831
0.153351 0.145691 0.151825
0.495728 0.217224 0.194611
0.765625 0.298981 0.241730
0.909119 0.346802 0.273224
1.000000 0.389648 0.307922
0.000000 0.254059 0.182831
0.170746 0.292755 0.212646
0.534271 0.388947 0.219421
0.770996 0.448547 0.242950
0.915375 0.494324 0.269958
1.000000 0.533386 0.301178
0.000000 0.403137 0.248871
0.198669 0.446564 0.278046
0.566284 0.533173 0.265991
0.798767 0.545532 0.236725
0.927399 0.579071 0.249268
1.000000 0.607819 0.266754
0.000000 0.605255 0.337952
0.179596 0.648987 0.355103
0.457214 0.681732 0.339264
0.767181 0.731934 0.298553
0.931854 0.729828 0.250153
1.000000 0.747650 0.248718
0.000000 0.835907 0.438324
0.118103 0.875031 0.448212
0.349640 0.911896 0.429504
0.564453 0.941833 0.388947
0.773254 0.971466 0.327667
0.951599 0.994751 0.248016
0.023865 0.000000 0.234711
0.305847 0.022949 0.312134
0.624725 0.087189 0.411285
0.795227 0.164337 0.458405
0.920441 0.218109 0.500275
1.000000 0.265076 0.548248
0.000000 0.097565 0.252533
0.166046 0.146088 0.299591
0.541107 0.222260 0.378601
0.776367 0.295410 0.426971
0.910736 0.344086 0.468842
1.000000 0.389160 0.511414
0.000000 0.296661 0.303802
0.005402 0.316132 0.335205
0.336670 0.396484 0.393646
0.687958 0.479156 0.441772
0.893616 0.525024 0.474579
1.000000 0.559998 0.504364
0.000000 0.428833 0.374878
0.008514 0.455200 0.403168
0.289764 0.527618 0.444458
0.695648 0.603210 0.422363
0.900482 0.645660 0.454712
1.000000 0.675476 0.484344
0.000000 0.603394 0.451660
0.000000 0.632568 0.458893
0.254913 0.695221 0.499390
0.607056 0.738281 0.466217
0.896790 0.777435 0.419464
1.000000 0.799835 0.436737
0.000000 0.809967 0.521515
0.000000 0.838593 0.537811
0.198914 0.887970 0.561584
0.473267 0.930267 0.519409
0.740631 0.966736 0.448853
0.966187 0.996399 0.364319
0.035034 0.000000 0.381775
0.338898 0.026855 0.459473
0.649658 0.097595 0.556366
0.798828 0.158844 0.615051
0.922150 0.212585 0.662628
1.000000 0.258972 0.695190
0.001587 0.096924 0.408234
0.180145 0.147400 0.452820
0.561493 0.236725 0.535034
0.781982 0.296143 0.595093
0.912170 0.343964 0.629059
1.000000 0.388794 0.666534
0.000000 0.279297 0.439392
0.012787 0.306458 0.482239
0.355591 0.398041 0.554871
0.720917 0.481842 0.613220
0.895355 0.523529 0.639709
1.000000 0.558014 0.667206
0.000000 0.456940 0.529633
0.000000 0.477386 0.558624
0.153503 0.535980 0.601501
0.551880 0.639038 0.650635
0.868591 0.709656 0.686218
1.000000 0.732697 0.699219
0.000000 0.603088 0.604797
0.000000 0.634827 0.629700
0.157959 0.697632 0.667511
0.458466 0.766571 0.696442
0.841705 0.813934 0.643219
1.000000 0.851410 0.670654
0.000000 0.785370 0.681702
0.000000 0.816559 0.697083
0.000000 0.861816 0.701782
0.406647 0.921234 0.737183
0.728058 0.964996 0.653229
0.996796 0.999664 0.555389
0.040894 0.000000 0.503906
0.368073 0.029968 0.584930
0.665955 0.104218 0.673004
0.798828 0.158722 0.718719
0.923798 0.207062 0.765167
1.000000 0.253204 0.798523
0.007568 0.095917 0.536713
0.189789 0.147614 0.577911
0.577667 0.251099 0.666687
0.780640 0.305176 0.714172
0.913574 0.343933 0.750458
1.000000 0.388550 0.782837
0.000000 0.276672 0.580872
0.014679 0.303772 0.615692
0.368591 0.398346 0.686310
0.732269 0.493835 0.750000
0.896637 0.525970 0.777100
1.000000 0.560150 0.800568
0.000000 0.451904 0.661743
0.000000 0.465546 0.679352
0.169037 0.531830 0.730743
0.563721 0.638916 0.786255
0.873047 0.706726 0.824188
1.000000 0.732727 0.838379
0.000000 0.609100 0.743835
0.000000 0.639374 0.767670
0.000000 0.686859 0.797028
0.369507 0.773193 0.843384
0.785736 0.857330 0.871399
1.000000 0.902466 0.892181
0.000000 0.761414 0.816071
0.000000 0.793060 0.836609
0.000000 0.848724 0.864868
0.377747 0.916473 0.894745
0.726837 0.964813 0.884033
1.000000 1.000000 0.845001
0.041870 0.000000 0.595673
0.371338 0.030365 0.673035
0.665833 0.104187 0.762482
0.798798 0.158569 0.809540
0.923798 0.206940 0.857117
1.000000 0.246704 0.893829
0.010437 0.095612 0.641235
0.188141 0.149078 0.674591
0.571899 0.261230 0.758026
0.779266 0.314758 0.806946
0.912811 0.353058 0.843628
1.000000 0.388489 0.877045
0.000000 0.274048 0.699860
0.016296 0.301453 0.725006
0.368469 0.399109 0.789429
0.728058 0.503235 0.848755
0.895752 0.534882 0.873138
1.000000 0.561981 0.895996
0.000000 0.439270 0.771912
0.000000 0.463562 0.805267
0.175140 0.531189 0.847961
0.566925 0.638947 0.896027
0.871765 0.712738 0.929230
1.000000 0.734528 0.940826
0.000000 0.615051 0.876953
0.000000 0.638702 0.892181
0.000000 0.681885 0.914856
0.384796 0.769348 0.959229
0.789948 0.856689 0.985901
1.000000 0.901459 1.000000
0.000000 0.742798 0.932281
0.000000 0.773682 0.954590
0.000000 0.817963 0.979828
0.267975 0.898285 1.000000
0.710938 0.962250 1.000000
1.000000 1.000000 1.000000
