Color Lookup Presets Effects/z1 (65).CUBE
#Created by: Adobe Photoshop Export Color Lookup Plugin
#Copyright: (C) Copyright 2014 www.zafizack.com
TITLE "zafizack"
#LUT size
LUT_3D_SIZE 16
#data domain
DOMAIN_MIN 0.0 0.0 0.0
DOMAIN_MAX 1.0 1.0 1.0
#LUT data points
0.036896 0.032227 0.040222
0.036896 0.032227 0.040222
0.036896 0.032227 0.040222
0.204437 0.032227 0.109863
0.423553 0.032227 0.206665
0.617523 0.032227 0.299927
0.809113 0.032227 0.387634
0.992950 0.032227 0.469360
1.000000 0.032227 0.539276
1.000000 0.032227 0.562897
1.000000 0.032227 0.562897
1.000000 0.032227 0.562897
1.000000 0.032227 0.562897
1.000000 0.032227 0.562897
1.000000 0.032227 0.562897
1.000000 0.032227 0.562897
0.036896 0.032227 0.040222
0.036896 0.032227 0.040222
0.036896 0.032227 0.040222
0.204437 0.032227 0.109863
0.423553 0.032227 0.206665
0.617493 0.032227 0.299927
0.809113 0.032227 0.387634
0.992950 0.032227 0.469360
1.000000 0.032227 0.539246
1.000000 0.032227 0.562897
1.000000 0.032227 0.562897
1.000000 0.032227 0.562897
1.000000 0.032227 0.562897
1.000000 0.032227 0.562897
1.000000 0.032227 0.562897
1.000000 0.032227 0.562897
0.036896 0.032227 0.040222
0.036896 0.032227 0.040222
0.036896 0.032227 0.040222
0.204437 0.032227 0.109863
0.411835 0.040161 0.195099
0.591736 0.050690 0.274139
0.767670 0.061279 0.348175
0.938416 0.072052 0.417084
1.000000 0.082977 0.475525
1.000000 0.094147 0.498657
1.000000 0.087006 0.506287
1.000000 0.071320 0.522858
1.000000 0.056183 0.538574
1.000000 0.041107 0.553986
1.000000 0.032227 0.562897
1.000000 0.032227 0.562897
0.000000 0.085876 0.000000
0.000000 0.085876 0.000000
0.000000 0.085876 0.000000
0.019775 0.089294 0.000000
0.239563 0.151123 0.022705
0.427460 0.163666 0.103790
0.596649 0.175476 0.178864
0.768677 0.187653 0.249512
0.913727 0.199860 0.310974
1.000000 0.212250 0.358246
1.000000 0.224426 0.347168
0.989777 0.236938 0.331329
0.977997 0.249298 0.315399
0.972229 0.261810 0.313690
0.976471 0.274139 0.335480
0.993530 0.256256 0.358551
0.000000 0.195709 0.000000
0.000000 0.195709 0.000000
0.000000 0.195709 0.000000
0.000000 0.195709 0.000000
0.069672 0.200714 0.000000
0.276215 0.284332 0.000000
0.415192 0.299347 0.013306
0.564545 0.311798 0.037140
0.720032 0.323944 0.102936
0.834167 0.336151 0.155365
0.879150 0.348267 0.177063
0.866730 0.360107 0.159119
0.854401 0.371765 0.141174
0.841888 0.383392 0.122833
0.830200 0.394836 0.106232
0.835205 0.406189 0.128784
0.000000 0.312866 0.000000
0.000000 0.312866 0.000000
0.000000 0.312866 0.000000
0.000000 0.312866 0.000000
0.000000 0.312866 0.000000
0.110016 0.319122 0.000000
0.296814 0.413483 0.000000
0.433197 0.428314 0.000000
0.572052 0.439270 0.014709
0.684174 0.449768 0.027832
0.757996 0.460144 0.036011
0.769867 0.470367 0.036163
0.764893 0.480560 0.034149
0.760071 0.490417 0.032196
0.755280 0.500183 0.030243
0.750549 0.509857 0.028320
0.000000 0.422852 0.000000
0.000000 0.422852 0.000000
0.000000 0.422852 0.000000
0.000000 0.422852 0.000000
0.000000 0.422852 0.000000
0.000000 0.422852 0.000000
0.144806 0.429565 0.000000
0.320801 0.524719 0.000000
0.454132 0.539032 0.000000
0.574097 0.550079 0.000000
0.664795 0.560242 0.010345
0.720825 0.570587 0.016205
0.715942 0.580597 0.014221
0.710999 0.590668 0.012207
0.706055 0.600769 0.010193
0.701111 0.610931 0.008179
0.000000 0.519104 0.000000
0.000000 0.519104 0.000000
0.000000 0.519104 0.000000
0.000000 0.519104 0.000000
0.000000 0.519104 0.000000
0.000000 0.519104 0.000000
0.000000 0.519104 0.000000
0.174835 0.526245 0.000000
0.340179 0.622253 0.000000
0.465759 0.647766 0.000000
0.566010 0.659332 0.000000
0.639984 0.668671 0.000000
0.668274 0.678009 0.000000
0.663788 0.687164 0.000000
0.659485 0.695984 0.000000
0.655060 0.705048 0.000000
0.000000 0.617981 0.000000
0.000000 0.618042 0.000000
0.000000 0.618134 0.000000
0.000000 0.618195 0.000000
0.000000 0.618256 0.000000
0.000000 0.618347 0.000000
0.000000 0.618408 0.000000
0.043671 0.618469 0.000000
0.200500 0.626587 0.000000
0.363556 0.714447 0.000000
0.478302 0.747223 0.000000
0.560089 0.758270 0.000000
0.618622 0.766144 0.000000
0.621368 0.773865 0.000000
0.617737 0.781342 0.000000
0.614136 0.788666 0.000000
0.000000 0.712769 0.000000
0.000000 0.712830 0.000000
0.000000 0.712921 0.000000
0.000000 0.712982 0.000000
0.000000 0.713043 0.000000
0.000000 0.713135 0.000000
0.000000 0.713196 0.000000
0.000000 0.713287 0.000000
0.093536 0.713348 0.000000
0.234863 0.721252 0.000000
0.389954 0.795074 0.000000
0.492859 0.830566 0.000000
0.558624 0.839691 0.000000
0.585754 0.846710 0.000000
0.582794 0.852722 0.000000
0.579834 0.858765 0.000000
0.000000 0.793457 0.000000
0.000000 0.793518 0.000000
0.000000 0.793579 0.000000
0.000000 0.793640 0.000000
0.000000 0.793701 0.000000
0.000000 0.793793 0.000000
0.000000 0.793854 0.000000
0.000000 0.793915 0.000000
0.004456 0.793976 0.000000
0.142914 0.794128 0.000000
0.276276 0.801300 0.000000
0.416779 0.861237 0.000000
0.507874 0.896454 0.000000
0.557953 0.903534 0.000000
0.554962 0.909637 0.000000
0.552582 0.914490 0.000000
0.000000 0.859009 0.000000
0.000000 0.859100 0.000000
0.000000 0.859070 0.000000
0.000000 0.859131 0.000000
0.000000 0.859161 0.000000
0.000000 0.859222 0.000000
0.000000 0.859253 0.000000
0.000000 0.859375 0.000000
0.000000 0.859436 0.000000
0.071899 0.859406 0.000000
0.195587 0.859528 0.000000
0.318756 0.865875 0.000000
0.442078 0.913696 0.000000
0.522369 0.947296 0.000000
0.533783 0.952911 0.000000
0.531097 0.958405 0.000000
0.000000 0.910461 0.000000
0.000000 0.910492 0.000000
0.000000 0.910522 0.000000
0.000000 0.910553 0.000000
0.000000 0.910583 0.000000
0.000000 0.910583 0.000000
0.000000 0.910614 0.000000
0.000000 0.910645 0.000000
0.000000 0.910675 0.000000
0.011993 0.910706 0.000000
0.131439 0.910736 0.000000
0.248383 0.910736 0.000000
0.357361 0.916290 0.000000
0.464386 0.954926 0.000000
0.516998 0.987213 0.000000
0.514679 0.991974 0.000000
0.000000 0.954712 0.000000
0.000000 0.954102 0.000000
0.000000 0.953552 0.000000
0.000000 0.953064 0.000000
0.000000 0.952576 0.000000
0.000000 0.952148 0.000000
0.000000 0.951721 0.000000
0.000000 0.951385 0.000000
0.000000 0.951141 0.000000
0.000000 0.951141 0.000000
0.075623 0.951141 0.000000
0.188660 0.951172 0.000000
0.294098 0.951172 0.000000
0.390228 0.956024 0.000000
0.482697 0.988403 0.000000
0.510742 1.000000 0.000000
0.000000 0.984222 0.000000
0.000000 0.984161 0.000000
0.000000 0.984070 0.000000
0.000000 0.983978 0.000000
0.000000 0.983948 0.000000
0.000000 0.983948 0.000000
0.000000 0.983948 0.000000
0.000000 0.983948 0.000000
0.000000 0.983948 0.000000
0.000000 0.983948 0.000000
0.018616 0.983948 0.000000
0.127869 0.983948 0.000000
0.233643 0.983948 0.000000
0.328888 0.983948 0.000000
0.414886 0.988495 0.000000
0.510742 1.000000 0.000000
0.000000 1.000000 0.000000
0.000000 1.000000 0.000000
0.000000 1.000000 0.000000
0.000000 1.000000 0.000000
0.000000 1.000000 0.000000
0.000000 1.000000 0.000000
0.000000 1.000000 0.000000
0.000000 1.000000 0.000000
0.000000 1.000000 0.000000
0.000000 1.000000 0.000000
0.000000 1.000000 0.000000
0.083374 1.000000 0.000000
0.189026 1.000000 0.000000
0.286682 1.000000 0.000000
0.374237 1.000000 0.000000
0.459229 1.000000 0.000000
0.036896 0.032227 0.040222
0.036896 0.032227 0.040222
0.036896 0.032227 0.040222
0.204468 0.032227 0.109894
0.423553 0.032227 0.206665
0.617554 0.032227 0.299957
0.809113 0.032227 0.387634
0.993011 0.032227 0.469391
1.000000 0.032227 0.539307
1.000000 0.032227 0.562927
1.000000 0.032227 0.571106
1.000000 0.032227 0.586761
1.000000 0.032227 0.602661
1.000000 0.032227 0.619598
1.000000 0.032227 0.637238
1.000000 0.032227 0.655548
0.036896 0.032227 0.040222
0.036896 0.032227 0.040222
0.036896 0.032227 0.040222
0.204437 0.032227 0.109863
0.423553 0.032227 0.206665
0.617523 0.032227 0.299927
0.809113 0.032227 0.387634
0.993011 0.032227 0.469391
1.000000 0.032227 0.539276
1.000000 0.032227 0.562927
1.000000 0.032227 0.562927
1.000000 0.032227 0.562927
1.000000 0.032227 0.575226
1.000000 0.032227 0.590668
1.000000 0.032227 0.607208
1.000000 0.032227 0.623871
0.036896 0.032227 0.040222
0.036896 0.032227 0.040222
0.036896 0.032227 0.040222
0.204437 0.032227 0.109863
0.417053 0.036652 0.200226
0.596893 0.047028 0.279358
0.772980 0.057587 0.353271
0.976990 0.044067 0.454102
1.000000 0.032227 0.539276
1.000000 0.032227 0.562927
1.000000 0.032227 0.562927
1.000000 0.032227 0.562927
1.000000 0.032227 0.562927
1.000000 0.032227 0.563873
1.000000 0.032227 0.579102
1.000000 0.032227 0.594788
0.000000 0.099670 0.000000
0.000000 0.099670 0.000000
0.000000 0.099670 0.000000
0.022247 0.099670 0.000000
0.245422 0.147522 0.028656
0.433960 0.159393 0.110626
0.602997 0.171387 0.185303
0.775299 0.183350 0.256195
0.920013 0.195496 0.317657
1.000000 0.207825 0.368744
1.000000 0.220062 0.392456
1.000000 0.224213 0.415466
1.000000 0.206635 0.436584
1.000000 0.189178 0.456909
1.000000 0.171906 0.476685
1.000000 0.154907 0.495697
0.000000 0.210907 0.000000
0.000000 0.210907 0.000000
0.000000 0.210907 0.000000
0.000000 0.210907 0.000000
0.067322 0.210907 0.000000
0.278107 0.282501 0.000000
0.419586 0.295074 0.014465
0.572296 0.307404 0.045441
0.727081 0.319794 0.110626
0.840668 0.331940 0.162994
0.883606 0.344025 0.183502
0.883575 0.355957 0.194794
0.889282 0.367706 0.219391
0.896759 0.379486 0.248169
0.906738 0.390778 0.282410
0.918854 0.402100 0.321686
0.000000 0.328003 0.000000
0.000000 0.328003 0.000000
0.000000 0.328003 0.000000
0.000000 0.328003 0.000000
0.000000 0.328003 0.000000
0.103577 0.328003 0.000000
0.296692 0.413574 0.000000
0.437469 0.424561 0.000000
0.576477 0.435394 0.015808
0.688080 0.445984 0.028870
0.761139 0.456482 0.036926
0.771576 0.466858 0.036865
0.766632 0.476990 0.034851
0.761688 0.487061 0.032837
0.758636 0.496704 0.034821
0.770081 0.506683 0.071259
0.000000 0.436310 0.000000
0.000000 0.436310 0.000000
0.000000 0.436310 0.000000
0.000000 0.436310 0.000000
0.000000 0.436310 0.000000
0.000000 0.436310 0.000000
0.135620 0.436310 0.000000
0.318939 0.526154 0.000000
0.457458 0.536224 0.000000
0.578156 0.546417 0.000946
0.668396 0.556580 0.011292
0.722626 0.566925 0.016937
0.717682 0.577026 0.014923
0.712738 0.587128 0.012909
0.707733 0.597382 0.010864
0.702942 0.607178 0.008911
0.000000 0.531433 0.000000
0.000000 0.531433 0.000000
0.000000 0.531433 0.000000
0.000000 0.531433 0.000000
0.000000 0.531433 0.000000
0.000000 0.531433 0.000000
0.000000 0.531433 0.000000
0.163666 0.531433 0.000000
0.335419 0.622284 0.000000
0.467041 0.646606 0.000000
0.569122 0.656250 0.000000
0.642761 0.665497 0.000000
0.669830 0.674866 0.000000
0.665375 0.683929 0.000000
0.660889 0.693085 0.000000
0.656616 0.701843 0.000000
0.000000 0.630554 0.000000
0.000000 0.630646 0.000000
0.000000 0.630707 0.000000
0.000000 0.630768 0.000000
0.000000 0.630829 0.000000
0.000000 0.630920 0.000000
0.000000 0.630981 0.000000
0.026978 0.631042 0.000000
0.188690 0.631104 0.000000
0.357300 0.714813 0.000000
0.478058 0.747803 0.000000
0.562592 0.755951 0.000000
0.620728 0.763611 0.000000
0.622559 0.771454 0.000000
0.618927 0.778900 0.000000
0.615173 0.786530 0.000000
0.000000 0.723724 0.000000
0.000000 0.723785 0.000000
0.000000 0.723846 0.000000
0.000000 0.723938 0.000000
0.000000 0.723999 0.000000
0.000000 0.724060 0.000000
0.000000 0.724152 0.000000
0.000000 0.724213 0.000000
0.079956 0.724243 0.000000
0.221313 0.724365 0.000000
0.382507 0.795471 0.000000
0.491486 0.832214 0.000000
0.559784 0.838623 0.000000
0.586700 0.844757 0.000000
0.583710 0.850891 0.000000
0.580750 0.856903 0.000000
0.000000 0.802582 0.000000
0.000000 0.802643 0.000000
0.000000 0.802704 0.000000
0.000000 0.802765 0.000000
0.000000 0.802856 0.000000
0.000000 0.802887 0.000000
0.000000 0.802979 0.000000
0.000000 0.803040 0.000000
0.000000 0.803101 0.000000
0.131592 0.803162 0.000000
0.261353 0.803223 0.000000
0.409119 0.861481 0.000000
0.506226 0.898346 0.000000
0.558014 0.903412 0.000000
0.555634 0.908264 0.000000
0.553345 0.912933 0.000000
0.000000 0.866241 0.000000
0.000000 0.866272 0.000000
0.000000 0.866333 0.000000
0.000000 0.866425 0.000000
0.000000 0.866394 0.000000
0.000000 0.866547 0.000000
0.000000 0.866547 0.000000
0.000000 0.866547 0.000000
0.000000 0.866577 0.000000
0.062897 0.866699 0.000000
0.185669 0.866669 0.000000
0.305206 0.866760 0.000000
0.433838 0.913849 0.000000
0.520416 0.949402 0.000000
0.533630 0.953247 0.000000
0.531738 0.957092 0.000000
0.000000 0.916565 0.000000
0.000000 0.916229 0.000000
0.000000 0.916229 0.000000
0.000000 0.916260 0.000000
0.000000 0.916290 0.000000
0.000000 0.916321 0.000000
0.000000 0.916351 0.000000
0.000000 0.916382 0.000000
0.000000 0.916412 0.000000
0.003845 0.916443 0.000000
0.123138 0.916443 0.000000
0.239410 0.916473 0.000000
0.345215 0.916504 0.000000
0.456146 0.954987 0.000000
0.516541 0.988159 0.000000
0.514313 0.992676 0.000000
0.000000 0.958984 0.000000
0.000000 0.958405 0.000000
0.000000 0.957947 0.000000
0.000000 0.957489 0.000000
0.000000 0.957031 0.000000
0.000000 0.956635 0.000000
0.000000 0.956299 0.000000
0.000000 0.955963 0.000000
0.000000 0.955688 0.000000
0.000000 0.955719 0.000000
0.067932 0.955719 0.000000
0.180695 0.955719 0.000000
0.286255 0.955750 0.000000
0.379486 0.956085 0.000000
0.474426 0.988434 0.000000
0.510742 1.000000 0.000000
0.000000 0.988037 0.000000
0.000000 0.987976 0.000000
0.000000 0.987915 0.000000
0.000000 0.987885 0.000000
0.000000 0.987885 0.000000
0.000000 0.987885 0.000000
0.000000 0.987885 0.000000
0.000000 0.987885 0.000000
0.000000 0.987885 0.000000
0.000000 0.987885 0.000000
0.010284 0.987885 0.000000
0.119812 0.987915 0.000000
0.224792 0.987885 0.000000
0.320679 0.987885 0.000000
0.405060 0.988495 0.000000
0.510742 1.000000 0.000000
0.000000 1.000000 0.000000
0.000000 1.000000 0.000000
0.000000 1.000000 0.000000
0.000000 1.000000 0.000000
0.000000 1.000000 0.000000
0.000000 1.000000 0.000000
0.000000 1.000000 0.000000
0.000000 1.000000 0.000000
0.000000 1.000000 0.000000
0.000000 1.000000 0.000000
0.000000 1.000000 0.000000
0.081421 1.000000 0.000000
0.187012 1.000000 0.000000
0.284973 1.000000 0.000000
0.372833 1.000000 0.000000
0.450226 1.000000 0.000000
0.036896 0.032227 0.040222
0.036896 0.032227 0.040222
0.082520 0.032227 0.089081
0.246857 0.032227 0.156036
0.441650 0.032227 0.246643
0.643616 0.032227 0.357880
0.843079 0.032227 0.462402
1.000000 0.032227 0.560150
1.000000 0.032227 0.644897
1.000000 0.032227 0.684540
1.000000 0.032227 0.704559
1.000000 0.032227 0.725006
1.000000 0.032227 0.746979
1.000000 0.032227 0.770721
1.000000 0.032227 0.796204
1.000000 0.032227 0.824005
0.036896 0.032227 0.040222
0.036896 0.032227 0.040222
0.036896 0.032227 0.040222
0.204437 0.032227 0.109863
0.426331 0.032227 0.212769
0.628387 0.032227 0.324127
0.827881 0.032227 0.428986
1.000000 0.032227 0.526855
1.000000 0.032227 0.611938
1.000000 0.032227 0.651367
1.000000 0.032227 0.670288
1.000000 0.032227 0.689636
1.000000 0.032227 0.709595
1.000000 0.032227 0.730530
1.000000 0.032227 0.752594
1.000000 0.032227 0.776825
0.036896 0.032227 0.040222
0.036896 0.032227 0.040222
0.036896 0.032227 0.040222
0.204437 0.032227 0.109863
0.423553 0.032227 0.206665
0.617523 0.032227 0.299927
0.813690 0.032227 0.397736
1.000000 0.032227 0.495758
1.000000 0.032227 0.581177
1.000000 0.032227 0.620422
1.000000 0.032227 0.637909
1.000000 0.032227 0.656219
1.000000 0.032227 0.675140
1.000000 0.032227 0.694611
1.000000 0.032227 0.715118
1.000000 0.032227 0.735840
0.000000 0.113647 0.000000
0.000000 0.113647 0.000000
0.000000 0.113647 0.000000
0.036102 0.113647 0.000000
0.251953 0.143494 0.035309
0.440155 0.155304 0.117218
0.623779 0.167145 0.223541
0.813690 0.179230 0.333649
0.987122 0.175476 0.434296
1.000000 0.158325 0.508514
1.000000 0.141663 0.526642
1.000000 0.125031 0.544403
1.000000 0.113678 0.561981
1.000000 0.113678 0.581787
1.000000 0.113647 0.602325
1.000000 0.113647 0.623199
0.000000 0.226227 0.000000
0.000000 0.226227 0.000000
0.000000 0.226227 0.000000
0.000000 0.226227 0.000000
0.080170 0.226227 0.000000
0.282501 0.278259 0.000000
0.424072 0.290680 0.015656
0.587891 0.303101 0.071594
0.761047 0.315521 0.178497
0.892822 0.327789 0.274292
0.951447 0.339844 0.339081
0.961792 0.351929 0.374969
0.974548 0.363617 0.416107
0.990509 0.350220 0.440918
1.000000 0.333282 0.462494
1.000000 0.315826 0.484100
0.000000 0.343048 0.000000
0.000000 0.343048 0.000000
0.000000 0.343048 0.000000
0.000000 0.343048 0.000000
0.000000 0.343048 0.000000
0.115112 0.343048 0.000000
0.300812 0.409668 0.000000
0.441772 0.420776 0.000305
0.580780 0.431641 0.016876
0.692566 0.442505 0.029907
0.784882 0.453003 0.084045
0.813354 0.463287 0.131714
0.825531 0.473602 0.170197
0.840515 0.483582 0.214935
0.857727 0.493530 0.264954
0.877441 0.503265 0.320557
0.000000 0.449432 0.000000
0.000000 0.449432 0.000000
0.000000 0.449432 0.000000
0.000000 0.449432 0.000000
0.000000 0.449432 0.000000
0.000000 0.449432 0.000000
0.146057 0.449432 0.000000
0.322968 0.522827 0.000000
0.461456 0.532837 0.000000
0.582031 0.542969 0.001923
0.672302 0.553101 0.012268
0.724335 0.563446 0.017639
0.719330 0.573639 0.015594
0.714417 0.583679 0.013611
0.709412 0.593933 0.011566
0.723938 0.603943 0.055267
0.000000 0.543823 0.000000
0.000000 0.543823 0.000000
0.000000 0.543823 0.000000
0.000000 0.543823 0.000000
0.000000 0.543823 0.000000
0.000000 0.543823 0.000000
0.000000 0.543823 0.000000
0.172638 0.543823 0.000000
0.340820 0.622314 0.000000
0.470673 0.643311 0.000000
0.572632 0.652802 0.000000
0.645752 0.662292 0.000000
0.671448 0.671509 0.000000
0.666962 0.680725 0.000000
0.662506 0.689819 0.000000
0.658081 0.698853 0.000000
0.000000 0.642914 0.000000
0.000000 0.643005 0.000000
0.000000 0.643066 0.000000
0.000000 0.643127 0.000000
0.000000 0.643188 0.000000
0.000000 0.643280 0.000000
0.000000 0.643341 0.000000
0.037445 0.643402 0.000000
0.196899 0.643463 0.000000
0.362274 0.715210 0.000000
0.481018 0.745422 0.000000
0.565155 0.753479 0.000000
0.622589 0.761353 0.000000
0.623657 0.769196 0.000000
0.619995 0.776672 0.000000
0.616302 0.784241 0.000000
0.000000 0.734406 0.000000
0.000000 0.734467 0.000000
0.000000 0.734528 0.000000
0.000000 0.734619 0.000000
0.000000 0.734680 0.000000
0.000000 0.734772 0.000000
0.000000 0.734833 0.000000
0.000000 0.734833 0.000000
0.087555 0.734955 0.000000
0.230530 0.735046 0.000000
0.387146 0.795837 0.000000
0.493896 0.830292 0.000000
0.561737 0.836670 0.000000
0.587585 0.842957 0.000000
0.584534 0.849152 0.000000
0.581635 0.855072 0.000000
0.000000 0.811310 0.000000
0.000000 0.811371 0.000000
0.000000 0.811432 0.000000
0.000000 0.811493 0.000000
0.000000 0.811554 0.000000
0.000000 0.811615 0.000000
0.000000 0.811676 0.000000
0.000000 0.811737 0.000000
0.000000 0.811798 0.000000
0.136780 0.811859 0.000000
0.271027 0.811951 0.000000
0.412903 0.861816 0.000000
0.507813 0.896973 0.000000
0.558746 0.901855 0.000000
0.556396 0.906708 0.000000
0.553986 0.911591 0.000000
0.000000 0.873260 0.000000
0.000000 0.873322 0.000000
0.000000 0.873291 0.000000
0.000000 0.873383 0.000000
0.000000 0.873413 0.000000
0.000000 0.873383 0.000000
0.000000 0.873444 0.000000
0.000000 0.873535 0.000000
0.000000 0.873535 0.000000
0.061523 0.873627 0.000000
0.188965 0.873596 0.000000
0.312561 0.873718 0.000000
0.437164 0.914032 0.000000
0.521729 0.948151 0.000000
0.534210 0.952057 0.000000
0.532318 0.955902 0.000000
0.000000 0.922485 0.000000
0.000000 0.922119 0.000000
0.000000 0.921814 0.000000
0.000000 0.921844 0.000000
0.000000 0.921844 0.000000
0.000000 0.921875 0.000000
0.000000 0.921906 0.000000
0.000000 0.921936 0.000000
0.000000 0.921936 0.000000
0.000000 0.921936 0.000000
0.120300 0.921967 0.000000
0.241058 0.921997 0.000000
0.349945 0.922028 0.000000
0.458984 0.955078 0.000000
0.516541 0.988159 0.000000
0.514893 0.991547 0.000000
0.000000 0.963165 0.000000
0.000000 0.962677 0.000000
0.000000 0.962219 0.000000
0.000000 0.961792 0.000000
0.000000 0.961426 0.000000
0.000000 0.961029 0.000000
0.000000 0.960724 0.000000
0.000000 0.960449 0.000000
0.000000 0.960236 0.000000
0.000000 0.960205 0.000000
0.060303 0.960236 0.000000
0.176056 0.960236 0.000000
0.285767 0.960236 0.000000
0.381866 0.960236 0.000000
0.476776 0.988434 0.000000
0.510742 1.000000 0.000000
0.000000 0.991913 0.000000
0.000000 0.991882 0.000000
0.000000 0.991852 0.000000
0.000000 0.991852 0.000000
0.000000 0.991852 0.000000
0.000000 0.991852 0.000000
0.000000 0.991852 0.000000
0.000000 0.991852 0.000000
0.000000 0.991852 0.000000
0.000000 0.991852 0.000000
0.001984 0.991852 0.000000
0.110504 0.991852 0.000000
0.217316 0.991852 0.000000
0.317566 0.991852 0.000000
0.405090 0.991852 0.000000
0.510742 1.000000 0.000000
0.000000 1.000000 0.000000
0.000000 1.000000 0.000000
0.000000 1.000000 0.000000
0.000000 1.000000 0.000000
0.000000 1.000000 0.000000
0.000000 1.000000 0.000000
0.000000 1.000000 0.000000
0.000000 1.000000 0.000000
0.000000 1.000000 0.000000
0.000000 1.000000 0.000000
0.000000 1.000000 0.000000
0.081024 1.000000 0.000000
0.186371 1.000000 0.000000
0.284698 1.000000 0.000000
0.375854 1.000000 0.000000
0.454071 1.000000 0.000000
0.090149 0.032227 0.156494
0.114075 0.032227 0.208496
0.200287 0.032227 0.287689
0.455414 0.032227 0.435150
0.663818 0.032227 0.553345
0.723602 0.032227 0.534729
0.922791 0.032227 0.636658
1.000000 0.032227 0.731110
1.000000 0.032227 0.821442
1.000000 0.032227 0.870422
1.000000 0.032227 0.903290
1.000000 0.032227 0.938293
1.000000 0.032227 0.973877
1.000000 0.032227 1.000000
1.000000 0.032227 1.000000
1.000000 0.032227 1.000000
0.060760 0.032227 0.092377
0.081879 0.032227 0.138489
0.119507 0.032227 0.194550
0.374908 0.032227 0.339600
0.533691 0.032227 0.407166
0.703003 0.032227 0.489349
0.902313 0.032227 0.592224
1.000000 0.032227 0.687561
1.000000 0.032227 0.772491
1.000000 0.032227 0.818176
1.000000 0.032227 0.847534
1.000000 0.032227 0.879303
1.000000 0.032227 0.912170
1.000000 0.032227 0.947632
1.000000 0.032227 0.983459
1.000000 0.032227 1.000000
0.036926 0.032227 0.040253
0.053467 0.032227 0.076508
0.074005 0.032227 0.121277
0.296661 0.032227 0.250214
0.482117 0.032227 0.336060
0.683655 0.032227 0.446686
0.883209 0.032227 0.550476
1.000000 0.032227 0.646759
1.000000 0.032227 0.730011
1.000000 0.032227 0.771942
1.000000 0.032227 0.797699
1.000000 0.032227 0.825623
1.000000 0.032227 0.855438
1.000000 0.032227 0.887482
1.000000 0.032227 0.921173
1.000000 0.032227 0.956329
0.000000 0.127869 0.000000
0.000000 0.127869 0.000000
0.000000 0.127869 0.000000
0.081268 0.127869 0.033081
0.309113 0.139465 0.154022
0.532196 0.128357 0.275269
0.729858 0.127869 0.385590
0.926849 0.127869 0.490021
1.000000 0.127869 0.582001
1.000000 0.127869 0.643555
1.000000 0.127869 0.667023
1.000000 0.127869 0.690857
1.000000 0.127869 0.715424
1.000000 0.127869 0.742157
1.000000 0.127869 0.771088
1.000000 0.127869 0.802094
0.000000 0.241577 0.000000
0.000000 0.241577 0.000000
0.000000 0.241577 0.000000
0.000000 0.241577 0.000000
0.094269 0.241577 0.000000
0.294189 0.273804 0.011597
0.483246 0.286255 0.137329
0.676910 0.298828 0.260742
0.854156 0.311157 0.377563
0.990204 0.319092 0.480103
1.000000 0.301483 0.526031
1.000000 0.283752 0.546600
1.000000 0.265839 0.566772
1.000000 0.248108 0.586243
1.000000 0.241577 0.610596
1.000000 0.241577 0.638702
0.000000 0.357788 0.000000
0.000000 0.357788 0.000000
0.000000 0.357788 0.000000
0.000000 0.357788 0.000000
0.000000 0.357788 0.000000
0.127533 0.357788 0.000000
0.306549 0.405884 0.000000
0.449249 0.417023 0.001770
0.618134 0.427979 0.086121
0.772736 0.438690 0.201355
0.884857 0.449310 0.306488
0.914825 0.459747 0.367035
0.934448 0.470123 0.423096
0.955750 0.480194 0.482788
0.973755 0.478485 0.523529
0.987885 0.463989 0.542969
0.000000 0.462311 0.000000
0.000000 0.462311 0.000000
0.000000 0.462311 0.000000
0.000000 0.462311 0.000000
0.000000 0.462311 0.000000
0.000000 0.462311 0.000000
0.156860 0.462311 0.000000
0.328430 0.519379 0.000000
0.468414 0.529327 0.000000
0.589752 0.539459 0.003479
0.679169 0.549561 0.013733
0.764038 0.559784 0.107574
0.783661 0.570099 0.163544
0.805878 0.580322 0.225525
0.830292 0.590240 0.292419
0.855408 0.600372 0.361176
