Color Lookup Presets Effects/z1 (77).CUBE
#Created by: Adobe Photoshop Export Color Lookup Plugin
#Copyright: (C) Copyright 2014 www.zafizack.com
TITLE "zafizack"
#LUT size
LUT_3D_SIZE 16
#data domain
DOMAIN_MIN 0.0 0.0 0.0
DOMAIN_MAX 1.0 1.0 1.0
#LUT data points
0.079590 0.154144 0.262756
0.122284 0.153900 0.262421
0.178223 0.153900 0.262421
0.240784 0.153900 0.262421
0.308136 0.153900 0.262421
0.392700 0.153900 0.262421
0.495270 0.153900 0.262421
0.618774 0.153900 0.262421
0.746857 0.153900 0.262421
0.849945 0.153595 0.262085
0.934387 0.153595 0.262085
1.000000 0.153595 0.262085
1.000000 0.153595 0.262085
1.000000 0.153595 0.262085
1.000000 0.153595 0.262085
1.000000 0.153595 0.262085
0.065308 0.191162 0.262756
0.108246 0.193481 0.262756
0.164124 0.194641 0.262421
0.227203 0.195251 0.262421
0.295685 0.194794 0.262421
0.380737 0.192627 0.262421
0.484650 0.190399 0.262421
0.608856 0.188477 0.262421
0.737335 0.186646 0.262421
0.843048 0.184753 0.262421
0.928040 0.183044 0.262421
0.995575 0.181519 0.262085
1.000000 0.181549 0.262085
1.000000 0.181519 0.262085
1.000000 0.181519 0.262085
1.000000 0.181519 0.262085
0.049072 0.230408 0.262756
0.092529 0.234772 0.262756
0.150360 0.238007 0.262756
0.214630 0.238678 0.262421
0.283783 0.237518 0.262421
0.370728 0.233551 0.262421
0.474487 0.229004 0.262421
0.600006 0.225464 0.262421
0.727844 0.221954 0.262421
0.833679 0.218323 0.262421
0.918732 0.215118 0.262421
0.986267 0.212433 0.262085
1.000000 0.212433 0.262085
1.000000 0.212433 0.262085
1.000000 0.212433 0.262085
1.000000 0.212433 0.262085
0.030304 0.272552 0.262421
0.073914 0.279175 0.262756
0.132446 0.283630 0.262756
0.197876 0.284973 0.262756
0.266907 0.282715 0.262421
0.354767 0.277313 0.262421
0.459686 0.271301 0.262421
0.586395 0.266754 0.262421
0.714600 0.261963 0.262421
0.820313 0.256897 0.262421
0.905853 0.252625 0.262421
0.975708 0.249603 0.262421
1.000000 0.249023 0.262085
1.000000 0.249054 0.262085
1.000000 0.249054 0.262085
1.000000 0.249054 0.262085
0.027435 0.322693 0.262421
0.051147 0.331146 0.262756
0.111420 0.336914 0.262756
0.178467 0.338562 0.262756
0.249207 0.336029 0.262421
0.338043 0.329376 0.262421
0.442749 0.321442 0.262421
0.569916 0.315887 0.262421
0.698090 0.310089 0.262421
0.803802 0.304047 0.262421
0.889252 0.298828 0.262421
0.959137 0.295227 0.262421
1.000000 0.294525 0.262085
1.000000 0.294525 0.262085
1.000000 0.294525 0.262085
1.000000 0.294525 0.262085
0.027435 0.386658 0.262421
0.027435 0.394257 0.262421
0.083923 0.401886 0.262756
0.153503 0.404602 0.262756
0.224823 0.400787 0.262421
0.314087 0.392853 0.262421
0.420258 0.384735 0.262421
0.547882 0.378418 0.262421
0.676025 0.371796 0.262421
0.782013 0.365051 0.262421
0.867462 0.359009 0.262421
0.936981 0.354858 0.262421
0.992767 0.353882 0.262085
1.000000 0.353912 0.262085
1.000000 0.353882 0.262085
1.000000 0.353912 0.262085
0.027435 0.466034 0.262421
0.027435 0.474976 0.262421
0.048096 0.481079 0.262421
0.119904 0.484009 0.262421
0.193451 0.481110 0.262421
0.284698 0.473450 0.262421
0.391510 0.464539 0.262421
0.518555 0.457184 0.262421
0.646881 0.450104 0.262421
0.752838 0.442810 0.262421
0.838196 0.436432 0.262421
0.907837 0.431976 0.262421
0.963654 0.430695 0.262085
1.000000 0.430695 0.262085
1.000000 0.430695 0.262085
1.000000 0.430695 0.262085
0.027435 0.559113 0.262421
0.027435 0.568604 0.262421
0.027435 0.574829 0.262421
0.080688 0.577332 0.262421
0.158051 0.575684 0.262421
0.250092 0.567078 0.262421
0.356476 0.557220 0.262421
0.485352 0.550385 0.262421
0.613068 0.542908 0.262421
0.718262 0.535065 0.262421
0.803406 0.528320 0.262421
0.871613 0.522064 0.262085
0.928650 0.522034 0.262085
0.979309 0.522034 0.262085
1.000000 0.522034 0.262085
1.000000 0.522034 0.262085
0.027435 0.635315 0.264343
0.027435 0.645172 0.264343
0.027435 0.665924 0.264343
0.045288 0.670074 0.270569
0.113251 0.660339 0.282837
0.224121 0.641663 0.274353
0.349121 0.631683 0.262878
0.461304 0.634003 0.262421
0.576782 0.635132 0.262421
0.689453 0.621613 0.262421
0.777283 0.605560 0.262543
0.836731 0.603912 0.274017
0.888245 0.617126 0.282471
0.943817 0.625458 0.270233
0.991089 0.623322 0.264008
1.000000 0.606079 0.264008
0.027435 0.721954 0.262421
0.027435 0.727509 0.262421
0.027435 0.731659 0.262421
0.027435 0.733154 0.262421
0.092468 0.732178 0.262421
0.187653 0.726959 0.262421
0.294037 0.720978 0.262421
0.420746 0.716156 0.262421
0.547272 0.711487 0.262421
0.649902 0.704834 0.262085
0.733673 0.700439 0.262085
0.802063 0.697357 0.262085
0.859039 0.697357 0.262085
0.909637 0.697357 0.262085
0.958405 0.697327 0.262085
1.000000 0.697266 0.262085
0.027435 0.780853 0.262421
0.027435 0.785309 0.262421
0.027435 0.788727 0.262421
0.027435 0.789764 0.262421
0.067566 0.788605 0.262421
0.163605 0.784424 0.262421
0.270691 0.779938 0.262421
0.395538 0.774567 0.262085
0.520844 0.770874 0.262085
0.624939 0.767181 0.262085
0.708282 0.763885 0.262085
0.776459 0.761536 0.262085
0.833344 0.761536 0.262085
0.883972 0.761536 0.262085
0.932739 0.761536 0.262085
1.000000 0.761536 0.262085
0.027435 0.827362 0.262085
0.027435 0.832306 0.262421
0.027435 0.834686 0.262421
0.027435 0.835632 0.262421
0.045837 0.834717 0.262421
0.143585 0.831757 0.262421
0.249146 0.826660 0.262085
0.375427 0.824066 0.262085
0.500977 0.821289 0.262085
0.604462 0.818542 0.262085
0.687134 0.816010 0.262085
0.755066 0.814270 0.262085
0.811981 0.814270 0.262085
0.862610 0.814301 0.262085
0.910492 0.812592 0.261780
0.995026 0.812622 0.261780
0.027435 0.868469 0.262085
0.027435 0.870819 0.262085
0.027435 0.872681 0.262085
0.027435 0.874634 0.262421
0.028076 0.872681 0.262085
0.126740 0.870544 0.262085
0.233612 0.868011 0.262085
0.359894 0.866058 0.262085
0.484314 0.864075 0.262085
0.587372 0.862061 0.262085
0.669800 0.860321 0.262085
0.737610 0.859070 0.262085
0.792694 0.857513 0.261780
0.843384 0.857513 0.261780
0.892365 0.857513 0.261780
0.976776 0.857513 0.261780
0.027435 0.904846 0.262085
0.027435 0.906403 0.262085
0.027435 0.907593 0.262085
0.027435 0.908020 0.262085
0.027435 0.907593 0.262085
0.110657 0.906189 0.262085
0.218201 0.904480 0.262085
0.344421 0.903229 0.262085
0.469086 0.901978 0.262085
0.571503 0.900665 0.262085
0.651917 0.898102 0.261780
0.719452 0.897247 0.261780
0.776459 0.897247 0.261780
0.827057 0.897247 0.261780
0.876160 0.897247 0.261780
0.960571 0.897247 0.261780
0.027435 0.940063 0.262085
0.027435 0.940948 0.262085
0.027435 0.941589 0.262085
0.027435 0.941803 0.262085
0.027435 0.941589 0.262085
0.096924 0.940796 0.262085
0.204346 0.939850 0.262085
0.328613 0.938080 0.261780
0.453400 0.937378 0.261780
0.555603 0.936646 0.261780
0.637451 0.935974 0.261780
0.704620 0.935486 0.261780
0.761353 0.935486 0.261780
0.811829 0.935486 0.261780
0.860718 0.935486 0.261780
0.944977 0.935486 0.261780
0.027435 1.000000 0.261780
0.027435 1.000000 0.261780
0.027435 1.000000 0.262085
0.027435 1.000000 0.262085
0.027435 1.000000 0.262085
0.066986 1.000000 0.261780
0.176422 1.000000 0.261780
0.303162 1.000000 0.261780
0.426727 1.000000 0.261780
0.528564 1.000000 0.261780
0.610626 1.000000 0.261780
0.677551 1.000000 0.261780
0.734802 1.000000 0.261780
0.783386 1.000000 0.261475
0.832733 1.000000 0.261475
0.918518 1.000000 0.261475
0.084900 0.154144 0.295197
0.127533 0.153900 0.295532
0.183258 0.153900 0.295624
0.245605 0.153900 0.295135
0.312531 0.153900 0.292236
0.396484 0.153900 0.288269
0.497864 0.153900 0.284790
0.622498 0.153900 0.284119
0.749542 0.153900 0.283844
0.855377 0.153900 0.283813
0.937714 0.153595 0.283417
1.000000 0.153595 0.283417
1.000000 0.153595 0.283417
1.000000 0.153595 0.283417
1.000000 0.153595 0.283417
1.000000 0.153595 0.283417
0.070770 0.191010 0.295349
0.113586 0.193359 0.296143
0.169525 0.194794 0.295868
0.232086 0.195251 0.295319
0.299561 0.194672 0.292358
0.384491 0.192627 0.288330
0.487335 0.190308 0.284790
0.612549 0.188568 0.284119
0.740417 0.186646 0.283813
0.846130 0.184753 0.283783
0.931366 0.183075 0.283783
0.998871 0.181549 0.283386
1.000000 0.181549 0.283386
1.000000 0.181549 0.283386
1.000000 0.181549 0.283386
1.000000 0.181519 0.283386
0.054688 0.230408 0.295868
0.098022 0.234772 0.296692
0.155701 0.238007 0.296814
0.219604 0.238678 0.295837
0.288208 0.237518 0.292725
0.374512 0.233551 0.288452
0.477692 0.229004 0.284698
0.603119 0.225464 0.283936
0.730865 0.221954 0.283661
0.836731 0.218323 0.283661
0.921753 0.215118 0.283661
0.989288 0.212433 0.283295
1.000000 0.212433 0.283295
1.000000 0.212433 0.283295
1.000000 0.212433 0.283295
1.000000 0.212433 0.283295
0.036011 0.272552 0.295593
0.079529 0.278931 0.296814
0.137634 0.283325 0.296844
0.202911 0.284973 0.296387
0.271393 0.282715 0.292786
0.358582 0.277313 0.288483
0.462891 0.271301 0.284698
0.588440 0.266449 0.283905
0.717163 0.261871 0.283661
0.823669 0.256989 0.283630
0.908875 0.252625 0.283630
0.978271 0.249573 0.283630
1.000000 0.249023 0.283264
1.000000 0.249054 0.283234
1.000000 0.249023 0.283264
1.000000 0.249054 0.283234
0.027435 0.322937 0.295929
0.056976 0.330566 0.296906
0.116943 0.336914 0.297424
0.183685 0.338562 0.296814
0.253326 0.335693 0.293121
0.341888 0.329376 0.288635
0.445984 0.321442 0.284698
0.572998 0.315887 0.283875
0.701141 0.310089 0.283630
0.806854 0.304047 0.283600
0.892303 0.298828 0.283600
0.962341 0.295227 0.283569
1.000000 0.294525 0.283203
1.000000 0.294525 0.283173
1.000000 0.294525 0.283173
1.000000 0.294525 0.283173
0.027435 0.386658 0.296417
0.027863 0.394989 0.297333
0.089844 0.402252 0.297913
0.158844 0.404602 0.297302
0.229828 0.401184 0.293457
0.318878 0.393616 0.288788
0.424042 0.385040 0.284698
0.550995 0.378418 0.283875
0.679108 0.371796 0.283569
0.785095 0.365051 0.283539
0.870209 0.358978 0.283539
0.940002 0.354858 0.283539
0.996094 0.353973 0.283173
1.000000 0.353882 0.283173
1.000000 0.353912 0.283173
1.000000 0.353973 0.283173
0.027435 0.466309 0.296539
0.027435 0.475311 0.297424
0.054108 0.481476 0.297424
0.125336 0.484009 0.296875
0.198547 0.481537 0.293396
0.288544 0.473450 0.288696
0.394775 0.464539 0.284576
0.521637 0.457184 0.283752
0.649872 0.450104 0.283447
0.756134 0.442902 0.283386
0.841187 0.436432 0.283417
0.911072 0.432007 0.283386
0.966675 0.430695 0.282990
1.000000 0.430725 0.282990
1.000000 0.430695 0.282990
1.000000 0.430695 0.282990
0.027435 0.559418 0.296967
0.027435 0.568970 0.298035
0.027435 0.575287 0.298035
0.086731 0.577728 0.297424
0.162445 0.575287 0.293823
0.254517 0.567444 0.288910
0.360229 0.557495 0.284576
0.488434 0.550385 0.283661
0.616089 0.542908 0.283386
0.721283 0.535065 0.283356
0.806427 0.528320 0.283356
0.874359 0.522034 0.282959
0.931488 0.522034 0.282959
0.982269 0.522034 0.282959
1.000000 0.522034 0.282959
1.000000 0.522034 0.282959
0.027435 0.636566 0.299438
0.027435 0.644135 0.300293
0.027435 0.664886 0.300293
0.052582 0.670288 0.305298
0.120483 0.661713 0.315643
0.218414 0.644226 0.306549
0.353912 0.630554 0.285675
0.470276 0.630127 0.283661
0.589111 0.627838 0.283386
0.696320 0.617645 0.283356
0.780853 0.604370 0.284058
0.836639 0.606720 0.300262
0.891907 0.618256 0.303925
0.947052 0.625946 0.290405
0.993896 0.622223 0.285004
1.000000 0.604919 0.285004
0.027435 0.722137 0.297607
0.027435 0.727692 0.298523
0.027435 0.731873 0.298645
0.027435 0.733704 0.298126
0.097076 0.731903 0.294189
0.191681 0.726959 0.289124
0.297302 0.720978 0.284576
0.424500 0.716309 0.283661
0.550659 0.711578 0.283325
0.652557 0.704773 0.282928
0.736694 0.700439 0.282928
0.805054 0.697357 0.282928
0.861908 0.697327 0.282928
0.912537 0.697327 0.282928
0.961456 0.697327 0.282928
1.000000 0.697357 0.282928
0.027435 0.780731 0.297729
0.027435 0.785309 0.298828
0.027435 0.788574 0.298920
0.027435 0.789764 0.298309
0.071808 0.788208 0.294250
0.167084 0.784271 0.289124
0.273407 0.779846 0.284576
0.399139 0.774689 0.283295
0.523834 0.770874 0.282959
0.627533 0.767120 0.282928
0.711273 0.763885 0.282928
0.779663 0.761536 0.282898
0.836609 0.761536 0.282867
0.886963 0.761536 0.282898
0.935669 0.761536 0.282928
1.000000 0.761536 0.282867
0.027435 0.827362 0.297607
0.027435 0.830688 0.298645
0.027435 0.834686 0.299194
0.027435 0.835632 0.298553
0.051300 0.834717 0.294617
0.146881 0.830170 0.288910
0.252411 0.826660 0.284271
0.378571 0.824066 0.283356
0.504425 0.821350 0.282990
0.607117 0.818512 0.282959
0.690369 0.816040 0.282959
0.758057 0.814270 0.282959
0.815125 0.814301 0.282959
0.865662 0.814301 0.282959
0.913483 0.812622 0.282562
0.997955 0.812653 0.282532
0.027435 0.868469 0.297791
0.027435 0.870819 0.298828
0.027435 0.872498 0.298828
0.027435 0.873260 0.298309
0.033630 0.872681 0.294373
0.130951 0.870544 0.288971
0.236908 0.868011 0.284271
0.363007 0.866058 0.283356
0.487762 0.864136 0.282990
0.590363 0.862061 0.282959
0.672821 0.860321 0.282959
0.740387 0.859070 0.282959
0.795837 0.857513 0.282532
0.846405 0.857544 0.282532
0.895386 0.857544 0.282532
0.979767 0.857513 0.282532
0.027435 0.904846 0.297913
0.027435 0.906403 0.298920
0.027435 0.907593 0.299042
0.027435 0.908020 0.298401
0.027435 0.907593 0.294373
0.114960 0.906189 0.288971
0.221527 0.904480 0.284271
0.347504 0.903229 0.283356
0.472137 0.901978 0.282990
0.574493 0.900665 0.282959
0.654907 0.898102 0.282532
0.722443 0.897247 0.282532
0.779419 0.897247 0.282532
0.830017 0.897247 0.282532
0.879120 0.897247 0.282532
0.963562 0.897278 0.282532
0.027435 0.940063 0.298157
0.027435 0.940948 0.299225
0.027435 0.941620 0.299408
0.027435 0.941864 0.298706
0.027435 0.941589 0.294617
0.101288 0.940796 0.289124
0.208923 0.939880 0.284271
0.331696 0.938080 0.282959
0.456451 0.937378 0.282532
0.557861 0.936584 0.282532
0.640198 0.935974 0.282532
0.707428 0.935486 0.282501
0.764313 0.935486 0.282501
0.814789 0.935486 0.282501
0.863678 0.935486 0.282501
0.948334 0.934418 0.282104
0.027435 1.000000 0.297852
0.027435 1.000000 0.299042
0.027435 1.000000 0.299469
0.027435 1.000000 0.298737
0.027435 1.000000 0.294220
0.070770 1.000000 0.288788
0.180389 1.000000 0.283966
0.305634 1.000000 0.283020
0.429779 1.000000 0.282654
0.531891 1.000000 0.282623
0.613342 1.000000 0.282654
0.680786 1.000000 0.282623
0.737518 1.000000 0.282623
0.786316 1.000000 0.282227
0.835693 1.000000 0.282227
0.921539 1.000000 0.282227
0.090515 0.154144 0.329163
0.133362 0.154144 0.330597
0.188568 0.153900 0.330170
0.250732 0.153900 0.329315
0.317261 0.153900 0.323975
0.400696 0.153900 0.316711
0.501617 0.153900 0.310333
0.625519 0.153900 0.308929
0.753479 0.153900 0.308380
0.858917 0.153900 0.308319
0.941223 0.153595 0.307831
1.000000 0.153595 0.307861
1.000000 0.153595 0.307861
1.000000 0.153595 0.307861
1.000000 0.153595 0.307861
1.000000 0.153595 0.307861
0.076477 0.191010 0.329468
0.119202 0.193359 0.330994
0.175140 0.195007 0.331116
0.237244 0.195251 0.329651
0.304321 0.194672 0.324188
0.389313 0.192688 0.316895
0.491058 0.190308 0.310333
0.616150 0.188568 0.308899
0.743530 0.186646 0.308350
0.849670 0.184753 0.308289
0.934601 0.183044 0.308289
1.000000 0.181519 0.307770
1.000000 0.181549 0.307770
1.000000 0.181549 0.307770
1.000000 0.181519 0.307770
1.000000 0.181549 0.307770
0.060486 0.229858 0.329834
0.103790 0.234772 0.332001
0.161163 0.238007 0.332123
0.224884 0.238678 0.330597
0.293030 0.237518 0.324799
0.378754 0.233551 0.317017
0.481415 0.229004 0.310150
0.606689 0.225464 0.308594
0.734436 0.221954 0.308044
0.840240 0.218323 0.307953
0.925293 0.215118 0.307953
0.992767 0.212433 0.307495
1.000000 0.212433 0.307495
1.000000 0.212433 0.307495
1.000000 0.212433 0.307495
1.000000 0.212433 0.307495
0.042084 0.272308 0.330017
0.085388 0.278931 0.332184
0.143463 0.283630 0.332520
0.208221 0.284973 0.331390
0.276215 0.282715 0.324921
0.362823 0.277313 0.317047
0.466217 0.271118 0.310150
0.592041 0.266449 0.308563
0.720703 0.261871 0.307953
0.826843 0.256897 0.307892
0.912140 0.252594 0.307892
0.982208 0.249603 0.307892
1.000000 0.249054 0.307404
1.000000 0.249023 0.307434
1.000000 0.249054 0.307404
1.000000 0.249054 0.307404
0.027435 0.322937 0.330841
0.063080 0.329926 0.332306
0.122528 0.336487 0.333221
0.189117 0.338562 0.332306
0.258606 0.336029 0.325684
0.346130 0.329376 0.317383
0.450226 0.321716 0.310150
0.576538 0.315887 0.308502
0.704651 0.310089 0.307892
0.810638 0.304138 0.307800
0.896118 0.298889 0.307800
0.965820 0.295227 0.307800
1.000000 0.294525 0.307343
1.000000 0.294434 0.307373
1.000000 0.294586 0.307343
1.000000 0.294586 0.307343
0.027435 0.386658 0.331696
0.034149 0.394989 0.333374
0.095825 0.402252 0.334167
0.164429 0.404602 0.333099
0.234772 0.401184 0.326202
0.323181 0.393616 0.317596
0.427765 0.385040 0.310150
0.554565 0.378418 0.308441
0.682587 0.371796 0.307800
0.788574 0.365051 0.307770
0.874023 0.359009 0.307770
0.943695 0.354919 0.307770
0.999542 0.353973 0.307281
1.000000 0.353912 0.307312
1.000000 0.353912 0.307312
1.000000 0.353912 0.307312
0.027435 0.466614 0.332123
0.027435 0.475677 0.333862
0.060455 0.481934 0.333862
0.131378 0.484436 0.332794
0.203522 0.481537 0.326202
0.293243 0.473846 0.317535
0.398102 0.464172 0.309937
0.525726 0.457458 0.308197
0.653748 0.450287 0.307526
0.759644 0.442902 0.307495
0.844849 0.436462 0.307495
0.914551 0.432007 0.307495
0.970245 0.430725 0.307037
1.000000 0.430725 0.307037
1.000000 0.430695 0.307037
1.000000 0.430725 0.307037
0.027435 0.559418 0.332764
0.027435 0.568604 0.334564
0.027435 0.575287 0.334717
0.092712 0.577728 0.333679
0.167633 0.575287 0.326935
0.258362 0.567078 0.317841
0.363983 0.557495 0.309937
0.491455 0.550140 0.308136
0.619598 0.542908 0.307465
0.725128 0.535126 0.307373
0.809937 0.528320 0.307404
0.877625 0.522034 0.306915
0.935089 0.522034 0.306885
0.985840 0.522034 0.306885
1.000000 0.522034 0.306915
1.000000 0.522034 0.306915
0.027435 0.640808 0.335358
0.027435 0.641266 0.337006
0.027435 0.661774 0.337402
0.062042 0.670685 0.338287
0.132996 0.664276 0.345093
0.208801 0.651306 0.343872
0.347717 0.631592 0.318756
0.482300 0.624542 0.309296
0.603729 0.619537 0.307953
0.705566 0.612000 0.308563
0.779419 0.605377 0.315674
0.834717 0.614014 0.332306
0.897858 0.621521 0.324432
0.951202 0.626404 0.311188
0.997162 0.618378 0.309052
1.000000 0.602142 0.309082
0.027435 0.722137 0.333954
0.027435 0.727936 0.335815
0.027435 0.732117 0.336029
0.027435 0.733459 0.334717
0.103088 0.732178 0.327759
0.196136 0.726959 0.318207
0.301605 0.721130 0.309906
0.427460 0.716156 0.308105
0.554138 0.711578 0.307343
0.656738 0.704926 0.306763
0.740143 0.700439 0.306763
0.808716 0.697388 0.306763
0.865448 0.697357 0.306793
0.916199 0.697388 0.306763
0.964905 0.697357 0.306793
1.000000 0.697357 0.306793
0.027435 0.780579 0.333954
0.027435 0.784821 0.335632
0.027435 0.788361 0.336212
0.027435 0.789551 0.335083
0.077911 0.788391 0.327911
0.172729 0.784607 0.318329
0.277191 0.779846 0.309906
0.401581 0.774445 0.307526
0.527863 0.770935 0.306854
0.631683 0.767242 0.306732
0.714722 0.763885 0.306763
0.782898 0.761536 0.306763
0.839966 0.761536 0.306732
0.890411 0.761536 0.306732
0.939178 0.761536 0.306732
1.000000 0.761536 0.306732
0.027435 0.827362 0.334137
0.027435 0.830688 0.336029
0.027435 0.834686 0.336823
0.027435 0.835632 0.335663
0.057526 0.834869 0.328522
0.151459 0.830170 0.318115
0.256226 0.826660 0.309631
0.383392 0.824188 0.307678
0.507935 0.821350 0.307007
0.610626 0.818512 0.306915
0.693848 0.816040 0.306915
0.761505 0.814270 0.306915
0.818695 0.814301 0.306885
0.869049 0.814301 0.306915
0.916931 0.812622 0.306427
1.000000 0.812653 0.306396
0.027435 0.868469 0.334473
0.027435 0.870819 0.336395
0.027435 0.872620 0.336578
0.027435 0.873352 0.335602
0.039490 0.872681 0.328217
0.135590 0.870544 0.318268
0.240723 0.868011 0.309631
0.366608 0.866058 0.307678
0.491241 0.864136 0.306946
0.594116 0.862091 0.306854
0.676270 0.860321 0.306854
0.743835 0.859070 0.306854
0.799286 0.857513 0.306366
0.849701 0.857513 0.306366
0.898834 0.857544 0.306366
0.983185 0.857544 0.306366
0.027435 0.904846 0.334625
0.027435 0.906403 0.336578
0.027435 0.907593 0.336792
0.027435 0.908020 0.335602
0.027435 0.907593 0.328217
0.119659 0.906189 0.318268
0.225311 0.904480 0.309631
0.351135 0.903229 0.307678
0.475647 0.901978 0.306946
0.578003 0.900665 0.306854
0.658356 0.898102 0.306366
0.725891 0.897247 0.306366
0.782898 0.897247 0.306366
0.833588 0.897247 0.306366
0.882629 0.897247 0.306366
0.966949 0.897278 0.306366
0.027435 0.940094 0.335266
0.027435 0.940948 0.337189
0.027435 0.941620 0.337524
0.027435 0.941864 0.336121
0.027435 0.941620 0.328705
0.106720 0.940857 0.318481
0.212219 0.939850 0.309631
0.336487 0.938141 0.307159
0.459473 0.937317 0.306427
0.561707 0.936584 0.306335
0.643646 0.935974 0.306366
0.710876 0.935486 0.306335
0.767761 0.935486 0.306305
0.818237 0.935486 0.306305
0.867188 0.935486 0.306305
0.951782 0.934418 0.305817
0.027435 1.000000 0.334625
0.027435 1.000000 0.336609
0.027435 1.000000 0.337830
0.027435 1.000000 0.336395
0.027435 1.000000 0.328247
0.077087 1.000000 0.318176
0.183044 1.000000 0.309326
0.309235 1.000000 0.307343
0.433777 1.000000 0.306549
0.535065 1.000000 0.306519
0.616821 1.000000 0.306549
0.684235 1.000000 0.306488
0.738800 1.000000 0.306030
0.789734 1.000000 0.306000
0.839020 1.000000 0.306030
0.924927 1.000000 0.306000
0.096771 0.154144 0.367065
0.139496 0.154144 0.369019
0.194763 0.153900 0.368744
0.256989 0.153900 0.367523
0.323212 0.153900 0.360168
0.406342 0.153900 0.350220
0.506195 0.153900 0.341553
0.630524 0.153900 0.339203
0.757874 0.153900 0.338409
0.862915 0.153900 0.338318
0.945313 0.153595 0.337738
1.000000 0.153595 0.337738
1.000000 0.153595 0.337738
1.000000 0.153595 0.337738
1.000000 0.153595 0.337738
1.000000 0.153595 0.337738
0.082764 0.191284 0.367615
0.125397 0.193390 0.369171
0.181244 0.195068 0.369354
0.243317 0.195313 0.367493
0.310638 0.194824 0.360199
0.395325 0.192871 0.350189
0.496216 0.190338 0.341248
0.620117 0.188416 0.338959
0.748932 0.186676 0.338043
0.854523 0.184753 0.337982
0.939148 0.183014 0.337982
1.000000 0.181549 0.337280
1.000000 0.181519 0.337311
1.000000 0.181549 0.337280
1.000000 0.181549 0.337280
1.000000 0.181458 0.337341
0.066956 0.229858 0.368073
0.110168 0.234772 0.370941
0.167267 0.238007 0.371124
0.230713 0.238678 0.369141
0.298462 0.237518 0.361206
0.383728 0.233551 0.350525
0.486023 0.229004 0.341248
0.611176 0.225464 0.338806
0.738800 0.221954 0.337891
0.844604 0.218323 0.337799
0.929626 0.215118 0.337799
0.997101 0.212433 0.337189
1.000000 0.212433 0.337189
1.000000 0.212433 0.337189
1.000000 0.212433 0.337189
1.000000 0.212433 0.337189
0.048676 0.272308 0.368286
0.091888 0.278931 0.371124
0.149445 0.283325 0.371368
0.214508 0.285278 0.370331
0.281677 0.282715 0.361359
0.367828 0.277313 0.350647
0.470795 0.271118 0.341248
0.597534 0.266754 0.338715
0.724731 0.261688 0.337860
0.831543 0.256989 0.337708
0.916504 0.252594 0.337738
0.986572 0.249603 0.337708
1.000000 0.249023 0.337128
1.000000 0.249054 0.337036
1.000000 0.249054 0.337036
1.000000 0.249054 0.337036
0.027435 0.322937 0.369446
0.069641 0.330231 0.371674
0.129089 0.336914 0.372864
0.195465 0.338898 0.371552
0.264130 0.336029 0.362396
0.351196 0.329376 0.351074
0.454834 0.321716 0.341248
0.581024 0.315887 0.338654
0.709045 0.310089 0.337677
0.814972 0.304138 0.337555
0.900452 0.298889 0.337555
0.970154 0.295227 0.337555
1.000000 0.294617 0.336914
1.000000 0.294586 0.336945
1.000000 0.294525 0.336975
1.000000 0.294586 0.336945
0.027435 0.386658 0.370605
0.041016 0.394989 0.372894
0.102386 0.402252 0.373871
0.170563 0.404602 0.372498
0.240326 0.401184 0.363068
0.328217 0.393616 0.351410
0.432404 0.385040 0.341248
0.559021 0.378418 0.338562
0.686951 0.371796 0.337524
0.792908 0.365051 0.337433
0.878326 0.359009 0.337433
0.947998 0.354919 0.337433
1.000000 0.353973 0.336823
1.000000 0.353973 0.336823
1.000000 0.353973 0.336823
1.000000 0.353973 0.336823
0.027435 0.466309 0.370972
0.027435 0.476044 0.373810
0.067169 0.481934 0.373535
0.137634 0.484436 0.372131
0.210388 0.482819 0.363586
0.298340 0.473846 0.351349
0.403107 0.464539 0.340942
0.530151 0.457458 0.338257
0.658081 0.450287 0.337189
0.763977 0.442902 0.337067
0.849152 0.436462 0.337067
0.917084 0.430725 0.336456
0.974548 0.430725 0.336456
1.000000 0.430725 0.336456
1.000000 0.430725 0.336456
1.000000 0.430725 0.336456
