Color Lookup Presets Effects/z1 (61).CUBE
#Created by: Adobe Photoshop Export Color Lookup Plugin
#Copyright: (C) Copyright 2014 www.zafizack.com
TITLE "RedVania"
#LUT size
LUT_3D_SIZE 16
#data domain
DOMAIN_MIN 0.0 0.0 0.0
DOMAIN_MAX 1.0 1.0 1.0
#LUT data points
0.000000 0.000000 0.000000
0.082214 0.040070 0.000000
0.162201 0.077972 0.000000
0.239960 0.113831 0.000000
0.315491 0.147583 0.000000
0.388824 0.179230 0.000000
0.459930 0.208740 0.000000
0.528809 0.243164 0.000000
0.595459 0.280823 0.000000
0.659912 0.319244 0.000000
0.722137 0.358368 0.000000
0.782166 0.398254 0.000000
0.839935 0.438873 0.000000
0.895508 0.480225 0.000000
0.948853 0.522278 0.000000
1.000000 0.565094 0.000000
0.000000 0.000000 0.000000
0.082214 0.040070 0.000000
0.162201 0.077972 0.000000
0.239960 0.113831 0.000000
0.315491 0.147583 0.000000
0.388824 0.179230 0.000000
0.459930 0.208740 0.000000
0.528809 0.243164 0.000000
0.595459 0.280823 0.000000
0.659912 0.319244 0.000000
0.722137 0.358368 0.000000
0.782166 0.398254 0.000000
0.839935 0.438873 0.000000
0.895508 0.480225 0.000000
0.948853 0.522278 0.000000
1.000000 0.565094 0.000000
0.000000 0.000000 0.000000
0.082214 0.040070 0.000000
0.162201 0.077972 0.000000
0.239960 0.113831 0.000000
0.315491 0.147583 0.000000
0.388824 0.179230 0.000000
0.459930 0.208740 0.000000
0.528809 0.243164 0.000000
0.595459 0.280823 0.000000
0.659912 0.319244 0.000000
0.722137 0.358368 0.000000
0.782166 0.398254 0.000000
0.839935 0.438873 0.000000
0.895508 0.480225 0.000000
0.948853 0.522278 0.000000
1.000000 0.565094 0.000000
0.000000 0.000000 0.000000
0.082214 0.040070 0.000000
0.162201 0.077972 0.000000
0.239960 0.113831 0.000000
0.315491 0.147583 0.000000
0.388824 0.179230 0.000000
0.459930 0.208740 0.000000
0.528809 0.243164 0.000000
0.595459 0.280823 0.000000
0.659912 0.319244 0.000000
0.722137 0.358368 0.000000
0.782166 0.398254 0.000000
0.839935 0.438873 0.000000
0.895508 0.480225 0.000000
0.948853 0.522278 0.000000
1.000000 0.565094 0.000000
0.000000 0.000000 0.000000
0.082214 0.040070 0.000000
0.162201 0.077972 0.000000
0.239960 0.113831 0.000000
0.315491 0.147583 0.000000
0.388824 0.179230 0.000000
0.459930 0.208740 0.000000
0.528809 0.243164 0.000000
0.595459 0.280823 0.000000
0.659912 0.319244 0.000000
0.722137 0.358368 0.000000
0.782166 0.398254 0.000000
0.839935 0.438873 0.000000
0.895508 0.480225 0.000000
0.948853 0.522278 0.000000
1.000000 0.565094 0.000000
0.000000 0.000000 0.000000
0.082214 0.040070 0.000000
0.162201 0.077972 0.000000
0.239960 0.113831 0.000000
0.315491 0.147583 0.000000
0.388824 0.179230 0.000000
0.459930 0.208740 0.000000
0.528809 0.243164 0.000000
0.595459 0.280823 0.000000
0.659912 0.319244 0.000000
0.722137 0.358368 0.000000
0.782166 0.398254 0.000000
0.839935 0.438873 0.000000
0.895508 0.480225 0.000000
0.948853 0.522278 0.000000
1.000000 0.565094 0.000000
0.000000 0.000000 0.000000
0.082214 0.040070 0.000000
0.162201 0.077972 0.000000
0.239960 0.113831 0.000000
0.315491 0.147583 0.000000
0.388824 0.179230 0.000000
0.459930 0.208740 0.000000
0.528809 0.243164 0.000000
0.595459 0.280823 0.000000
0.659912 0.319244 0.000000
0.722137 0.358368 0.000000
0.782166 0.398254 0.000000
0.839935 0.438873 0.000000
0.895508 0.480225 0.000000
0.948853 0.522278 0.000000
1.000000 0.565094 0.000000
0.000000 0.000000 0.000000
0.082214 0.040070 0.000000
0.162201 0.077972 0.000000
0.239960 0.113831 0.000000
0.315491 0.147583 0.000000
0.388824 0.179230 0.000000
0.459930 0.208740 0.000000
0.528809 0.243164 0.000000
0.595459 0.280823 0.000000
0.659912 0.319244 0.000000
0.722137 0.358368 0.000000
0.782166 0.398254 0.000000
0.839935 0.438873 0.000000
0.895508 0.480225 0.000000
0.948853 0.522278 0.000000
1.000000 0.565094 0.000000
0.000000 0.000000 0.000000
0.082214 0.040070 0.000000
0.162201 0.077972 0.000000
0.239960 0.113831 0.000000
0.315491 0.147583 0.000000
0.388824 0.179230 0.000000
0.459930 0.208740 0.000000
0.528809 0.243164 0.000000
0.595459 0.280823 0.000000
0.659912 0.319244 0.000000
0.722137 0.358368 0.000000
0.782166 0.398254 0.000000
0.839935 0.438873 0.000000
0.895508 0.480225 0.000000
0.948853 0.522278 0.000000
1.000000 0.565094 0.000000
0.000000 0.000000 0.000000
0.082214 0.040070 0.000000
0.162201 0.077972 0.000000
0.239960 0.113831 0.000000
0.315491 0.147583 0.000000
0.388824 0.179230 0.000000
0.459930 0.208740 0.000000
0.528809 0.243164 0.000000
0.595459 0.280823 0.000000
0.659912 0.319244 0.000000
0.722137 0.358368 0.000000
0.782166 0.398254 0.000000
0.839935 0.438873 0.000000
0.895508 0.480225 0.000000
0.948853 0.522278 0.000000
1.000000 0.565094 0.000000
0.000000 0.000000 0.000000
0.082214 0.040070 0.000000
0.162201 0.077972 0.000000
0.239960 0.113831 0.000000
0.315491 0.147583 0.000000
0.388824 0.179230 0.000000
0.459930 0.208740 0.000000
0.528809 0.243164 0.000000
0.595459 0.280823 0.000000
0.659912 0.319244 0.000000
0.722137 0.358368 0.000000
0.782166 0.398254 0.000000
0.839935 0.438873 0.000000
0.895508 0.480225 0.000000
0.948853 0.522278 0.000000
1.000000 0.565094 0.000000
0.000000 0.000000 0.000000
0.082214 0.040070 0.000000
0.162201 0.077972 0.000000
0.239960 0.113831 0.000000
0.315491 0.147583 0.000000
0.388824 0.179230 0.000000
0.459930 0.208740 0.000000
0.528809 0.243164 0.000000
0.595459 0.280823 0.000000
0.659912 0.319244 0.000000
0.722137 0.358368 0.000000
0.782166 0.398254 0.000000
0.839935 0.438873 0.000000
0.895508 0.480225 0.000000
0.948853 0.522278 0.000000
1.000000 0.565094 0.000000
0.000000 0.000000 0.000000
0.082214 0.040070 0.000000
0.162201 0.077972 0.000000
0.239960 0.113831 0.000000
0.315491 0.147583 0.000000
0.388824 0.179230 0.000000
0.459930 0.208740 0.000000
0.528809 0.243164 0.000000
0.595459 0.280823 0.000000
0.659912 0.319244 0.000000
0.722137 0.358368 0.000000
0.782166 0.398254 0.000000
0.839935 0.438873 0.000000
0.895508 0.480225 0.000000
0.948853 0.522278 0.000000
1.000000 0.565094 0.000000
0.000000 0.000000 0.000000
0.082214 0.040070 0.000000
0.162201 0.077972 0.000000
0.239960 0.113831 0.000000
0.315491 0.147583 0.000000
0.388824 0.179230 0.000000
0.459930 0.208740 0.000000
0.528809 0.243164 0.000000
0.595459 0.280823 0.000000
0.659912 0.319244 0.000000
0.722137 0.358368 0.000000
0.782166 0.398254 0.000000
0.839935 0.438873 0.000000
0.895508 0.480225 0.000000
0.948853 0.522278 0.000000
1.000000 0.565094 0.000000
0.000000 0.000000 0.000000
0.082214 0.040070 0.000000
0.162201 0.077972 0.000000
0.239960 0.113831 0.000000
0.315491 0.147583 0.000000
0.388824 0.179230 0.000000
0.459930 0.208740 0.000000
0.528809 0.243164 0.000000
0.595459 0.280823 0.000000
0.659912 0.319244 0.000000
0.722137 0.358368 0.000000
0.782166 0.398254 0.000000
0.839935 0.438873 0.000000
0.895508 0.480225 0.000000
0.948853 0.522278 0.000000
1.000000 0.565094 0.000000
0.000000 0.000000 0.000000
0.082214 0.040070 0.000000
0.162201 0.077972 0.000000
0.239960 0.113831 0.000000
0.315491 0.147583 0.000000
0.388824 0.179230 0.000000
0.459930 0.208740 0.000000
0.528809 0.243164 0.000000
0.595459 0.280823 0.000000
0.659912 0.319244 0.000000
0.722137 0.358368 0.000000
0.782166 0.398254 0.000000
0.839935 0.438873 0.000000
0.895508 0.480225 0.000000
0.948853 0.522278 0.000000
1.000000 0.565094 0.000000
0.000000 0.055054 0.087982
0.066681 0.083344 0.076965
0.140961 0.118195 0.066681
0.222778 0.149445 0.066681
0.301941 0.178528 0.066681
0.378845 0.204559 0.064850
0.453430 0.228027 0.060242
0.525238 0.256622 0.055603
0.594299 0.285919 0.050995
0.660583 0.316040 0.046387
0.724060 0.346863 0.041748
0.784821 0.378418 0.037140
0.842743 0.410919 0.032501
0.897949 0.444122 0.027893
0.950348 0.478058 0.023254
1.000000 0.512817 0.018646
0.000000 0.041260 0.078003
0.066681 0.073395 0.070831
0.146576 0.107300 0.066681
0.228455 0.137451 0.064148
0.308014 0.164429 0.059509
0.384796 0.189331 0.054901
0.458801 0.211884 0.050262
0.530060 0.238495 0.045654
0.598480 0.267914 0.041046
0.664185 0.297974 0.036407
0.727081 0.328827 0.031799
0.787201 0.360474 0.027161
0.844543 0.392975 0.022552
0.899139 0.426117 0.017914
0.950958 0.459900 0.013306
1.000000 0.494629 0.008667
0.000000 0.027466 0.068054
0.067902 0.063293 0.064667
0.153900 0.093323 0.058807
0.235657 0.122589 0.054199
0.314606 0.149567 0.049561
0.390778 0.174377 0.044952
0.464172 0.196960 0.040314
0.534790 0.220459 0.035706
0.602661 0.249756 0.031067
0.667755 0.279877 0.026459
0.730072 0.310638 0.021820
0.789612 0.342316 0.017212
0.846344 0.374847 0.012573
0.900360 0.407959 0.007965
0.951569 0.441895 0.003326
1.000000 0.479034 0.000000
0.000000 0.016968 0.066681
0.071625 0.053040 0.058533
0.161682 0.078918 0.048859
0.242859 0.108093 0.044220
0.321136 0.135132 0.039612
0.396759 0.159882 0.034973
0.469543 0.182434 0.030365
0.539581 0.202759 0.025726
0.606842 0.231476 0.021118
0.671326 0.261597 0.016479
0.733063 0.292389 0.011871
0.791992 0.324127 0.007233
0.848145 0.356506 0.002625
0.901306 0.393433 0.000000
0.951752 0.435699 0.000000
1.000000 0.479034 0.000000
0.000000 0.007019 0.066681
0.075348 0.042908 0.052399
0.169464 0.064880 0.038879
0.250000 0.094055 0.034271
0.327759 0.120941 0.029633
0.402740 0.145721 0.025024
0.474945 0.168121 0.020386
0.544373 0.188538 0.015778
0.611053 0.212921 0.011139
0.674927 0.243164 0.006531
0.736023 0.274048 0.001923
0.793732 0.310822 0.000000
0.848602 0.351776 0.000000
0.901306 0.393433 0.000000
0.951752 0.435699 0.000000
1.000000 0.479034 0.000000
0.002930 0.000000 0.066681
0.079071 0.032867 0.046265
0.177216 0.051208 0.028931
0.257172 0.080322 0.024292
0.334320 0.107269 0.019684
0.408722 0.131927 0.015045
0.480316 0.154388 0.010437
0.549194 0.174622 0.005798
0.615204 0.194458 0.001190
0.677277 0.231018 0.000000
0.736633 0.270416 0.000000
0.793732 0.310822 0.000000
0.848602 0.351776 0.000000
0.901306 0.393433 0.000000
0.951752 0.435699 0.000000
1.000000 0.479034 0.000000
0.012909 0.000000 0.066681
0.082825 0.022949 0.040131
0.184998 0.037933 0.018951
0.264374 0.066986 0.014343
0.340881 0.093903 0.009735
0.414673 0.118561 0.005096
0.485718 0.140930 0.000488
0.551971 0.166748 0.000000
0.615723 0.192230 0.000000
0.677277 0.231018 0.000000
0.736633 0.270416 0.000000
0.793732 0.310822 0.000000
0.848602 0.351776 0.000000
0.901306 0.393433 0.000000
0.951752 0.435699 0.000000
1.000000 0.479034 0.000000
0.022858 0.000000 0.066681
0.086548 0.013153 0.033966
0.192780 0.025024 0.009003
0.271545 0.054047 0.004364
0.347321 0.081207 0.000000
0.417755 0.111816 0.000000
0.485962 0.140289 0.000000
0.551971 0.166748 0.000000
0.615723 0.192230 0.000000
0.677277 0.231018 0.000000
0.736633 0.270416 0.000000
0.793732 0.310822 0.000000
0.848602 0.351776 0.000000
0.901306 0.393433 0.000000
0.951752 0.435699 0.000000
1.000000 0.479034 0.000000
0.032806 0.000000 0.066681
0.090271 0.003510 0.027832
0.199799 0.013702 0.000000
0.274689 0.048492 0.000000
0.347321 0.081207 0.000000
0.417755 0.111816 0.000000
0.485962 0.140289 0.000000
0.551971 0.166748 0.000000
0.615723 0.192230 0.000000
0.677277 0.231018 0.000000
0.736633 0.270416 0.000000
0.793732 0.310822 0.000000
0.848602 0.351776 0.000000
0.901306 0.393433 0.000000
0.951752 0.435699 0.000000
1.000000 0.479034 0.000000
0.041107 0.000000 0.066681
0.091644 0.000000 0.025574
0.199799 0.013702 0.000000
0.274689 0.048492 0.000000
0.347321 0.081207 0.000000
0.417755 0.111816 0.000000
0.485962 0.140289 0.000000
0.551971 0.166748 0.000000
0.615723 0.192230 0.000000
0.677277 0.231018 0.000000
0.736633 0.270416 0.000000
0.793732 0.310822 0.000000
0.848602 0.351776 0.000000
0.901306 0.393433 0.000000
0.951752 0.435699 0.000000
1.000000 0.479034 0.000000
0.041107 0.000000 0.066681
0.091644 0.000000 0.025574
0.199799 0.013702 0.000000
0.274689 0.048492 0.000000
0.347321 0.081207 0.000000
0.417755 0.111816 0.000000
0.485962 0.140289 0.000000
0.551971 0.166748 0.000000
0.615723 0.192230 0.000000
0.677277 0.231018 0.000000
0.736633 0.270416 0.000000
0.793732 0.310822 0.000000
0.848602 0.351776 0.000000
0.901306 0.393433 0.000000
0.951752 0.435699 0.000000
1.000000 0.479034 0.000000
0.041107 0.000000 0.066681
0.091644 0.000000 0.025574
0.199799 0.013702 0.000000
0.274689 0.048492 0.000000
0.347321 0.081207 0.000000
0.417755 0.111816 0.000000
0.485962 0.140289 0.000000
0.551971 0.166748 0.000000
0.615723 0.192230 0.000000
0.677277 0.231018 0.000000
0.736633 0.270416 0.000000
0.793732 0.310822 0.000000
0.848602 0.351776 0.000000
0.901306 0.393433 0.000000
0.951752 0.435699 0.000000
1.000000 0.479034 0.000000
0.041107 0.000000 0.066681
0.091644 0.000000 0.025574
0.199799 0.013702 0.000000
0.274689 0.048492 0.000000
0.347321 0.081207 0.000000
0.417755 0.111816 0.000000
0.485962 0.140289 0.000000
0.551971 0.166748 0.000000
0.615723 0.192230 0.000000
0.677277 0.231018 0.000000
0.736633 0.270416 0.000000
0.793732 0.310822 0.000000
0.848602 0.351776 0.000000
0.901306 0.393433 0.000000
0.951752 0.435699 0.000000
1.000000 0.479034 0.000000
0.041107 0.000000 0.066681
0.091644 0.000000 0.025574
0.199799 0.013702 0.000000
0.274689 0.048492 0.000000
0.347321 0.081207 0.000000
0.417755 0.111816 0.000000
0.485962 0.140289 0.000000
0.551971 0.166748 0.000000
0.615723 0.192230 0.000000
0.677277 0.231018 0.000000
0.736633 0.270416 0.000000
0.793732 0.310822 0.000000
0.848602 0.351776 0.000000
0.901306 0.393433 0.000000
0.951752 0.435699 0.000000
1.000000 0.479034 0.000000
0.041107 0.000000 0.066681
0.091644 0.000000 0.025574
0.199799 0.013702 0.000000
0.274689 0.048492 0.000000
0.347321 0.081207 0.000000
0.417755 0.111816 0.000000
0.485962 0.140289 0.000000
0.551971 0.166748 0.000000
0.615723 0.192230 0.000000
0.677277 0.231018 0.000000
0.736633 0.270416 0.000000
0.793732 0.310822 0.000000
0.848602 0.351776 0.000000
0.901306 0.393433 0.000000
0.951752 0.435699 0.000000
1.000000 0.479034 0.000000
0.041107 0.000000 0.066681
0.091644 0.000000 0.025574
0.199799 0.013702 0.000000
0.274689 0.048492 0.000000
0.347321 0.081207 0.000000
0.417755 0.111816 0.000000
0.485962 0.140289 0.000000
0.551971 0.166748 0.000000
0.615723 0.192230 0.000000
0.677277 0.231018 0.000000
0.736633 0.270416 0.000000
0.793732 0.310822 0.000000
0.848602 0.351776 0.000000
0.901306 0.393433 0.000000
0.951752 0.435699 0.000000
1.000000 0.479034 0.000000
0.000000 0.110016 0.175903
0.066681 0.144745 0.171295
0.133331 0.166656 0.153870
0.196869 0.200012 0.133331
0.279572 0.233154 0.133331
0.358185 0.261658 0.133331
0.434143 0.291565 0.133331
0.507507 0.322357 0.133331
0.578247 0.353760 0.133331
0.646362 0.386108 0.133331
0.712158 0.417297 0.129700
0.775269 0.448853 0.125061
0.835602 0.481201 0.120453
0.893188 0.514282 0.115814
0.947968 0.548309 0.111206
1.000000 0.582825 0.106567
0.000000 0.096252 0.165955
0.066681 0.130951 0.161316
0.133331 0.156708 0.147736
0.203583 0.191864 0.133331
0.284332 0.221130 0.133331
0.362518 0.248901 0.133331
0.438019 0.278900 0.133331
0.510986 0.309631 0.133331
0.581757 0.339050 0.128967
0.649872 0.368958 0.124329
0.715149 0.399841 0.119720
0.777679 0.431427 0.115112
0.837402 0.463745 0.110474
0.894379 0.496918 0.105865
0.948578 0.530792 0.101227
1.000000 0.565674 0.096619
0.000000 0.082489 0.155975
0.066681 0.117188 0.151367
0.133331 0.146729 0.141602
0.208740 0.180145 0.133331
0.289093 0.209381 0.133331
0.366913 0.236206 0.132874
0.442657 0.263702 0.128265
0.515747 0.292084 0.123627
0.585968 0.321320 0.119019
0.653442 0.351410 0.114380
0.718109 0.382294 0.109772
0.780060 0.413818 0.105133
0.839172 0.446259 0.100525
0.895569 0.479370 0.095886
0.949188 0.513153 0.091278
1.000000 0.548096 0.086639
0.000000 0.068695 0.146027
0.066681 0.103394 0.141388
0.133331 0.136780 0.135468
0.214203 0.168091 0.132141
0.294922 0.195221 0.127533
0.372894 0.220154 0.122925
0.448090 0.245819 0.118286
0.520508 0.274384 0.113678
0.590149 0.303558 0.109039
0.657013 0.333679 0.104431
0.721100 0.364563 0.099792
0.782440 0.396118 0.095184
0.840973 0.428497 0.090546
0.896790 0.461609 0.085938
0.949768 0.495636 0.081299
1.000000 0.530396 0.076691
0.000000 0.054962 0.136078
0.066681 0.090363 0.133331
0.135590 0.126312 0.129333
0.221344 0.152496 0.122192
0.301483 0.179596 0.117584
0.378876 0.204468 0.112946
0.453461 0.227905 0.108337
0.525299 0.256470 0.103699
0.594330 0.285736 0.099091
0.660614 0.315796 0.094452
0.724121 0.346649 0.089844
0.784851 0.378296 0.085205
0.842773 0.410736 0.080597
0.897980 0.443878 0.075989
0.950378 0.477692 0.071350
1.000000 0.512634 0.066742
0.000000 0.043915 0.133331
0.066681 0.080383 0.133331
0.139069 0.115662 0.123169
0.228516 0.137299 0.112244
0.308044 0.164368 0.107605
0.384827 0.189209 0.102997
0.458832 0.211761 0.098358
0.530090 0.238373 0.093750
0.598541 0.267639 0.089111
0.664215 0.297791 0.084503
0.727081 0.328644 0.079865
0.787231 0.360413 0.075256
0.844574 0.392731 0.070648
0.899170 0.425995 0.066010
0.950958 0.459839 0.061401
1.000000 0.494720 0.056763
0.000000 0.033966 0.133331
0.066681 0.070435 0.133331
0.142517 0.105164 0.117035
0.235718 0.122437 0.102264
0.314667 0.149445 0.097656
0.390839 0.174255 0.093018
0.464233 0.196808 0.088409
0.534851 0.220245 0.083801
0.602722 0.249481 0.079163
0.667786 0.279724 0.074554
0.730072 0.310577 0.069916
0.789612 0.342224 0.065308
0.846375 0.374481 0.060669
0.900360 0.407928 0.056061
0.951569 0.441864 0.051422
1.000000 0.476471 0.046814
0.000000 0.023987 0.133331
0.072876 0.066681 0.133331
0.145996 0.094757 0.110901
0.242889 0.108002 0.092316
0.321228 0.134918 0.087677
0.396820 0.159698 0.083069
0.469604 0.182281 0.078461
0.539642 0.202637 0.073822
0.606873 0.231293 0.069214
0.671387 0.261383 0.064575
0.733063 0.292358 0.059967
0.792023 0.323975 0.055328
0.848175 0.356262 0.050720
0.901550 0.389435 0.046082
0.952179 0.423492 0.041473
1.000000 0.458435 0.036835
0.000000 0.014038 0.133331
0.082825 0.066681 0.133331
0.149445 0.084503 0.104767
0.250031 0.093964 0.082367
0.327789 0.120850 0.077728
0.402802 0.145569 0.073120
0.474976 0.168060 0.068481
0.544403 0.188416 0.063873
0.611084 0.212830 0.059235
0.674957 0.243011 0.054626
0.736084 0.273773 0.049988
0.794403 0.305481 0.045380
0.849976 0.337860 0.040741
0.902740 0.371307 0.036133
0.952759 0.405365 0.031525
1.000000 0.440002 0.026886
0.000000 0.004059 0.133331
0.092804 0.066681 0.133331
0.152893 0.074341 0.098633
0.257233 0.080200 0.072388
0.334351 0.107147 0.067780
0.408783 0.131775 0.063141
0.480347 0.154266 0.058533
0.549225 0.174530 0.053894
0.615265 0.194305 0.049286
0.678558 0.224426 0.044647
0.739075 0.255310 0.040039
0.796814 0.286957 0.035400
0.851746 0.319489 0.030792
0.903961 0.352753 0.026154
0.953369 0.386780 0.021545
1.000000 0.421570 0.016937
0.005890 0.000000 0.133331
0.102753 0.066681 0.133331
0.156372 0.064301 0.092468
0.264404 0.066925 0.062439
0.340973 0.093750 0.057800
0.414764 0.118378 0.053192
0.485748 0.140808 0.048553
0.554016 0.161041 0.043945
0.619415 0.179077 0.039337
0.682159 0.205688 0.034698
0.742035 0.236755 0.030090
0.799194 0.268433 0.025452
0.853516 0.300964 0.020844
0.905151 0.334137 0.016205
0.953949 0.368134 0.011597
1.000000 0.402985 0.006958
0.015839 0.000000 0.133331
0.110840 0.061707 0.133331
0.159851 0.054413 0.086334
0.271606 0.053955 0.052460
0.347534 0.080780 0.047852
0.420746 0.105377 0.043213
0.491150 0.127747 0.038605
0.558807 0.147888 0.033966
0.623627 0.165894 0.029358
0.685730 0.187012 0.024750
0.745026 0.217926 0.020111
0.801575 0.249695 0.015503
0.855347 0.281982 0.010864
0.906342 0.315338 0.006256
0.954559 0.349396 0.001617
1.000000 0.389893 0.000000
0.025818 0.000000 0.133331
0.116974 0.051758 0.133331
0.163300 0.044647 0.080200
0.278778 0.041382 0.042511
0.354126 0.068176 0.037903
0.426727 0.092743 0.033264
0.496521 0.115082 0.028656
0.563599 0.135193 0.024017
0.627808 0.153137 0.019409
0.689331 0.168823 0.014771
0.748016 0.199066 0.010162
0.803986 0.230713 0.005524
0.857117 0.263123 0.000916
0.907074 0.303589 0.000000
0.954651 0.346344 0.000000
1.000000 0.389893 0.000000
0.035767 0.000000 0.133331
0.123108 0.041779 0.133331
0.166779 0.034973 0.074066
0.285950 0.029236 0.032562
0.360687 0.055969 0.027924
0.432678 0.080566 0.023315
0.501923 0.102753 0.018677
0.568329 0.122955 0.014069
0.632019 0.140717 0.009430
0.692902 0.156494 0.004822
0.751007 0.179932 0.000183
0.805298 0.220062 0.000000
0.857300 0.261353 0.000000
0.907074 0.303589 0.000000
0.954651 0.346344 0.000000
1.000000 0.389893 0.000000
0.045746 0.000000 0.133331
0.129242 0.031830 0.133331
0.170227 0.025452 0.067932
0.291687 0.018616 0.023956
0.367279 0.044128 0.017975
0.438690 0.068604 0.013336
0.507263 0.090942 0.008728
0.573120 0.110992 0.004089
0.635986 0.129395 0.000000
0.694641 0.150604 0.000000
0.751068 0.179565 0.000000
0.805298 0.220062 0.000000
0.857300 0.261353 0.000000
0.907074 0.303589 0.000000
0.954651 0.346344 0.000000
1.000000 0.389893 0.000000
0.055695 0.000000 0.133331
0.134491 0.021851 0.131287
0.173706 0.016022 0.061768
0.294922 0.010345 0.017792
0.373871 0.032623 0.007996
0.444641 0.057129 0.003387
0.511993 0.080811 0.000000
0.575104 0.106171 0.000000
0.635986 0.129395 0.000000
0.694641 0.150604 0.000000
0.751068 0.179565 0.000000
0.805298 0.220062 0.000000
0.857300 0.261353 0.000000
0.907074 0.303589 0.000000
0.954651 0.346344 0.000000
1.000000 0.389893 0.000000
0.000000 0.165070 0.263885
0.066681 0.199768 0.259247
0.133331 0.234467 0.254639
0.200012 0.250031 0.230835
0.246857 0.266663 0.200012
0.337830 0.320557 0.200012
0.415833 0.350372 0.200012
0.491241 0.380981 0.200012
0.563995 0.412323 0.200012
0.634155 0.444519 0.200012
0.701660 0.477478 0.200012
0.766571 0.511169 0.200012
0.828857 0.545563 0.200012
0.888550 0.580811 0.200012
0.945587 0.616425 0.199158
1.000000 0.651062 0.194550
0.000000 0.151245 0.253906
0.066681 0.185974 0.249298
0.133331 0.220703 0.244690
0.200012 0.240051 0.224701
0.256805 0.266663 0.200012
0.342163 0.308105 0.200012
0.419739 0.337982 0.200012
0.494690 0.368652 0.200012
0.567017 0.400055 0.200012
0.636749 0.432220 0.200012
0.703827 0.465271 0.200012
0.768341 0.498810 0.200012
0.830231 0.532593 0.198456
0.889618 0.565674 0.193817
0.946167 0.599701 0.189209
1.000000 0.634094 0.184570
0.000000 0.137512 0.243958
0.066681 0.172241 0.239349
0.133331 0.206909 0.234711
0.200012 0.230103 0.218567
0.266724 0.266510 0.200012
0.346497 0.295654 0.200012
0.423615 0.325562 0.200012
0.498169 0.356232 0.200012
0.570038 0.387695 0.200012
0.639343 0.419891 0.200012
0.706177 0.451721 0.197723
0.770508 0.483368 0.193115
0.832031 0.515625 0.188507
0.890808 0.548706 0.183868
0.946777 0.582520 0.179260
1.000000 0.617218 0.174622
0.000000 0.123749 0.234009
0.066681 0.158417 0.229370
0.133331 0.193146 0.224762
0.200012 0.220123 0.212402
0.271484 0.253998 0.200012
0.350800 0.283142 0.200012
0.427521 0.313019 0.200012
0.501617 0.343750 0.200012
0.573425 0.373779 0.197021
0.642700 0.403717 0.192383
0.709167 0.434479 0.187775
0.772888 0.466187 0.183167
0.833832 0.498383 0.178528
0.891998 0.531616 0.173920
0.947388 0.565338 0.169281
1.000000 0.600189 0.164673
0.000000 0.109924 0.224030
0.066681 0.144653 0.219421
0.133331 0.179352 0.214783
0.200012 0.210175 0.206268
0.276245 0.241669 0.200012
0.355133 0.270538 0.200012
0.431946 0.298737 0.196320
0.506195 0.327148 0.191681
0.577606 0.356415 0.187073
0.646271 0.386475 0.182434
0.712158 0.417206 0.177826
0.775269 0.448822 0.173187
0.835602 0.481110 0.168579
0.893188 0.514313 0.163940
0.947968 0.548187 0.159332
1.000000 0.582672 0.154694
0.000000 0.096161 0.214081
0.066681 0.130890 0.209442
0.133331 0.165588 0.204834
0.200012 0.200195 0.200134
0.281799 0.227539 0.195587
0.360962 0.253479 0.190979
0.437347 0.281158 0.186340
0.510986 0.309631 0.181732
0.581818 0.338867 0.177094
0.649872 0.368927 0.172485
0.715149 0.399719 0.167847
0.777679 0.431366 0.163239
0.837402 0.463745 0.158600
0.894379 0.496948 0.153992
0.948578 0.530609 0.149353
1.000000 0.565338 0.144745
0.000000 0.082428 0.204132
0.066681 0.117310 0.200012
0.133331 0.153778 0.200012
0.203156 0.189117 0.194000
0.288361 0.211121 0.185638
0.366943 0.236115 0.181000
0.442719 0.263489 0.176392
0.515747 0.292053 0.171753
0.585999 0.321259 0.167145
0.653473 0.351318 0.162506
0.718140 0.382141 0.157898
0.780060 0.413727 0.153259
0.839203 0.446106 0.148651
0.895569 0.479340 0.144012
0.949188 0.513092 0.139404
1.000000 0.547821 0.134796
