Color Lookup Presets Effects/z1 (79).CUBE
#Created by: Adobe Photoshop Export Color Lookup Plugin
#Copyright: (C) Copyright 2014 www.zafizack.com
TITLE "zafizack"
#LUT size
LUT_3D_SIZE 6
#data domain
DOMAIN_MIN 0.0 0.0 0.0
DOMAIN_MAX 1.0 1.0 1.0
#LUT data points
0.000000 0.000000 0.000000
0.159760 0.000000 0.000000
0.475739 0.000000 0.000000
0.737915 0.031921 0.000000
0.892120 0.073944 0.000000
1.000000 0.116272 0.000000
0.107239 0.224213 0.047913
0.198273 0.151184 0.008240
0.538147 0.127380 0.091034
0.767151 0.166534 0.115967
0.903961 0.210632 0.100555
1.000000 0.256470 0.085724
0.338440 0.598938 0.264954
0.328461 0.536407 0.165070
0.516754 0.446075 0.154114
0.794830 0.313721 0.309204
0.915680 0.400055 0.319519
1.000000 0.448761 0.293030
0.611694 0.811615 0.533081
0.503235 0.796936 0.334229
0.549286 0.762238 0.247070
0.786285 0.713043 0.359558
0.926880 0.668518 0.588989
1.000000 0.695068 0.559662
0.803497 0.927185 0.765228
0.671661 0.923401 0.583282
0.623108 0.915741 0.414520
0.758972 0.895325 0.407654
0.927917 0.881470 0.637665
1.000000 0.874146 0.742523
0.949493 1.000000 0.956970
0.813538 1.000000 0.812683
0.713287 1.000000 0.637360
0.769653 1.000000 0.539673
0.892303 1.000000 0.609131
0.988525 1.000000 0.854126
0.000000 0.000000 0.027893
0.115845 0.000000 0.009308
0.426239 0.000000 0.025238
0.716858 0.000000 0.024048
0.884766 0.000000 0.004639
1.000000 0.045166 0.015930
0.000000 0.093323 0.045013
0.115845 0.099121 0.047699
0.426239 0.139862 0.078766
0.716858 0.183014 0.089508
0.884766 0.229858 0.078278
1.000000 0.279388 0.067322
0.124512 0.488586 0.236237
0.303741 0.488586 0.230560
0.447693 0.391968 0.196320
0.746429 0.369507 0.284424
0.896362 0.423431 0.265106
1.000000 0.474762 0.246674
0.374115 0.773590 0.460480
0.534607 0.773590 0.439667
0.551300 0.741333 0.331055
0.751465 0.691467 0.389374
0.907898 0.671936 0.514313
1.000000 0.700317 0.489105
0.643738 0.914276 0.675201
0.713562 0.914276 0.639160
0.658661 0.907288 0.501862
0.754120 0.888550 0.475525
0.912262 0.875946 0.618927
1.000000 0.875031 0.685364
0.815216 1.000000 0.826904
0.845062 1.000000 0.813354
0.756104 1.000000 0.677094
0.783752 1.000000 0.591248
0.887939 1.000000 0.634155
0.985443 1.000000 0.808411
0.000000 0.000000 0.232788
0.146790 0.000000 0.232788
0.376892 0.000000 0.185974
0.694885 0.000000 0.181763
0.877228 0.000000 0.158234
1.000000 0.000000 0.137665
0.000000 0.065430 0.232788
0.128052 0.093323 0.258423
0.376892 0.093323 0.233673
0.694885 0.117249 0.227112
0.877228 0.142181 0.199677
1.000000 0.168243 0.175964
0.000000 0.337158 0.282135
0.115845 0.337158 0.278931
0.376892 0.344879 0.285828
0.694885 0.400818 0.299896
0.877228 0.457642 0.285156
1.000000 0.510345 0.270905
0.127869 0.721649 0.478058
0.328217 0.721649 0.478271
0.554565 0.721649 0.461975
0.712891 0.670929 0.468231
0.888641 0.678314 0.508911
1.000000 0.708099 0.490234
0.381989 0.898773 0.649139
0.571472 0.898773 0.647766
0.691345 0.898773 0.602905
0.748383 0.883057 0.560699
0.895691 0.870178 0.638397
1.000000 0.875671 0.668793
0.650085 1.000000 0.781067
0.743317 1.000000 0.769928
0.796478 1.000000 0.738647
0.795990 1.000000 0.659149
0.883026 1.000000 0.667389
0.984009 1.000000 0.785858
0.000000 0.000000 0.545715
0.164246 0.000000 0.545715
0.457947 0.000000 0.545715
0.671814 0.000000 0.453674
0.869629 0.000000 0.421295
1.000000 0.000000 0.391449
0.000000 0.050964 0.545715
0.144318 0.093323 0.567932
0.425323 0.093323 0.567932
0.671814 0.093323 0.512238
0.869629 0.117249 0.477386
1.000000 0.142181 0.445374
0.000000 0.267883 0.545715
0.115845 0.297180 0.567932
0.398224 0.337158 0.589508
0.671814 0.337158 0.562561
0.869629 0.365387 0.528625
1.000000 0.394592 0.496674
0.000000 0.646088 0.625397
0.115845 0.646088 0.614166
0.376892 0.646088 0.610016
0.671814 0.652771 0.589508
0.869629 0.688263 0.578522
1.000000 0.718872 0.567352
0.131195 0.878784 0.717651
0.332001 0.878784 0.712982
0.580048 0.878784 0.707947
0.744904 0.878784 0.668579
0.878723 0.864624 0.689941
1.000000 0.876373 0.695526
0.389801 1.000000 0.802582
0.576874 1.000000 0.798981
0.721771 1.000000 0.784302
0.809692 1.000000 0.750519
0.879883 1.000000 0.732849
0.983948 1.000000 0.785309
0.000000 0.000000 0.804779
0.182953 0.000000 0.804779
0.487061 0.000000 0.804779
0.749603 0.000000 0.804779
0.861908 0.000000 0.729645
1.000000 0.000000 0.712921
0.000000 0.036499 0.804779
0.161530 0.093323 0.812225
0.453522 0.093323 0.812225
0.727203 0.093323 0.812225
0.861908 0.093323 0.760742
1.000000 0.117249 0.743134
0.000000 0.245239 0.804779
0.115845 0.274048 0.812225
0.425323 0.337158 0.819519
0.707733 0.337158 0.819519
0.861908 0.337158 0.786926
1.000000 0.365387 0.769409
0.000000 0.551605 0.804779
0.115845 0.584717 0.812225
0.376892 0.608917 0.819519
0.687866 0.646088 0.819519
0.861908 0.646088 0.803314
1.000000 0.661163 0.785950
0.000000 0.834076 0.852081
0.115845 0.847809 0.852081
0.376892 0.852081 0.847473
0.671814 0.852081 0.832794
0.861908 0.856079 0.812225
1.000000 0.873810 0.808411
0.134583 1.000000 0.898468
0.335876 1.000000 0.891327
0.582703 1.000000 0.884369
0.764496 1.000000 0.869690
0.881073 1.000000 0.844940
0.988586 1.000000 0.854889
0.000000 0.000000 1.000000
0.204803 0.000000 1.000000
0.519257 0.000000 1.000000
0.770447 0.000000 1.000000
0.932800 0.000000 1.000000
1.000000 0.000000 0.934357
0.000000 0.020325 1.000000
0.181702 0.093323 1.000000
0.485229 0.093323 1.000000
0.748383 0.093323 1.000000
0.916351 0.093323 1.000000
1.000000 0.093323 0.950439
0.000000 0.221344 1.000000
0.115845 0.249146 1.000000
0.455933 0.337158 1.000000
0.728943 0.337158 1.000000
0.902252 0.337158 1.000000
1.000000 0.337158 0.963867
0.000000 0.520477 1.000000
0.115845 0.556335 1.000000
0.376892 0.582550 1.000000
0.709839 0.646088 1.000000
0.888611 0.646088 1.000000
1.000000 0.646088 0.976410
0.000000 0.769135 1.000000
0.115845 0.792389 1.000000
0.376892 0.809723 1.000000
0.671814 0.825012 1.000000
0.875214 0.852081 1.000000
1.000000 0.852081 0.988373
0.000000 0.934357 1.000000
0.115845 0.951996 1.000000
0.376892 0.965454 1.000000
0.671814 0.977661 1.000000
0.861908 0.989105 1.000000
1.000000 1.000000 1.000000
