Color Lookup Presets Effects/z1 (72).CUBE
#Created by: Adobe Photoshop Export Color Lookup Plugin
#Copyright: (C) Copyright 2016 www.zafizack.com
TITLE "zafizack pastel color preset"
#LUT size
LUT_3D_SIZE 16
#data domain
DOMAIN_MIN 0.0 0.0 0.0
DOMAIN_MAX 1.0 1.0 1.0
#LUT data points
0.048279 0.039490 0.038757
0.123413 0.067566 0.055542
0.202728 0.095215 0.076874
0.293579 0.124054 0.100861
0.391083 0.154175 0.127289
0.477020 0.180237 0.152802
0.551331 0.201935 0.174194
0.625763 0.221741 0.194427
0.699615 0.241425 0.215424
0.773468 0.257477 0.232239
0.824097 0.274933 0.250305
0.865417 0.293243 0.268677
0.905334 0.313873 0.288422
0.944336 0.334747 0.309082
0.973877 0.354004 0.329346
1.000000 0.370941 0.347076
0.059448 0.089325 0.051483
0.108490 0.097198 0.052155
0.191833 0.130524 0.066803
0.280396 0.160370 0.084137
0.374725 0.190765 0.106232
0.464996 0.218109 0.128326
0.538361 0.240570 0.149811
0.611450 0.261414 0.170563
0.684296 0.281586 0.191559
0.756775 0.300690 0.211823
0.824402 0.318573 0.231750
0.865204 0.336395 0.252838
0.905151 0.355164 0.273773
0.944244 0.375275 0.295380
0.974152 0.394867 0.318268
1.000000 0.411957 0.337341
0.075348 0.146484 0.068085
0.120209 0.153259 0.068359
0.172577 0.162048 0.068542
0.271942 0.202209 0.083405
0.364197 0.231903 0.098938
0.456848 0.260010 0.115814
0.528564 0.282440 0.130829
0.600189 0.303009 0.148163
0.672241 0.322479 0.167450
0.743713 0.340179 0.185394
0.815002 0.358124 0.205292
0.866119 0.376129 0.228027
0.905579 0.395233 0.252411
0.944489 0.414673 0.276459
0.974457 0.434418 0.301086
1.000000 0.451599 0.321716
0.093140 0.210938 0.085388
0.135284 0.217163 0.085876
0.184357 0.225555 0.086914
0.246124 0.237305 0.088196
0.356689 0.283691 0.102295
0.450470 0.312408 0.114716
0.522614 0.335144 0.126373
0.593201 0.356476 0.138733
0.663452 0.376465 0.152191
0.733734 0.395081 0.166077
0.803497 0.411926 0.180573
0.868225 0.427917 0.198181
0.906647 0.447388 0.224762
0.944855 0.469391 0.252808
0.974823 0.483856 0.281067
1.000000 0.494904 0.303925
0.118988 0.277557 0.110687
0.154175 0.283691 0.105743
0.200073 0.292908 0.105713
0.257904 0.304565 0.107025
0.324371 0.319366 0.110321
0.442719 0.372070 0.123688
0.518127 0.396637 0.132568
0.586975 0.418335 0.141571
0.655884 0.439362 0.150940
0.724731 0.459656 0.160217
0.793488 0.477814 0.170380
0.861786 0.492523 0.181274
0.908020 0.504517 0.205383
0.945190 0.516296 0.234924
0.975128 0.528839 0.264313
1.000000 0.539032 0.288727
0.148743 0.342560 0.146606
0.180023 0.347656 0.138245
0.223083 0.357910 0.134064
0.276611 0.371429 0.130920
0.337585 0.387024 0.130432
0.405334 0.404602 0.134003
0.513855 0.457520 0.147125
0.581390 0.476379 0.152618
0.648865 0.493317 0.157928
0.716248 0.509460 0.163391
0.783356 0.524994 0.169525
0.850586 0.540131 0.176849
0.907684 0.553528 0.192047
0.945404 0.564209 0.221191
0.975403 0.574921 0.252869
1.000000 0.583344 0.277008
0.174347 0.396118 0.183319
0.201935 0.401459 0.172882
0.243500 0.411713 0.165924
0.295471 0.425293 0.159119
0.353149 0.441437 0.154327
0.415131 0.459381 0.152740
0.483124 0.479279 0.154846
0.576447 0.523895 0.165863
0.642944 0.542542 0.170532
0.709442 0.558960 0.173676
0.775208 0.574036 0.176819
0.840820 0.588745 0.180481
0.905853 0.603058 0.184601
0.945801 0.611664 0.212311
0.975708 0.620697 0.245667
1.000000 0.628082 0.269714
0.194824 0.439240 0.217285
0.218567 0.443512 0.205475
0.259338 0.453522 0.196838
0.309875 0.467285 0.187073
0.366028 0.483398 0.178864
0.425476 0.502167 0.173462
0.489319 0.523651 0.171509
0.542999 0.541534 0.173584
0.633728 0.586914 0.184204
0.703583 0.609589 0.189117
0.768890 0.625519 0.190979
0.833282 0.639648 0.192627
0.896942 0.653351 0.193604
0.944611 0.661957 0.213989
0.975525 0.668823 0.246979
1.000000 0.674774 0.270966
0.199738 0.492920 0.223633
0.223999 0.493927 0.219543
0.268005 0.501099 0.217987
0.323334 0.511139 0.216919
0.379272 0.526215 0.207916
0.436798 0.544586 0.198822
0.497589 0.566376 0.192932
0.550415 0.585907 0.191589
0.602112 0.604584 0.192932
0.687500 0.647430 0.202271
0.762848 0.677582 0.208313
0.827118 0.692932 0.208679
0.889832 0.706055 0.208832
0.942932 0.715179 0.221375
0.975159 0.719604 0.257568
1.000000 0.724335 0.281647
0.201141 0.555450 0.223419
0.221130 0.555298 0.217865
0.266815 0.560059 0.220673
0.324371 0.567200 0.224396
0.385345 0.576843 0.226807
0.445831 0.591370 0.226471
0.505310 0.612122 0.219116
0.558502 0.631836 0.214050
0.608276 0.650085 0.212616
0.660675 0.668671 0.213043
0.739929 0.708832 0.220734
0.820831 0.745667 0.227448
0.883636 0.760803 0.226654
0.941284 0.771332 0.231781
0.974030 0.772888 0.273132
1.000000 0.776123 0.298615
0.202942 0.623505 0.223633
0.218414 0.622131 0.216370
0.263397 0.625305 0.218933
0.319092 0.633087 0.222412
0.379395 0.642517 0.226593
0.442291 0.653076 0.231659
0.507568 0.665161 0.237091
0.565704 0.679260 0.239288
0.614166 0.697510 0.235779
0.665100 0.717224 0.234375
0.717865 0.735504 0.233948
0.791870 0.771790 0.239532
0.877441 0.814453 0.246582
0.938446 0.828278 0.244873
0.972534 0.827820 0.292267
1.000000 0.829712 0.321045
0.202606 0.700928 0.223877
0.214111 0.698639 0.215118
0.256042 0.702728 0.217346
0.310974 0.709595 0.220551
0.370789 0.717896 0.224335
0.433746 0.727478 0.228973
0.499359 0.740173 0.234436
0.561646 0.753143 0.240540
0.613678 0.765076 0.246552
0.666779 0.778290 0.252014
0.720001 0.792786 0.254486
0.773895 0.806458 0.255463
0.842346 0.835938 0.258575
0.932800 0.884979 0.266205
0.970367 0.881531 0.315826
1.000000 0.883850 0.350525
0.200134 0.780548 0.224030
0.209106 0.778687 0.214478
0.248535 0.783020 0.216217
0.303284 0.790375 0.219177
0.363068 0.798767 0.222687
0.425812 0.807251 0.226898
0.491425 0.817230 0.231903
0.555634 0.827454 0.237549
0.607727 0.836945 0.242981
0.661255 0.847046 0.249298
0.715942 0.857208 0.256683
0.771759 0.867004 0.264954
0.827423 0.875702 0.271667
0.895782 0.903046 0.274719
0.969055 0.936157 0.344543
1.000000 0.933105 0.387451
0.197113 0.859375 0.224243
0.205963 0.857025 0.214203
0.241913 0.859070 0.215332
0.296539 0.864044 0.218109
0.356110 0.869659 0.221436
0.418854 0.875244 0.225342
0.484680 0.881287 0.230042
0.550323 0.888000 0.235443
0.602539 0.894836 0.240479
0.656006 0.902496 0.246338
0.710724 0.910645 0.253052
0.766693 0.918854 0.261230
0.822998 0.926422 0.269104
0.878510 0.931122 0.280579
0.946289 0.952515 0.359436
1.000000 0.973206 0.417542
0.194031 0.936737 0.222900
0.202789 0.934570 0.212677
0.234955 0.934479 0.213348
0.289612 0.936035 0.215973
0.349060 0.938171 0.219116
0.411743 0.940704 0.222900
0.477386 0.943665 0.227386
0.544891 0.947510 0.232574
0.596954 0.951843 0.237274
0.650574 0.957001 0.242737
0.705414 0.963013 0.249115
0.760559 0.963531 0.271759
0.815552 0.964081 0.301758
0.869385 0.964569 0.339539
0.920746 0.964783 0.384338
0.981171 0.989838 0.450745
0.190887 1.000000 0.217590
0.199066 0.998566 0.206512
0.227844 0.997589 0.207214
0.282196 0.997803 0.210297
0.341797 0.998596 0.213959
0.404205 1.000000 0.217987
0.470856 1.000000 0.223511
0.539795 1.000000 0.230652
0.592377 1.000000 0.239166
0.646179 1.000000 0.254578
0.700928 1.000000 0.275665
0.756348 1.000000 0.304108
0.811676 1.000000 0.341278
0.866180 1.000000 0.390228
0.916809 1.000000 0.445740
0.957855 1.000000 0.496399
0.046326 0.035431 0.066864
0.097290 0.042999 0.082001
0.169403 0.065338 0.097595
0.264191 0.092468 0.122589
0.365906 0.116974 0.148315
0.457062 0.138855 0.171539
0.534637 0.157959 0.192200
0.611938 0.176392 0.211151
0.688721 0.193237 0.229034
0.764832 0.209167 0.246246
0.820221 0.228180 0.264130
0.862427 0.249084 0.282532
0.903900 0.270264 0.301117
0.942963 0.292938 0.321808
0.973389 0.313446 0.340973
1.000000 0.330536 0.358093
0.056946 0.082092 0.099152
0.092041 0.084656 0.093231
0.165497 0.110809 0.107819
0.255676 0.141052 0.127502
0.352875 0.171600 0.151154
0.446991 0.198029 0.174927
0.522797 0.219543 0.196106
0.598450 0.240021 0.217255
0.673553 0.259064 0.237579
0.748230 0.275909 0.255463
0.820557 0.292633 0.273376
0.862396 0.311340 0.291718
0.903595 0.331268 0.310699
0.943024 0.352936 0.331757
0.973724 0.373322 0.352753
1.000000 0.390625 0.370972
0.075714 0.140991 0.123077
0.109589 0.142700 0.114227
0.154053 0.149170 0.111969
0.247131 0.183838 0.127350
0.340729 0.213989 0.144745
0.436218 0.242767 0.162750
0.510468 0.266083 0.179932
0.584290 0.286957 0.197723
0.658356 0.307007 0.217651
0.732544 0.325836 0.237671
0.806152 0.344208 0.257751
0.861755 0.362823 0.279480
0.902893 0.383331 0.301849
0.942810 0.403534 0.323730
0.973907 0.423798 0.347046
1.000000 0.439789 0.365692
0.095917 0.205475 0.140167
0.128723 0.207214 0.131470
0.168243 0.213409 0.126282
0.227936 0.224457 0.130096
0.332916 0.265289 0.145325
0.428680 0.294647 0.158966
0.503967 0.318115 0.171814
0.576813 0.340149 0.184845
0.649384 0.360016 0.198700
0.721802 0.378937 0.213745
0.793915 0.396393 0.229187
0.863678 0.412323 0.246735
0.903809 0.432678 0.271667
0.943176 0.456390 0.298981
0.974274 0.474304 0.325623
1.000000 0.486572 0.347992
0.120667 0.272552 0.162872
0.150726 0.275360 0.151276
0.184204 0.280792 0.141571
0.241547 0.292206 0.145782
0.307983 0.306824 0.152130
0.420227 0.353577 0.165955
0.499054 0.378906 0.176300
0.570190 0.401276 0.185883
0.641479 0.422424 0.195465
0.712769 0.443054 0.205627
0.783783 0.462769 0.216278
0.854340 0.479065 0.228119
0.905151 0.492676 0.250122
0.943512 0.505585 0.279114
0.974579 0.519287 0.308014
1.000000 0.530121 0.332275
0.150635 0.337646 0.196442
0.180054 0.341431 0.182373
0.207458 0.346893 0.165863
0.260590 0.359863 0.165741
0.321869 0.375153 0.168762
0.390656 0.393127 0.174713
0.495056 0.442963 0.189117
0.564728 0.462494 0.195587
0.634308 0.479919 0.200684
0.704071 0.496429 0.206818
0.773560 0.512451 0.213165
0.843201 0.527893 0.221039
0.905151 0.542145 0.234283
0.943787 0.554321 0.263214
0.974854 0.566467 0.294495
1.000000 0.575500 0.318573
0.176971 0.393158 0.233215
0.205841 0.397766 0.217407
0.228821 0.402435 0.195892
0.280365 0.415619 0.191986
0.338226 0.431366 0.190460
0.400909 0.449646 0.191406
0.469574 0.469086 0.196045
0.559418 0.510132 0.207245
0.628113 0.529449 0.212463
0.696899 0.546295 0.215698
0.765015 0.561920 0.218842
0.832947 0.576935 0.222870
0.900452 0.591766 0.227264
0.943970 0.602173 0.253387
0.975189 0.612488 0.286102
1.000000 0.620422 0.310242
0.197601 0.436584 0.266724
0.226349 0.441345 0.250183
0.245270 0.445190 0.224731
0.295471 0.458374 0.217773
0.351624 0.474152 0.212830
0.411743 0.492828 0.210022
0.476868 0.514404 0.210571
0.530945 0.532379 0.214081
0.623291 0.578400 0.225739
0.690948 0.597565 0.230011
0.758575 0.613953 0.231689
0.825256 0.628418 0.233307
0.891144 0.642639 0.233948
0.943024 0.652863 0.251709
0.975281 0.660767 0.284363
1.000000 0.667542 0.309814
0.205078 0.488861 0.277832
0.239288 0.490509 0.272186
0.254791 0.493073 0.244537
0.309143 0.502808 0.245392
0.365295 0.517395 0.239960
0.423553 0.535706 0.233521
0.485352 0.557404 0.230194
0.539063 0.577057 0.230591
0.591705 0.596191 0.233093
0.679016 0.640228 0.243225
0.752350 0.666595 0.248199
0.818878 0.682312 0.248566
0.883789 0.695953 0.248352
0.941437 0.706573 0.257416
0.974640 0.712219 0.293945
1.000000 0.717407 0.318451
0.206451 0.550934 0.277374
0.240295 0.552063 0.271667
0.253662 0.552460 0.244934
0.310822 0.559265 0.251251
0.371490 0.568817 0.255493
0.432922 0.582855 0.258423
0.493774 0.603455 0.254669
0.547272 0.623505 0.251617
0.598083 0.642273 0.251556
0.651703 0.661224 0.252747
0.733215 0.702667 0.260834
0.812592 0.735962 0.266602
0.877625 0.751434 0.265289
0.939606 0.763489 0.266327
0.973389 0.765961 0.308289
1.000000 0.769897 0.334564
0.208282 0.618835 0.276611
0.241547 0.619080 0.270996
0.251312 0.618744 0.241547
0.305908 0.625610 0.246979
0.366699 0.634125 0.254333
0.430115 0.644897 0.262177
0.495941 0.657684 0.269745
0.554535 0.672150 0.274170
0.604584 0.689026 0.274048
0.656494 0.709473 0.273010
0.710602 0.728882 0.272766
0.786713 0.766418 0.278687
0.871155 0.805786 0.284363
0.934540 0.820251 0.282684
0.971954 0.821869 0.326172
1.000000 0.824127 0.356079
0.208221 0.695587 0.276398
0.239655 0.697174 0.270721
0.249023 0.696777 0.241974
0.298615 0.702118 0.243225
0.358246 0.710083 0.250092
0.421356 0.719299 0.257416
0.488007 0.732147 0.265961
0.550751 0.745209 0.274506
0.603790 0.757538 0.282471
0.658447 0.771179 0.290222
0.713104 0.786285 0.293762
0.768097 0.801025 0.293915
0.838715 0.831543 0.296936
0.928680 0.876984 0.303528
0.969696 0.876587 0.348938
1.000000 0.879456 0.385284
0.205658 0.774567 0.275482
0.236053 0.776825 0.269745
0.245117 0.777313 0.241425
0.291107 0.783203 0.239868
0.350494 0.791046 0.246307
0.413666 0.799927 0.253143
0.479980 0.810272 0.261108
0.544769 0.820984 0.269257
0.597931 0.830994 0.276886
0.652679 0.841644 0.285187
0.708801 0.852295 0.293945
0.766113 0.862518 0.302887
0.823456 0.871674 0.309814
0.893585 0.899597 0.312469
0.968414 0.932190 0.376617
1.000000 0.929688 0.421387
0.202576 0.852936 0.275482
0.232758 0.854095 0.269684
0.241791 0.854279 0.242035
0.284119 0.857849 0.237671
0.343658 0.863464 0.243835
0.406525 0.869690 0.250366
0.473053 0.875916 0.257935
0.539307 0.882935 0.265900
0.592560 0.890076 0.273193
0.647339 0.898132 0.281158
0.703430 0.906708 0.289581
0.760925 0.915192 0.298492
0.818787 0.923035 0.306549
0.876495 0.929108 0.314087
0.947571 0.952179 0.391083
1.000000 0.969910 0.447601
0.199585 0.931763 0.273193
0.228638 0.932098 0.267395
0.237518 0.931641 0.240173
0.277649 0.932800 0.234070
0.336945 0.934631 0.239899
0.399811 0.937042 0.246002
0.466064 0.940063 0.253326
0.533997 0.944000 0.261017
0.587280 0.948395 0.267914
0.642029 0.953888 0.275452
0.697968 0.960236 0.283478
0.755554 0.963287 0.301819
0.812653 0.963837 0.331848
0.868225 0.964325 0.370209
0.921326 0.964600 0.414917
0.982849 0.989838 0.479340
0.195862 0.995941 0.267609
0.224945 0.995911 0.262115
0.233765 0.995209 0.235962
0.270081 0.995514 0.227264
0.329437 0.995972 0.233551
0.392059 0.997009 0.240021
0.458344 0.998627 0.247498
0.528259 1.000000 0.256989
0.582428 1.000000 0.269043
0.638153 1.000000 0.285278
0.694763 1.000000 0.306915
0.752045 1.000000 0.336029
0.809265 1.000000 0.373810
0.865417 1.000000 0.423615
0.916046 1.000000 0.474121
0.959381 1.000000 0.519287
0.048584 0.035309 0.100616
0.099121 0.040985 0.135223
0.152954 0.048401 0.138641
0.232269 0.068115 0.151367
0.336151 0.092712 0.180176
0.431183 0.112030 0.202850
0.511932 0.129364 0.223083
0.592255 0.147125 0.242615
0.672089 0.164673 0.261444
0.751251 0.181519 0.279602
0.812531 0.201538 0.296997
0.857117 0.224915 0.314911
0.900085 0.249390 0.333771
0.940613 0.273956 0.354218
0.972504 0.295685 0.373322
1.000000 0.314880 0.390503
0.054871 0.075348 0.144196
0.091187 0.079803 0.144989
0.146881 0.089294 0.140869
0.225861 0.108978 0.152374
0.325134 0.136902 0.175476
0.423004 0.161591 0.200928
0.501648 0.182251 0.222137
0.580414 0.200745 0.241791
0.658661 0.218262 0.260468
0.736328 0.234100 0.277222
0.812927 0.248871 0.293030
0.858521 0.269501 0.310242
0.900940 0.291229 0.328461
0.941193 0.314575 0.348907
0.973053 0.335083 0.368774
1.000000 0.352905 0.385895
0.071350 0.129547 0.167755
0.104126 0.134491 0.166534
0.143707 0.139099 0.160950
0.221741 0.158936 0.164398
0.318115 0.186951 0.180298
0.417206 0.213348 0.199341
0.494049 0.235626 0.216095
0.570923 0.255676 0.236725
0.647522 0.275055 0.257294
0.723663 0.294281 0.278137
0.798981 0.312195 0.297668
0.859253 0.330597 0.316589
0.901093 0.352142 0.336517
0.941467 0.374054 0.357361
0.973267 0.392944 0.376068
1.000000 0.409088 0.392181
0.092346 0.200623 0.199799
0.123413 0.203247 0.192780
0.162018 0.205414 0.184479
0.213196 0.212708 0.179443
0.310760 0.247345 0.194092
0.407562 0.276978 0.209167
0.485870 0.301300 0.222992
0.560394 0.323700 0.236969
0.635132 0.343964 0.251862
0.709595 0.362305 0.267212
0.783966 0.380585 0.284210
0.858154 0.397339 0.301910
0.900879 0.418060 0.324493
0.941101 0.440796 0.347168
0.973358 0.459717 0.368622
1.000000 0.471588 0.387207
0.116516 0.267548 0.221100
0.145203 0.271393 0.210236
0.181732 0.274109 0.201935
0.227386 0.280884 0.193054
0.293976 0.295319 0.199677
0.399384 0.335663 0.213226
0.481110 0.361694 0.224457
0.554077 0.384430 0.234924
0.627350 0.406036 0.245026
0.700928 0.426514 0.255554
0.774017 0.446320 0.266663
0.846680 0.464874 0.279358
0.902222 0.479858 0.299652
0.941772 0.494781 0.326538
0.973846 0.507294 0.352203
1.000000 0.516693 0.372314
0.146393 0.332458 0.254272
0.174622 0.337280 0.240601
0.208252 0.341583 0.228363
0.246460 0.349091 0.211609
0.308044 0.364105 0.215424
0.377350 0.381836 0.221954
0.477020 0.426453 0.235565
0.548401 0.448578 0.243805
0.620148 0.466461 0.249237
0.691895 0.483368 0.255432
0.763611 0.499634 0.262238
0.835480 0.515411 0.270142
0.902496 0.530243 0.281799
0.942078 0.543488 0.310242
0.974335 0.557098 0.340546
1.000000 0.565033 0.359680
0.173401 0.389526 0.290680
0.201019 0.394714 0.274750
0.233917 0.399780 0.260345
0.267212 0.406830 0.236572
0.325226 0.422150 0.235748
0.388397 0.440308 0.237488
0.457489 0.459900 0.242340
0.543365 0.496674 0.253174
0.613861 0.516479 0.258728
0.684784 0.533752 0.262451
0.754883 0.549622 0.265106
0.825043 0.565155 0.269287
0.894836 0.580200 0.274200
0.942169 0.592346 0.298096
0.974640 0.603729 0.330109
1.000000 0.611755 0.352570
0.194122 0.432983 0.323914
0.221588 0.438354 0.307007
0.253815 0.443878 0.290924
0.282776 0.450378 0.261475
0.338989 0.465637 0.257294
0.399475 0.484100 0.255249
0.465607 0.505707 0.256134
0.520020 0.523743 0.259979
0.608978 0.565765 0.270844
0.678528 0.585480 0.275391
0.748260 0.602173 0.277008
0.817108 0.617096 0.278381
0.885132 0.631531 0.278717
0.941467 0.643341 0.293457
0.974915 0.652466 0.326385
1.000000 0.660034 0.351776
0.202637 0.484436 0.336273
0.234924 0.487305 0.328552
0.269226 0.491302 0.316711
0.297363 0.494965 0.288330
0.353210 0.509460 0.283234
0.411865 0.527527 0.277649
0.474609 0.549255 0.274597
0.528412 0.568848 0.275360
0.582275 0.588226 0.277893
0.671265 0.633209 0.288330
0.742035 0.655457 0.292236
0.810699 0.671478 0.292328
0.877686 0.685486 0.291901
0.939819 0.697510 0.296875
0.974060 0.704346 0.334106
1.000000 0.710205 0.358002
0.203979 0.546021 0.335175
0.235962 0.548615 0.327393
0.273712 0.549988 0.323029
0.299225 0.551544 0.293152
0.360291 0.560974 0.298523
0.421661 0.575012 0.301025
0.483490 0.595367 0.298218
0.537140 0.615601 0.295532
0.588806 0.634827 0.295563
0.643646 0.654175 0.296814
0.726990 0.696533 0.305023
0.804260 0.726013 0.309509
0.871460 0.741882 0.307953
0.936707 0.754547 0.306396
0.972748 0.758698 0.347137
1.000000 0.763306 0.373291
0.205811 0.613739 0.333862
0.237274 0.615692 0.325989
0.274017 0.616699 0.321594
0.295166 0.618500 0.287628
0.355621 0.626678 0.295502
0.419342 0.636993 0.304443
0.485565 0.650574 0.311798
0.544342 0.665283 0.316498
0.595642 0.682190 0.317230
0.648560 0.702271 0.316284
0.703857 0.722443 0.316010
0.781952 0.761108 0.321777
0.864838 0.796783 0.326172
0.930450 0.811951 0.324005
0.971252 0.815338 0.363800
1.000000 0.818176 0.393799
0.205963 0.689880 0.332916
0.235840 0.693176 0.325012
0.271545 0.693848 0.320557
0.290497 0.695038 0.284088
0.347595 0.702515 0.289673
0.410889 0.711670 0.298157
0.478027 0.724548 0.307343
0.541016 0.737610 0.316528
0.594971 0.750458 0.324341
0.650665 0.764526 0.332550
0.706848 0.779968 0.337097
0.762817 0.795746 0.336029
0.835480 0.827148 0.338928
0.924408 0.868652 0.343781
0.968933 0.871460 0.385132
1.000000 0.874603 0.420898
0.203796 0.767365 0.331390
0.232605 0.772217 0.323547
0.266998 0.774414 0.319153
0.285614 0.776276 0.282318
0.339905 0.783539 0.284637
0.402954 0.792450 0.292664
0.469757 0.803436 0.301270
0.534882 0.814545 0.310211
0.588959 0.825012 0.318176
0.644867 0.836060 0.326965
0.702148 0.847412 0.335876
0.760864 0.858063 0.345093
0.819763 0.867554 0.352203
0.891602 0.895935 0.353851
0.967804 0.927887 0.411041
1.000000 0.925629 0.451752
0.200745 0.845520 0.330261
0.229462 0.849487 0.322357
0.262970 0.850739 0.318024
0.281250 0.852081 0.280884
0.333069 0.857056 0.280548
0.395966 0.863525 0.288361
0.462860 0.870697 0.296661
0.529602 0.877838 0.305389
0.583710 0.885406 0.312988
0.639496 0.893768 0.321411
0.696808 0.902588 0.330139
0.755585 0.911438 0.339233
0.815002 0.919617 0.347534
0.874237 0.926086 0.354248
0.949219 0.951752 0.425049
1.000000 0.966492 0.476990
0.197845 0.926178 0.328094
0.225616 0.928619 0.320313
0.258728 0.928314 0.315948
0.276703 0.928833 0.278381
0.326294 0.930420 0.275818
0.389221 0.932983 0.283264
0.455719 0.936310 0.291229
0.524078 0.940277 0.299835
0.578156 0.944946 0.307037
0.633942 0.950623 0.314972
0.691254 0.957062 0.323456
0.750183 0.962921 0.335236
0.809448 0.963562 0.365479
0.867126 0.964081 0.403687
0.921600 0.964355 0.446960
0.984863 0.989838 0.510864
0.194153 0.990448 0.320831
0.222076 0.992523 0.313538
0.254211 0.992035 0.309540
0.271820 0.992218 0.272308
0.319031 0.992767 0.267578
0.381897 0.993866 0.275452
0.448334 0.995697 0.283752
0.518250 0.998260 0.292694
0.572906 1.000000 0.302521
0.630127 1.000000 0.319061
0.688507 1.000000 0.341095
0.747620 1.000000 0.370575
0.806549 1.000000 0.408722
0.862549 1.000000 0.453064
0.915466 1.000000 0.504883
0.961029 1.000000 0.542877
0.050751 0.035156 0.136078
0.099762 0.039154 0.195709
0.153961 0.046539 0.200958
0.227539 0.054657 0.210724
0.307587 0.070679 0.218872
0.405853 0.089386 0.243561
0.489136 0.104645 0.263367
0.572510 0.120758 0.283142
0.655334 0.138245 0.302826
0.737457 0.156769 0.323792
0.804657 0.176880 0.340668
0.851318 0.201965 0.356415
0.896484 0.228485 0.374908
0.938202 0.254639 0.393890
0.971649 0.278137 0.412933
1.000000 0.298645 0.430023
0.053345 0.070435 0.190887
0.092316 0.077148 0.203369
0.147888 0.086731 0.200562
0.217712 0.093719 0.206543
0.296722 0.111023 0.215424
0.397644 0.134460 0.240326
0.478271 0.154633 0.261566
0.559265 0.173950 0.282501
0.640656 0.190430 0.300110
0.721619 0.205994 0.316986
0.801605 0.220886 0.333130
0.852325 0.244110 0.349945
0.897156 0.267975 0.367035
0.938751 0.293732 0.387268
0.972107 0.316711 0.407104
1.000000 0.335815 0.424042
0.069336 0.122772 0.219086
0.100067 0.126892 0.224457
0.139801 0.130859 0.217896
0.209412 0.142914 0.212250
0.287659 0.159363 0.213196
0.389771 0.186279 0.236053
0.469513 0.207153 0.254272
0.549316 0.226135 0.274384
0.628967 0.244629 0.294586
0.708557 0.262268 0.314240
0.787506 0.276642 0.330292
0.853638 0.293274 0.345642
0.897675 0.315521 0.363159
0.939270 0.338226 0.382690
0.972656 0.359497 0.402924
1.000000 0.375946 0.418671
0.086945 0.183655 0.242828
0.116730 0.189087 0.243683
0.155945 0.195007 0.240295
0.205963 0.203674 0.237213
0.285004 0.220123 0.234436
0.383972 0.246979 0.247559
0.466034 0.268677 0.259583
0.543304 0.288086 0.270996
0.620758 0.305511 0.286591
0.698730 0.322296 0.304932
0.775177 0.340179 0.324249
0.851105 0.358093 0.344116
0.898041 0.379669 0.363464
0.938934 0.399597 0.380402
0.972626 0.420074 0.400787
1.000000 0.437012 0.418518
0.112640 0.262848 0.286072
0.139587 0.267273 0.278534
0.175964 0.269714 0.270111
0.223572 0.274292 0.261658
0.280304 0.283752 0.255981
0.378235 0.317230 0.269073
0.462494 0.343597 0.281006
0.537048 0.366577 0.292480
0.612213 0.388397 0.303711
0.687073 0.408112 0.313965
0.761597 0.425842 0.324005
0.836304 0.442932 0.335602
0.897308 0.459625 0.351685
0.938141 0.473358 0.372986
0.972565 0.487305 0.397400
1.000000 0.497925 0.417419
0.142365 0.327545 0.320068
0.169098 0.333069 0.308929
0.202332 0.337250 0.296265
0.246124 0.343842 0.283936
0.294464 0.352875 0.271057
0.364136 0.370361 0.278076
0.457977 0.408203 0.290619
0.531311 0.433075 0.300507
0.604889 0.451874 0.306885
0.678680 0.468964 0.313721
0.752686 0.485535 0.320770
0.826324 0.500793 0.327484
0.898682 0.514862 0.336731
0.938873 0.525543 0.358673
0.973022 0.537292 0.383362
1.000000 0.546936 0.403992
0.169922 0.385925 0.357880
0.195984 0.391510 0.343719
0.228516 0.396393 0.328766
0.271057 0.403931 0.313110
0.312256 0.412903 0.291229
0.375702 0.430573 0.293457
0.444885 0.449860 0.298767
0.525970 0.482056 0.309052
0.598236 0.502136 0.315216
0.671204 0.519592 0.319427
0.743530 0.535767 0.322754
0.815948 0.551422 0.326782
0.888245 0.566864 0.332001
0.939270 0.578156 0.348816
0.973450 0.587738 0.373993
