Color Lookup Presets Effects/z1 (58).CUBE
#Created by: Adobe Photoshop Export Color Lookup Plugin
#Copyright: (C) Copyright 2014 www.zafizack.com
TITLE "Blue Zania"
#LUT size
LUT_3D_SIZE 6
#data domain
DOMAIN_MIN 0.0 0.0 0.0
DOMAIN_MAX 1.0 1.0 1.0
#LUT data points
0.000000 0.000000 0.000000
0.353821 0.172638 0.128571
0.613312 0.297638 0.268951
0.798767 0.470154 0.418549
0.923584 0.649414 0.575867
1.000000 0.803131 0.728668
0.000000 0.098816 0.151031
0.179138 0.209290 0.223907
0.526794 0.338989 0.322205
0.749695 0.472107 0.432983
0.901947 0.627289 0.558594
1.000000 0.773102 0.691010
0.000000 0.173096 0.267914
0.049408 0.245575 0.345276
0.346802 0.410889 0.446564
0.688751 0.556854 0.537292
0.877411 0.675720 0.623413
1.000000 0.795502 0.718994
0.000000 0.222870 0.429474
0.029602 0.290436 0.496979
0.155609 0.433929 0.583649
0.547943 0.627533 0.669861
0.845093 0.768768 0.746429
1.000000 0.865051 0.808838
0.000000 0.281372 0.609406
0.019714 0.385010 0.670990
0.104767 0.515259 0.740936
0.337219 0.670837 0.823364
0.767456 0.847534 0.889771
1.000000 0.964630 0.947021
0.000000 0.391266 0.807831
0.013000 0.495667 0.864990
0.074097 0.619385 0.921722
0.239899 0.756134 0.982727
0.649475 0.884857 1.000000
1.000000 1.000000 1.000000
0.000000 0.000000 0.000000
0.353821 0.172638 0.128571
0.613312 0.297638 0.268951
0.798767 0.470154 0.418549
0.923584 0.649414 0.575867
1.000000 0.803131 0.728668
0.000000 0.098816 0.151031
0.179138 0.209290 0.223907
0.526794 0.338989 0.322205
0.749695 0.472107 0.432983
0.901947 0.627289 0.558594
1.000000 0.773102 0.691010
0.000000 0.173096 0.267914
0.049408 0.245575 0.345276
0.346802 0.410889 0.446564
0.688751 0.556854 0.537292
0.877411 0.675720 0.623413
1.000000 0.795502 0.718994
0.000000 0.222870 0.429474
0.029602 0.290436 0.496979
0.155609 0.433929 0.583649
0.547943 0.627533 0.669861
0.845093 0.768768 0.746429
1.000000 0.865051 0.808838
0.000000 0.281372 0.609436
0.019714 0.385010 0.670990
0.104767 0.515259 0.740936
0.337219 0.670837 0.823364
0.767456 0.847534 0.889771
1.000000 0.964630 0.947021
0.000000 0.391266 0.807831
0.013000 0.495667 0.864990
0.074097 0.619385 0.921722
0.239899 0.756134 0.982727
0.649475 0.884857 1.000000
1.000000 1.000000 1.000000
0.000000 0.000000 0.000000
0.353821 0.172638 0.128571
0.613312 0.297638 0.268951
0.798767 0.470154 0.418549
0.923584 0.649414 0.575867
1.000000 0.803131 0.728668
0.000000 0.098816 0.151031
0.179138 0.209290 0.223907
0.526794 0.338989 0.322205
0.749695 0.472107 0.432983
0.901947 0.627289 0.558594
1.000000 0.773102 0.691010
0.000000 0.173096 0.267914
0.049408 0.245575 0.345276
0.346802 0.410889 0.446564
0.688751 0.556854 0.537292
0.877411 0.675720 0.623413
1.000000 0.795502 0.718994
0.000000 0.222870 0.429474
0.029602 0.290436 0.496979
0.155609 0.433929 0.583649
0.547943 0.627533 0.669861
0.845093 0.768768 0.746429
1.000000 0.865051 0.808838
0.000000 0.281372 0.609406
0.019714 0.385010 0.670990
0.104767 0.515259 0.740936
0.337219 0.670837 0.823364
0.767456 0.847473 0.889709
1.000000 0.964630 0.947021
0.000000 0.391266 0.807831
0.013000 0.495667 0.864990
0.074097 0.619385 0.921722
0.239899 0.756134 0.982727
0.649475 0.884857 1.000000
1.000000 1.000000 1.000000
0.000000 0.000000 0.000000
0.353821 0.172638 0.128571
0.613312 0.297638 0.268951
0.798767 0.470154 0.418549
0.923584 0.649414 0.575867
1.000000 0.803131 0.728668
0.000000 0.098816 0.151031
0.179138 0.209290 0.223907
0.526794 0.338989 0.322205
0.749695 0.472107 0.432983
0.901947 0.627289 0.558594
1.000000 0.773102 0.691010
0.000000 0.173096 0.267914
0.049408 0.245575 0.345276
0.346802 0.410889 0.446564
0.688751 0.556854 0.537292
0.877411 0.675720 0.623413
1.000000 0.795502 0.718994
0.000000 0.222870 0.429474
0.029602 0.290436 0.496979
0.155609 0.433929 0.583649
0.547943 0.627533 0.669861
0.845093 0.768768 0.746429
1.000000 0.865051 0.808838
0.000000 0.281372 0.609436
0.019714 0.385010 0.670990
0.104767 0.515259 0.740936
0.337219 0.670837 0.823364
0.767456 0.847534 0.889771
1.000000 0.964630 0.947021
0.000000 0.391266 0.807831
0.013000 0.495667 0.864990
0.074097 0.619385 0.921722
0.239899 0.756134 0.982727
0.649475 0.884857 1.000000
1.000000 1.000000 1.000000
0.000000 0.000000 0.000000
0.353821 0.172638 0.128571
0.613312 0.297638 0.268951
0.798767 0.470154 0.418549
0.923584 0.649414 0.575867
1.000000 0.803131 0.728668
0.000000 0.098816 0.151031
0.179138 0.209290 0.223907
0.526794 0.338989 0.322205
0.749695 0.472107 0.432983
0.901947 0.627289 0.558594
1.000000 0.773102 0.691010
0.000000 0.173096 0.267914
0.049408 0.245575 0.345276
0.346802 0.410889 0.446564
0.688751 0.556854 0.537292
0.877411 0.675720 0.623413
1.000000 0.795502 0.718994
0.000000 0.222870 0.429474
0.029602 0.290436 0.496979
0.155609 0.433929 0.583649
0.547943 0.627533 0.669861
0.845093 0.768768 0.746429
1.000000 0.865051 0.808838
0.000000 0.281372 0.609406
0.019714 0.385010 0.670990
0.104767 0.515259 0.740936
0.337219 0.670837 0.823364
0.767456 0.847534 0.889771
1.000000 0.964630 0.947021
0.000000 0.391266 0.807831
0.013000 0.495667 0.864990
0.074097 0.619385 0.921722
0.239899 0.756134 0.982727
0.649475 0.884857 1.000000
1.000000 1.000000 1.000000
0.000000 0.000000 0.000000
0.353821 0.172638 0.128571
0.613312 0.297638 0.268951
0.798767 0.470154 0.418549
0.923584 0.649414 0.575867
1.000000 0.803131 0.728668
0.000000 0.098816 0.151031
0.179138 0.209290 0.223907
0.526794 0.338989 0.322205
0.749695 0.472107 0.432983
0.901947 0.627289 0.558594
1.000000 0.773102 0.691010
0.000000 0.173096 0.267914
0.049408 0.245575 0.345276
0.346802 0.410889 0.446564
0.688751 0.556854 0.537292
0.877411 0.675720 0.623413
1.000000 0.795502 0.718994
0.000000 0.222870 0.429474
0.029602 0.290436 0.496979
0.155609 0.433929 0.583649
0.547943 0.627533 0.669861
0.845093 0.768768 0.746429
1.000000 0.865051 0.808838
0.000000 0.281372 0.609406
0.019714 0.385010 0.670990
0.104767 0.515259 0.740936
0.337219 0.670837 0.823364
0.767456 0.847534 0.889771
1.000000 0.964630 0.947021
0.000000 0.391266 0.807831
0.013000 0.495667 0.864990
0.074097 0.619385 0.921722
0.239899 0.756134 0.982727
0.649475 0.884857 1.000000
1.000000 1.000000 1.000000
