Color Lookup Presets Effects/z1 (93).CUBE
#Created by: Adobe Photoshop Export Color Lookup Plugin
#Copyright: (C) Copyright 2015 www.zafizack.com
TITLE "zafizack-VG-19"
#LUT size
LUT_3D_SIZE 6
#data domain
DOMAIN_MIN 0.0 0.0 0.0
DOMAIN_MAX 1.0 1.0 1.0
#LUT data points
0.000000 0.000000 0.000000
0.200043 0.000000 0.000000
0.399994 0.000000 0.000000
0.600006 0.000000 0.000000
0.799988 0.000000 0.000000
1.000000 0.000000 0.000000
0.393494 0.187866 0.250732
0.433289 0.207733 0.294403
0.574921 0.207733 0.294403
0.716675 0.207733 0.294403
0.858307 0.207733 0.294403
1.000000 0.207733 0.294403
0.602814 0.221619 0.331543
0.630554 0.237427 0.387848
0.706268 0.291901 0.472137
0.804199 0.291901 0.472137
0.902130 0.291901 0.472137
1.000000 0.291901 0.472137
0.809601 0.307129 0.487823
0.803864 0.391296 0.568695
0.833893 0.479462 0.645050
0.885193 0.577881 0.722778
0.942596 0.577881 0.722778
1.000000 0.577881 0.722778
0.955414 0.692139 0.805450
0.936646 0.736298 0.835632
0.937225 0.776154 0.862122
0.951691 0.820496 0.890839
0.974304 0.865387 0.919128
1.000000 0.865387 0.919128
1.000000 1.000000 1.000000
1.000000 1.000000 1.000000
1.000000 1.000000 1.000000
1.000000 1.000000 1.000000
1.000000 1.000000 1.000000
1.000000 1.000000 1.000000
0.000000 0.000000 0.200043
0.200043 0.000000 0.200043
0.399994 0.000000 0.200043
0.600006 0.000000 0.200043
0.799988 0.000000 0.200043
1.000000 0.000000 0.200043
0.000000 0.200043 0.200043
0.200043 0.200043 0.200043
0.399994 0.200043 0.200043
0.600006 0.200043 0.200043
0.799988 0.200043 0.200043
1.000000 0.200043 0.200043
0.379547 0.292358 0.296173
0.514771 0.275024 0.337860
0.580139 0.326691 0.411469
0.720093 0.326691 0.411469
0.860016 0.326691 0.411469
1.000000 0.326691 0.411469
0.687531 0.388489 0.522339
0.751740 0.402161 0.535370
0.767548 0.484131 0.597321
0.819550 0.572968 0.661316
0.909790 0.572968 0.661316
1.000000 0.572968 0.661316
0.898071 0.727814 0.818329
0.918701 0.735077 0.823364
0.907196 0.771912 0.839447
0.915894 0.813019 0.847961
0.947510 0.851929 0.885376
1.000000 0.851929 0.885376
0.994995 1.000000 0.991272
0.996002 1.000000 0.993011
0.987946 1.000000 0.978943
0.981781 1.000000 0.968140
0.983856 1.000000 0.970947
1.000000 1.000000 0.998413
0.000000 0.000000 0.399994
0.200043 0.000000 0.399994
0.399994 0.000000 0.399994
0.600006 0.000000 0.399994
0.799957 0.000000 0.399994
1.000000 0.000000 0.399994
0.000000 0.200043 0.399994
0.200043 0.200043 0.399994
0.399994 0.200043 0.399994
0.600006 0.200012 0.399994
0.799988 0.200043 0.399994
1.000000 0.200043 0.399994
0.000000 0.399994 0.399994
0.200043 0.399994 0.399994
0.399994 0.399994 0.399994
0.600006 0.399994 0.399994
0.799957 0.399994 0.399994
1.000000 0.399994 0.399994
0.405640 0.476898 0.335114
0.551727 0.491425 0.431091
0.682434 0.487671 0.521088
0.726318 0.567871 0.553314
0.863159 0.567871 0.553314
1.000000 0.567871 0.553314
0.769592 0.755524 0.648254
0.822540 0.757690 0.708282
0.872070 0.760254 0.768494
0.873535 0.791534 0.754639
0.913696 0.817413 0.765137
1.000000 0.816925 0.769867
0.958527 1.000000 0.928650
0.967102 1.000000 0.942719
0.975586 1.000000 0.956787
0.962830 1.000000 0.931671
0.966980 1.000000 0.930267
1.000000 1.000000 0.968994
0.000000 0.000000 0.600006
0.200043 0.000000 0.600006
0.399994 0.000000 0.600006
0.600006 0.000000 0.600006
0.799988 0.000000 0.600006
1.000000 0.000000 0.600006
0.000000 0.200043 0.600006
0.200043 0.200043 0.600006
0.399994 0.200012 0.600006
0.600006 0.200043 0.600006
0.799988 0.200012 0.600006
1.000000 0.200012 0.600006
0.000000 0.399994 0.600006
0.200012 0.399994 0.600006
0.399994 0.399994 0.600006
0.600006 0.399994 0.600006
0.799988 0.399994 0.600006
1.000000 0.399994 0.600006
0.000000 0.600006 0.600006
0.200043 0.600006 0.600006
0.399994 0.600006 0.600006
0.600006 0.600006 0.600006
0.799988 0.600006 0.600006
1.000000 0.600006 0.600006
0.384979 0.726746 0.453583
0.518372 0.730408 0.478851
0.657074 0.743103 0.540649
0.783020 0.761841 0.610809
0.858246 0.791565 0.669189
1.000000 0.791565 0.669189
0.772064 1.000000 0.613647
0.823395 1.000000 0.664673
0.871338 1.000000 0.712494
0.916779 1.000000 0.760193
0.933380 1.000000 0.724426
1.000000 1.000000 0.754211
0.000000 0.000000 0.799988
0.200043 0.000000 0.799988
0.399994 0.000000 0.799957
0.600006 0.000000 0.799988
0.799988 0.000000 0.799988
1.000000 0.000000 0.799988
0.000000 0.200043 0.799988
0.200043 0.200043 0.799988
0.399994 0.200043 0.799988
0.600006 0.200012 0.799988
0.799988 0.200043 0.799988
1.000000 0.200043 0.799988
0.000000 0.399994 0.799957
0.200043 0.399994 0.799988
0.399994 0.399994 0.799957
0.600006 0.399994 0.799988
0.799957 0.399994 0.799957
1.000000 0.399994 0.799988
0.000000 0.600006 0.799988
0.200012 0.600006 0.799988
0.399994 0.600006 0.799988
0.600006 0.600006 0.799988
0.799988 0.600006 0.799988
1.000000 0.600006 0.799988
0.000000 0.799988 0.799988
0.200043 0.799988 0.799988
0.399994 0.799957 0.799957
0.600006 0.799988 0.799988
0.799988 0.799988 0.799988
1.000000 0.799988 0.799988
0.385132 1.000000 0.726685
0.508118 1.000000 0.726685
0.631042 1.000000 0.726685
0.756500 1.000000 0.732605
0.883820 1.000000 0.762817
1.000000 1.000000 0.818573
0.000000 0.000000 1.000000
0.200043 0.000000 1.000000
0.399994 0.000000 1.000000
0.600006 0.000000 1.000000
0.799988 0.000000 1.000000
1.000000 0.000000 1.000000
0.000000 0.200043 1.000000
0.200043 0.200043 1.000000
0.399994 0.200043 1.000000
0.600006 0.200012 1.000000
0.799988 0.200043 1.000000
1.000000 0.200043 1.000000
0.000000 0.399994 1.000000
0.200043 0.399994 1.000000
0.399994 0.399994 1.000000
0.600006 0.399994 1.000000
0.799988 0.399994 1.000000
1.000000 0.399994 1.000000
0.000000 0.600006 1.000000
0.200012 0.600006 1.000000
0.399994 0.600006 1.000000
0.600006 0.600006 1.000000
0.799988 0.600006 1.000000
1.000000 0.600006 1.000000
0.000000 0.799988 1.000000
0.200043 0.799988 1.000000
0.399994 0.799988 1.000000
0.600006 0.799988 1.000000
0.799988 0.799988 1.000000
1.000000 0.799988 1.000000
0.000000 1.000000 1.000000
0.200043 1.000000 1.000000
0.399994 1.000000 1.000000
0.600006 1.000000 1.000000
0.799988 1.000000 1.000000
1.000000 1.000000 1.000000
