Color Lookup Presets Effects/z1 (86).CUBE
#Created by: Adobe Photoshop Export Color Lookup Plugin
#Copyright: (C) Copyright 2015 www.zafizack.com
TITLE "zafizack-VG-12"
#LUT size
LUT_3D_SIZE 16
#data domain
DOMAIN_MIN 0.0 0.0 0.0
DOMAIN_MAX 1.0 1.0 1.0
#LUT data points
0.087585 0.050232 0.068115
0.097534 0.049622 0.067596
0.161407 0.043671 0.062897
0.252502 0.028503 0.050873
0.355042 0.016998 0.065521
0.456299 0.013367 0.084229
0.550598 0.009216 0.105438
0.638031 0.024170 0.129150
0.718842 0.053345 0.154633
0.780853 0.076752 0.180115
0.828308 0.094299 0.204926
0.871979 0.108948 0.230072
0.915192 0.122742 0.257294
0.958038 0.135254 0.285339
1.000000 0.146423 0.313629
1.000000 0.155945 0.341919
0.087585 0.050232 0.068115
0.114227 0.054169 0.066071
0.188507 0.067383 0.061096
0.284790 0.073700 0.070374
0.385925 0.078949 0.085876
0.483521 0.079285 0.103577
0.573700 0.080841 0.123718
0.657104 0.096039 0.145264
0.734192 0.113464 0.169067
0.789948 0.126373 0.193329
0.833923 0.136627 0.218018
0.876556 0.146149 0.244293
0.918518 0.155762 0.271729
0.960205 0.164520 0.299927
1.000000 0.172211 0.328583
1.000000 0.178711 0.357208
0.084595 0.085785 0.064301
0.098694 0.099335 0.061462
0.218414 0.123596 0.082245
0.317963 0.129608 0.091827
0.416077 0.133820 0.105835
0.509644 0.133484 0.122040
0.595825 0.136169 0.140015
0.675262 0.148102 0.160828
0.745544 0.159729 0.183319
0.797241 0.167572 0.207275
0.839386 0.173462 0.231964
0.880829 0.179657 0.257996
0.921631 0.186401 0.285553
0.962128 0.192413 0.313721
1.000000 0.197693 0.342682
1.000000 0.201874 0.372192
0.077911 0.134216 0.055878
0.078644 0.146759 0.055847
0.176422 0.163422 0.083252
0.338684 0.194244 0.114716
0.435486 0.197968 0.126068
0.525452 0.199066 0.141296
0.609009 0.203461 0.157898
0.687622 0.211365 0.176453
0.754913 0.218903 0.198273
0.802948 0.224792 0.221863
0.843811 0.229370 0.245453
0.884125 0.234161 0.269897
0.923920 0.239929 0.295227
0.963348 0.245422 0.322510
1.000000 0.250671 0.350433
1.000000 0.255493 0.378723
0.068176 0.180359 0.042816
0.065308 0.190430 0.058105
0.143463 0.205261 0.089966
0.300232 0.240417 0.120483
0.448883 0.260712 0.148102
0.535583 0.263702 0.162323
0.615753 0.270966 0.181641
0.692352 0.277100 0.200256
0.758484 0.282257 0.219696
0.807770 0.285461 0.239166
0.847687 0.288025 0.259308
0.886841 0.292572 0.282898
0.925690 0.297180 0.308411
0.964111 0.301392 0.334198
1.000000 0.305420 0.360382
1.000000 0.308624 0.387360
0.054565 0.223297 0.024750
0.050995 0.231598 0.057465
0.116486 0.243988 0.092010
0.247528 0.268677 0.122833
0.420685 0.307495 0.153748
0.547150 0.320770 0.185730
0.623840 0.328247 0.203613
0.695465 0.336456 0.223999
0.761108 0.343506 0.245422
0.812347 0.344574 0.262024
0.851257 0.344025 0.279816
0.889648 0.345459 0.300323
0.927338 0.348480 0.323090
0.964752 0.352112 0.347565
1.000000 0.355621 0.372467
1.000000 0.358948 0.397888
0.037170 0.260498 0.013245
0.032745 0.267548 0.055298
0.096283 0.278687 0.092163
0.201202 0.296814 0.127045
0.386658 0.341431 0.157074
0.524719 0.361176 0.187592
0.633484 0.376740 0.224731
0.701324 0.384277 0.244904
0.764771 0.391876 0.267151
0.816101 0.394531 0.287109
0.854980 0.393555 0.303955
0.892212 0.393433 0.322205
0.929169 0.394104 0.341553
0.965607 0.395935 0.362854
1.000000 0.399231 0.386780
1.000000 0.402618 0.411163
0.018951 0.290771 0.006622
0.014557 0.297394 0.051605
0.079651 0.307922 0.090973
0.171783 0.322296 0.126404
0.344238 0.358948 0.159088
0.503662 0.394073 0.191101
0.616730 0.408661 0.225464
0.709778 0.423767 0.267059
0.770081 0.430939 0.290009
0.821106 0.435242 0.310913
0.859314 0.435791 0.329651
0.895447 0.434479 0.345428
0.931183 0.434235 0.362762
0.966553 0.435181 0.382599
1.000000 0.436646 0.403442
1.000000 0.439453 0.426239
0.002808 0.314789 0.000305
0.000000 0.321014 0.047638
0.062653 0.331024 0.089478
0.156403 0.344116 0.125671
0.307861 0.372223 0.160950
0.484467 0.419312 0.191956
0.602081 0.433594 0.226593
0.697968 0.447754 0.265686
0.778198 0.461731 0.312408
0.827454 0.466766 0.334076
0.864166 0.468628 0.353668
0.898895 0.467224 0.369324
0.933533 0.466187 0.385284
0.967712 0.466461 0.403351
1.000000 0.467133 0.422180
1.000000 0.469238 0.442932
0.000000 0.340302 0.000000
0.000000 0.348236 0.043274
0.037567 0.359650 0.089203
0.136902 0.373383 0.126709
0.261444 0.395966 0.165161
0.440796 0.442139 0.194824
0.578888 0.473175 0.227600
0.678284 0.488464 0.265900
0.760651 0.503082 0.309814
0.828186 0.516296 0.355042
0.867249 0.519409 0.376129
0.900696 0.521179 0.396332
0.934082 0.521027 0.413391
0.967682 0.519135 0.427643
1.000000 0.518860 0.444000
1.000000 0.519440 0.461548
0.000000 0.424011 0.000000
0.000000 0.430756 0.032318
0.000000 0.440613 0.089844
0.092316 0.452393 0.131653
0.188934 0.465729 0.168304
0.333344 0.494202 0.205353
0.501312 0.536133 0.232056
0.634491 0.569733 0.267120
0.725952 0.583588 0.309692
0.801544 0.594879 0.350891
0.861267 0.604675 0.396484
0.899078 0.608185 0.417786
0.931610 0.611115 0.439301
0.964172 0.613800 0.460327
0.996735 0.614349 0.477478
1.000000 0.614899 0.494629
0.000000 0.508728 0.000000
0.000000 0.514221 0.030426
0.000000 0.522614 0.095612
0.000885 0.533203 0.139709
0.139740 0.545959 0.176208
0.255035 0.565887 0.211578
0.392120 0.594116 0.246216
0.546692 0.624054 0.273132
0.679321 0.657959 0.309296
0.768494 0.673981 0.349640
0.839081 0.683228 0.393250
0.895355 0.690796 0.436005
0.928497 0.693420 0.456238
0.960724 0.695770 0.476196
0.992340 0.698151 0.496246
1.000000 0.700470 0.515747
0.000000 0.590179 0.000000
0.000000 0.594574 0.039612
0.000000 0.603760 0.105530
0.000000 0.616638 0.149597
0.065369 0.630005 0.186554
0.185852 0.644379 0.220612
0.315125 0.666107 0.255524
0.448029 0.689972 0.289368
0.585114 0.712677 0.320770
0.709137 0.737488 0.350586
0.801849 0.757599 0.391876
0.872101 0.769409 0.432495
0.924469 0.775635 0.474823
0.956055 0.777985 0.494354
0.987549 0.780151 0.513000
1.000000 0.782318 0.531982
0.000000 0.674011 0.000000
0.000000 0.680206 0.051331
0.000000 0.690582 0.116730
0.000000 0.703247 0.162079
0.000000 0.715668 0.200409
0.112793 0.727844 0.234711
0.236450 0.742828 0.267395
0.369354 0.763672 0.300629
0.498627 0.783325 0.331665
0.623291 0.802124 0.361816
0.732147 0.818726 0.394745
0.824097 0.836334 0.430603
0.898926 0.851349 0.471100
0.949219 0.861237 0.511841
0.980927 0.863708 0.530487
1.000000 0.866211 0.549011
0.000000 0.765076 0.000000
0.000000 0.770691 0.069244
0.000000 0.780243 0.133911
0.000000 0.792358 0.180115
0.000000 0.803894 0.218750
0.000000 0.815369 0.253174
0.152893 0.826782 0.284943
0.287170 0.842743 0.316101
0.415558 0.860840 0.346252
0.541046 0.877014 0.374268
0.654022 0.892700 0.405334
0.753571 0.907318 0.436920
0.839081 0.918152 0.468658
0.912415 0.928619 0.502655
0.967316 0.935516 0.537872
1.000000 0.940918 0.554352
0.000000 0.857239 0.000000
0.000000 0.861633 0.097076
0.000000 0.870026 0.157440
0.000000 0.880890 0.202789
0.000000 0.891388 0.240845
0.000000 0.901489 0.274750
0.000000 0.911316 0.305664
0.202087 0.922699 0.334991
0.341003 0.938660 0.363220
0.473938 0.952759 0.389557
0.592743 0.963928 0.410553
0.700195 0.973450 0.427429
0.794647 0.982513 0.451447
0.874969 0.990356 0.478821
0.942535 0.996185 0.509613
0.998444 0.999939 0.542694
0.087585 0.050232 0.068115
0.100708 0.049408 0.067413
0.166565 0.043030 0.078430
0.260010 0.026947 0.093781
0.360809 0.016968 0.112885
0.461334 0.013062 0.134155
0.554993 0.009155 0.157013
0.641754 0.025299 0.180847
0.722046 0.054657 0.208405
0.782593 0.077240 0.235168
0.829346 0.094604 0.260742
0.872772 0.109222 0.286560
0.915741 0.122864 0.312836
0.958405 0.135406 0.339417
1.000000 0.146362 0.367126
1.000000 0.155945 0.394379
0.087585 0.050232 0.068115
0.087585 0.050232 0.068115
0.151520 0.062714 0.085632
0.246948 0.072784 0.097961
0.351898 0.079651 0.113220
0.454346 0.082092 0.131958
0.549835 0.081970 0.152313
0.637787 0.094299 0.174530
0.718872 0.112457 0.200562
0.780426 0.126801 0.226074
0.827667 0.137756 0.251007
0.871552 0.147308 0.276520
0.914886 0.157379 0.303558
0.957794 0.166656 0.331024
1.000000 0.174713 0.359436
1.000000 0.181427 0.387665
0.084045 0.090698 0.069946
0.082916 0.100098 0.075226
0.176819 0.120270 0.106567
0.278229 0.130096 0.118805
0.382233 0.135101 0.131775
0.480896 0.136749 0.148102
0.572266 0.137970 0.168060
0.656586 0.149292 0.190338
0.734161 0.162323 0.214752
0.789032 0.170959 0.238770
0.833008 0.177094 0.262482
0.875793 0.183136 0.287384
0.917877 0.190247 0.314575
0.959595 0.196655 0.343323
1.000000 0.202362 0.371826
1.000000 0.206970 0.400146
0.076019 0.144257 0.074463
0.074615 0.151642 0.079559
0.141663 0.167023 0.109100
0.294281 0.198822 0.141815
0.397797 0.204376 0.152771
0.495514 0.205261 0.168274
0.585663 0.206238 0.185272
0.668243 0.214691 0.204773
0.741730 0.225250 0.227814
0.794464 0.232330 0.250671
0.836975 0.237244 0.273346
0.878815 0.242493 0.298279
0.919983 0.247040 0.324249
0.960724 0.252350 0.350800
1.000000 0.257843 0.377716
1.000000 0.262909 0.404785
0.063812 0.195374 0.076233
0.062073 0.201050 0.081085
0.110504 0.213898 0.113251
0.241425 0.238831 0.143066
0.409485 0.270813 0.176178
0.503174 0.274078 0.191315
0.590149 0.277771 0.208618
0.670532 0.285034 0.227234
0.742920 0.291626 0.246399
0.799133 0.295319 0.265442
0.840454 0.299500 0.287903
0.881226 0.304230 0.311340
0.921387 0.308990 0.335327
0.961243 0.313446 0.359955
1.000000 0.317505 0.385376
1.000000 0.321198 0.411285
0.046661 0.241333 0.074799
0.044708 0.245453 0.079163
0.086121 0.256592 0.113159
0.190125 0.274506 0.145721
0.372894 0.317139 0.178497
0.512146 0.334442 0.213837
0.595276 0.340576 0.230927
0.671417 0.348816 0.251099
0.743408 0.355225 0.270966
0.799561 0.357849 0.288849
0.843719 0.358826 0.306763
0.883606 0.360199 0.325928
0.922821 0.363800 0.348236
0.961639 0.367462 0.371399
1.000000 0.371124 0.395508
1.000000 0.374756 0.420166
0.024536 0.281433 0.070892
0.022278 0.285126 0.075012
0.064270 0.295135 0.111115
0.156250 0.309174 0.144440
0.319824 0.341888 0.177765
0.485535 0.378174 0.212830
0.603241 0.392761 0.252045
0.676636 0.400177 0.272247
0.744202 0.408020 0.294189
0.803650 0.413452 0.315552
0.846924 0.412872 0.331085
0.885986 0.411957 0.346832
0.924377 0.412781 0.365265
0.962128 0.414642 0.385864
0.999786 0.417725 0.408386
1.000000 0.420807 0.431274
0.002899 0.314606 0.065063
0.000610 0.317902 0.069244
0.038849 0.327332 0.107727
0.138092 0.340179 0.142120
0.272858 0.364105 0.178223
0.458588 0.411987 0.211945
0.583344 0.428040 0.249329
0.683990 0.442474 0.293457
0.748535 0.449677 0.314697
0.808899 0.457153 0.338074
0.850220 0.458649 0.356384
0.888489 0.456970 0.370728
0.925995 0.456604 0.387115
0.962921 0.456726 0.404572
0.999481 0.458008 0.423859
1.000000 0.460663 0.445007
0.000000 0.341156 0.057892
0.000000 0.344147 0.063507
0.013062 0.353058 0.105164
0.120392 0.364655 0.140991
0.238739 0.383698 0.178131
0.420837 0.426697 0.209473
0.565613 0.456085 0.246857
0.669617 0.469910 0.289459
0.755280 0.483307 0.334930
0.811981 0.489868 0.357727
0.855225 0.492737 0.377533
0.891724 0.493622 0.395660
0.927979 0.492462 0.410034
0.963806 0.491486 0.424988
0.999390 0.491913 0.442200
1.000000 0.493622 0.461090
0.000000 0.368347 0.049072
0.000000 0.371033 0.055298
0.000000 0.381531 0.101654
0.102997 0.394531 0.139893
0.210388 0.411835 0.177032
0.368683 0.444550 0.210938
0.539124 0.494629 0.244202
0.648224 0.510376 0.287170
0.736969 0.524536 0.330231
0.810547 0.537720 0.377258
0.858032 0.543060 0.399353
0.893372 0.545563 0.419250
0.928497 0.545898 0.435577
0.963318 0.545197 0.450409
0.998108 0.544006 0.464203
1.000000 0.543091 0.478638
0.000000 0.445923 0.039429
0.000000 0.448181 0.046814
0.000000 0.457245 0.102112
0.044037 0.468628 0.143463
0.156586 0.481110 0.179932
0.282623 0.503479 0.216980
0.437531 0.537720 0.247955
0.599457 0.582092 0.284058
0.702209 0.599518 0.326538
0.782867 0.611115 0.371216
0.851257 0.621429 0.416718
0.891907 0.624969 0.436981
0.926117 0.627991 0.457428
0.960297 0.630951 0.477661
0.994141 0.633026 0.496124
1.000000 0.633636 0.511719
0.000000 0.524200 0.034973
0.000000 0.526184 0.042999
0.000000 0.533905 0.105316
0.000000 0.544434 0.149292
0.104492 0.557434 0.186066
0.213379 0.573700 0.220520
0.350250 0.600555 0.256714
0.496155 0.628448 0.291138
0.643738 0.661438 0.323853
0.746674 0.683411 0.366211
0.823883 0.695099 0.410492
0.885406 0.703217 0.454895
0.923218 0.706055 0.473877
0.956787 0.708649 0.493042
0.990204 0.710938 0.511810
1.000000 0.713440 0.530518
0.000000 0.600830 0.038971
0.000000 0.602844 0.046600
0.000000 0.610870 0.112305
0.000000 0.623566 0.156738
0.000000 0.637268 0.194244
0.151489 0.650757 0.228516
0.277954 0.670380 0.263153
0.411560 0.694214 0.298920
0.550629 0.717285 0.332581
0.680573 0.739868 0.364746
0.783844 0.762787 0.405457
0.861328 0.777557 0.447784
0.917816 0.784241 0.491302
0.952332 0.786987 0.509888
0.985260 0.789276 0.527893
1.000000 0.791504 0.545624
0.000000 0.681305 0.046509
0.000000 0.684082 0.052063
0.000000 0.693756 0.119690
0.000000 0.706543 0.166046
0.000000 0.719116 0.205231
0.068634 0.731415 0.240295
0.199860 0.744629 0.273102
0.337738 0.765259 0.306793
0.469360 0.785492 0.338776
0.597137 0.804413 0.372040
0.712219 0.822174 0.406586
0.809082 0.838898 0.442413
0.888428 0.854614 0.484253
0.945709 0.866730 0.525909
0.978973 0.869598 0.543945
1.000000 0.872162 0.561737
0.000000 0.769012 0.057068
0.000000 0.771454 0.062225
0.000000 0.780334 0.132294
0.000000 0.792572 0.180267
0.000000 0.804413 0.220245
0.000000 0.815948 0.255707
0.117249 0.827240 0.288177
0.255951 0.842041 0.319702
0.387634 0.860931 0.350739
0.518005 0.877228 0.380310
0.635284 0.893127 0.412170
0.739258 0.908325 0.445435
0.829529 0.919800 0.478638
0.906281 0.930206 0.512512
0.965363 0.937378 0.549744
1.000000 0.942810 0.565063
0.000000 0.857239 0.079132
0.000000 0.859436 0.083405
0.000000 0.867126 0.151001
0.000000 0.878235 0.198853
0.000000 0.888916 0.238556
0.000000 0.899231 0.273682
0.000000 0.909180 0.305756
0.165131 0.919495 0.335785
0.317841 0.935638 0.365021
0.452240 0.950531 0.392609
0.575623 0.962616 0.415161
0.687347 0.972168 0.433014
0.785767 0.981689 0.458832
0.870056 0.989899 0.486542
0.940704 0.996033 0.519196
0.999176 0.999939 0.553040
0.087616 0.050201 0.092316
0.100739 0.049316 0.109650
0.175812 0.041748 0.121185
0.273102 0.024048 0.140045
0.375397 0.016663 0.164063
0.466827 0.012756 0.184998
0.559845 0.009338 0.210358
0.646027 0.026733 0.236786
0.725525 0.055847 0.264404
0.784485 0.077972 0.291168
0.830383 0.094940 0.317078
0.873596 0.109497 0.343048
0.916351 0.123047 0.369080
0.958801 0.135468 0.395264
1.000000 0.146393 0.421173
1.000000 0.155914 0.446747
0.087585 0.050171 0.108398
0.087555 0.050140 0.114349
0.155182 0.065887 0.125824
0.255432 0.075897 0.141266
0.359772 0.083160 0.160645
0.459412 0.085175 0.181946
0.554382 0.085541 0.205139
0.641754 0.098694 0.229645
0.722229 0.116455 0.255951
0.782135 0.130035 0.281799
0.828522 0.140808 0.307251
0.872284 0.150330 0.332825
0.915375 0.160248 0.359406
0.958099 0.169464 0.386383
1.000000 0.177399 0.413269
1.000000 0.184204 0.439789
0.083374 0.095612 0.120544
0.082153 0.105347 0.126068
0.135773 0.115417 0.129517
0.238800 0.131042 0.148193
0.346863 0.137543 0.162476
0.451508 0.140503 0.180298
0.548218 0.141266 0.201111
0.637054 0.150696 0.223999
0.718781 0.164001 0.248505
0.779510 0.173981 0.273071
0.826508 0.181122 0.297455
0.870667 0.187225 0.322632
0.914124 0.194122 0.349335
0.957092 0.200958 0.376984
0.999725 0.206970 0.404541
1.000000 0.212006 0.431946
0.073944 0.154968 0.125610
0.072388 0.162262 0.130798
0.107147 0.171356 0.136017
0.243988 0.197540 0.170807
0.360962 0.208954 0.184540
0.465698 0.210236 0.198761
0.560669 0.211456 0.216980
0.647552 0.220337 0.236908
0.726563 0.232025 0.260742
0.785950 0.240631 0.284332
0.830109 0.245880 0.307526
0.873444 0.251221 0.331879
0.915894 0.256104 0.356873
0.957947 0.260864 0.382690
0.999695 0.265350 0.408752
1.000000 0.270569 0.434906
0.059021 0.210449 0.127808
0.057068 0.215942 0.132507
0.081909 0.223480 0.137726
0.189484 0.242401 0.169495
0.366974 0.279938 0.207367
0.469971 0.283325 0.221924
0.563782 0.285431 0.238617
0.649750 0.291840 0.256683
0.728485 0.299316 0.276550
0.789581 0.307190 0.298737
0.833099 0.311890 0.320221
0.875458 0.316620 0.342712
0.917175 0.321045 0.365723
0.958282 0.325500 0.390228
0.999115 0.329895 0.414825
1.000000 0.333832 0.439514
0.037201 0.259918 0.127045
0.034729 0.264191 0.131195
0.055237 0.270477 0.136169
0.144653 0.284241 0.167999
0.311096 0.317444 0.203674
0.475464 0.348236 0.244415
0.565643 0.352997 0.262360
0.648743 0.359131 0.280487
0.724976 0.365662 0.299652
0.789185 0.370514 0.318512
0.836090 0.371704 0.335388
0.877502 0.375000 0.355865
0.918243 0.379059 0.378021
0.958557 0.382904 0.400482
0.998535 0.386810 0.423401
1.000000 0.390503 0.446625
0.011200 0.302490 0.123444
0.008606 0.306305 0.127289
0.022614 0.311890 0.132385
0.124298 0.324554 0.165039
0.253387 0.347137 0.201660
0.441925 0.392883 0.239716
0.571350 0.409210 0.283752
0.650604 0.416046 0.303101
0.722809 0.423553 0.324249
0.790924 0.429413 0.344086
0.838348 0.430328 0.360474
0.879425 0.430573 0.376709
0.919434 0.430939 0.393616
0.958832 0.433105 0.413239
0.997986 0.436310 0.434570
1.000000 0.439636 0.456360
0.000000 0.338318 0.118286
0.000000 0.341705 0.122681
0.000000 0.346802 0.128296
0.102875 0.358337 0.162292
0.214020 0.375641 0.197815
0.392944 0.414124 0.233643
0.548004 0.447327 0.277924
0.656708 0.461578 0.322601
0.726288 0.468506 0.343597
0.790283 0.475830 0.366455
0.841431 0.479340 0.385834
0.881653 0.479065 0.400940
0.920685 0.477936 0.414856
0.959076 0.477905 0.430695
0.997223 0.479126 0.448486
1.000000 0.481445 0.468079
0.000000 0.367340 0.111969
0.000000 0.370453 0.116974
0.000000 0.375244 0.123047
0.085205 0.386261 0.159302
0.191895 0.401062 0.194946
0.348663 0.430420 0.230896
0.525848 0.478088 0.271790
0.639435 0.492035 0.316162
0.731934 0.504913 0.363800
0.793762 0.511475 0.385284
0.845703 0.517273 0.407349
0.884155 0.518921 0.425171
0.922272 0.517639 0.437988
0.959747 0.516724 0.451752
0.996826 0.516754 0.467010
1.000000 0.517456 0.483337
0.000000 0.395844 0.106781
0.000000 0.398621 0.111664
0.000000 0.403076 0.118378
0.060516 0.415436 0.156616
0.162292 0.429352 0.191895
0.302063 0.454834 0.230591
0.478790 0.500244 0.265961
0.615845 0.531067 0.309875
0.712433 0.545746 0.356018
0.792480 0.558807 0.403595
0.845490 0.564270 0.424408
0.885864 0.567749 0.444336
0.922577 0.570282 0.462982
0.959198 0.569794 0.476746
0.995453 0.568329 0.488678
1.000000 0.567780 0.502258
0.000000 0.467224 0.106354
0.000000 0.469635 0.111145
0.000000 0.473541 0.118073
0.000000 0.484589 0.158783
0.121613 0.496490 0.195068
0.235382 0.515350 0.230530
0.381317 0.546051 0.268524
0.549927 0.585052 0.304199
0.674438 0.613281 0.347992
0.763123 0.627167 0.394989
0.835907 0.637543 0.441498
0.883759 0.641754 0.460907
0.920563 0.644806 0.480042
0.956207 0.647797 0.499298
0.991699 0.649933 0.516479
1.000000 0.650452 0.530792
0.000000 0.539795 0.107605
0.000000 0.541870 0.112488
0.000000 0.545288 0.119629
0.000000 0.555420 0.163025
0.059387 0.567688 0.200073
0.178406 0.583435 0.233917
0.309540 0.607635 0.270233
0.452972 0.635376 0.307831
0.605469 0.664276 0.342957
0.724152 0.692078 0.386536
0.808716 0.706757 0.431885
0.876404 0.715454 0.477905
0.916992 0.718536 0.496033
0.952911 0.721313 0.514008
0.987976 0.723694 0.531647
1.000000 0.726318 0.549042
0.000000 0.611511 0.112579
0.000000 0.614319 0.116669
0.000000 0.617859 0.123688
0.000000 0.630554 0.167969
0.000000 0.644226 0.205627
0.118896 0.657745 0.240265
0.243469 0.675232 0.274414
0.377075 0.698700 0.310089
0.516388 0.721649 0.346222
0.650909 0.743469 0.383270
0.763031 0.766663 0.422821
0.847931 0.783661 0.467529
0.910522 0.792664 0.511963
0.948578 0.795715 0.529633
0.982971 0.798218 0.546753
1.000000 0.800659 0.563354
0.000000 0.688873 0.118134
0.000000 0.691833 0.121826
0.000000 0.696899 0.127838
0.000000 0.709930 0.174469
0.000000 0.722748 0.213959
0.000000 0.735168 0.249481
0.168701 0.747711 0.282532
0.307526 0.767090 0.316071
0.439850 0.787903 0.349060
0.572266 0.807129 0.385315
0.691620 0.825348 0.421875
0.793976 0.841888 0.459229
0.877533 0.857635 0.501862
0.940063 0.871429 0.544647
0.977051 0.875305 0.561737
1.000000 0.878143 0.578705
0.000000 0.772980 0.126434
0.000000 0.775635 0.130035
0.000000 0.780426 0.136292
0.000000 0.792908 0.185181
0.000000 0.804962 0.225830
0.000000 0.816711 0.261963
0.076141 0.828156 0.295197
0.225800 0.841827 0.326904
0.362549 0.860718 0.358337
0.495483 0.877533 0.389191
0.616699 0.893890 0.422882
0.725647 0.909302 0.458313
0.820221 0.921570 0.492859
0.900421 0.931702 0.527924
0.963989 0.939178 0.565826
1.000000 0.944763 0.579987
0.000000 0.857239 0.140411
0.000000 0.859680 0.143677
0.000000 0.864319 0.149719
0.000000 0.875488 0.199677
0.000000 0.886414 0.240631
0.000000 0.896881 0.276764
0.000000 0.907043 0.309570
0.130524 0.916901 0.340118
0.294250 0.932709 0.370056
0.431976 0.948456 0.398407
0.558777 0.961212 0.422974
0.674835 0.971008 0.443481
0.777435 0.980835 0.470367
0.865723 0.989471 0.499115
0.939484 0.995941 0.533051
1.000000 1.000000 0.567749
0.087494 0.050049 0.146301
0.101898 0.049011 0.166901
0.183929 0.040527 0.181152
0.298370 0.018066 0.197906
0.400360 0.016083 0.225586
0.485291 0.011169 0.247070
0.569244 0.009796 0.269714
0.650696 0.028198 0.295074
0.729523 0.057587 0.324432
0.785980 0.078552 0.350769
0.831451 0.095154 0.375519
0.874390 0.109894 0.400330
0.916962 0.123260 0.425201
0.959106 0.135498 0.449860
1.000000 0.146423 0.473999
1.000000 0.155884 0.497620
0.087463 0.050018 0.156769
0.087463 0.049957 0.165863
0.159210 0.066620 0.182098
0.276245 0.080658 0.194733
0.373444 0.086670 0.215729
0.474121 0.088501 0.240570
0.559418 0.089050 0.260651
0.646149 0.102905 0.287323
0.725983 0.120270 0.314941
0.783508 0.133392 0.340668
0.829437 0.143799 0.365326
0.872986 0.153168 0.389984
0.915924 0.163055 0.415497
0.958374 0.172119 0.441071
1.000000 0.180084 0.466156
1.000000 0.186981 0.490601
0.083191 0.095428 0.165375
0.081940 0.105225 0.173431
0.136230 0.115295 0.180756
0.250671 0.136993 0.196411
0.356079 0.143250 0.213867
0.458740 0.146088 0.234222
0.552551 0.147247 0.256104
0.640808 0.157318 0.280609
0.721893 0.170563 0.306885
0.780823 0.180023 0.331818
0.827332 0.186676 0.355682
0.871185 0.193146 0.380066
0.914490 0.199707 0.405334
0.957306 0.206116 0.431305
0.999786 0.211975 0.457245
1.000000 0.216766 0.482758
0.071411 0.166229 0.177795
0.069733 0.173431 0.184509
0.105591 0.182648 0.191650
0.198395 0.198273 0.198547
0.321014 0.215668 0.219208
0.432129 0.218475 0.234436
0.533112 0.220459 0.253448
0.624878 0.227844 0.274811
0.708893 0.239288 0.298340
0.775818 0.248749 0.322510
0.823242 0.254517 0.345215
0.867798 0.260132 0.369080
0.911743 0.265625 0.393646
0.955170 0.270844 0.418488
0.998230 0.275543 0.443451
1.000000 0.279602 0.468353
0.053284 0.225891 0.179291
0.051178 0.231140 0.183655
0.077728 0.238464 0.189911
0.140869 0.248230 0.195282
0.315338 0.282104 0.239960
0.434998 0.293427 0.257263
0.535858 0.294922 0.273865
0.627258 0.300751 0.291718
0.709320 0.310211 0.312592
0.778961 0.319366 0.335327
0.825745 0.324524 0.356750
0.869507 0.329315 0.378937
0.912628 0.333954 0.401550
0.955170 0.338470 0.424683
0.997467 0.342682 0.448029
1.000000 0.346588 0.471405
0.026245 0.278625 0.177917
0.023682 0.282867 0.181946
0.048096 0.289124 0.187073
0.113220 0.296967 0.192291
0.250244 0.321533 0.232086
0.435516 0.361633 0.279572
0.534668 0.366119 0.297455
0.625031 0.370392 0.313690
0.706665 0.376312 0.332184
0.779816 0.382080 0.350922
0.828217 0.386627 0.370941
0.871277 0.390747 0.391296
0.913422 0.394714 0.412231
0.955231 0.398621 0.433563
0.996674 0.402466 0.455170
1.000000 0.406036 0.476807
0.000000 0.323883 0.174103
0.000000 0.327728 0.178009
0.011383 0.333405 0.182953
0.090546 0.340698 0.188202
0.199890 0.357758 0.223846
0.381500 0.395142 0.270172
0.537628 0.425323 0.317993
0.623993 0.431641 0.337463
0.702698 0.437256 0.356049
0.772247 0.442505 0.374603
0.829926 0.446289 0.392609
0.872925 0.446625 0.407715
0.914520 0.448303 0.424988
0.955292 0.451813 0.444946
0.995819 0.455078 0.465088
1.000000 0.458282 0.485168
